; generated by PrusaSlicer 2.7.1+win64 on 2025-04-16 at 16:05:32 UTC

; 

; external perimeters extrusion width = 0.42mm
; perimeters extrusion width = 0.44mm
; infill extrusion width = 0.44mm
; solid infill extrusion width = 0.44mm
; top infill extrusion width = 0.40mm
; first layer extrusion width = 0.42mm

M201 X500 Y500 Z100 E5000 ; sets maximum accelerations, mm/sec^2
M203 X500 Y500 Z10 E60 ; sets maximum feedrates, mm / sec
M204 S500 T1000 ; sets acceleration (S) and retract acceleration (R), mm/sec^2
M205 X8.00 Y8.00 Z0.40 E5.00 ; sets the jerk limits, mm/sec
M205 S0 T0 ; sets the minimum extruding and travel feed rate, mm/sec

; printing object akkum2.STL id:0 copy 0
; stop printing object akkum2.STL id:0 copy 0

;TYPE:Custom
G90 ; use absolute coordinates
M83 ; extruder relative mode
M104 S150 ; set temporary nozzle temp to prevent oozing during homing
M140 S60 ; set final bed temp
G4 S30 ; allow partial nozzle warmup
G28 ; home all axis and restore leveling
G1 Z50 F240
G1 X2.0 Y10 F3000
M104 S210 ; set final nozzle temp
M190 S60 ; wait for bed temp to stabilize
M109 S210 ; wait for nozzle temp to stabilize
G1 Z0.28 F240
G92 E0
G1 X2.0 Y140 E10 F1500 ; prime the nozzle
G1 X2.3 Y140 F5000
G92 E0
G1 X2.3 Y10 E10 F1200 ; prime the nozzle
G92 E0
G21 ; set units to millimeters
G90 ; use absolute coordinates
M83 ; use relative distances for extrusion
; Filament gcode
M107
;LAYER_CHANGE
;Z:0.2
;HEIGHT:0.2
;BEFORE_LAYER_CHANGE
G92 E0
;0.2


G1 E-.8 F1800
G1 Z.2 F9000
;AFTER_LAYER_CHANGE
;0.2
G1 X88.941 Y94.312
G1 Z.2
G1 E.8 F1800
M204 S500
;TYPE:Skirt/Brim
;WIDTH:0.42
G1 F1200
G1 X90.339 Y93.471 E.05115
G1 X91.329 Y93.323 E.03139
G1 X128.671 Y93.323 E1.17083
G1 X130.254 Y93.717 E.05115
G1 X131.059 Y94.312 E.03139
G1 X133.988 Y97.241 E.12988
G1 X134.829 Y98.639 E.05115
G1 X134.977 Y99.629 E.03139
G1 X134.977 Y120.371 E.65035
G1 X134.583 Y121.954 E.05115
G1 X133.988 Y122.759 E.03139
G1 X131.059 Y125.688 E.12988
G1 X129.661 Y126.529 E.05115
G1 X128.671 Y126.677 E.03139
G1 X91.329 Y126.677 E1.17083
G1 X89.746 Y126.283 E.05115
G1 X88.941 Y125.688 E.03139
G1 X86.012 Y122.759 E.12988
G1 X85.171 Y121.361 E.05115
G1 X85.023 Y120.371 E.03139
G1 X85.023 Y99.629 E.65035
G1 X85.417 Y98.046 E.05115
G1 X86.012 Y97.241 E.03139
G1 X88.899 Y94.354 E.12801
;WIPE_START
G1 F7200
G1 X88.941 Y94.312 E-.01411
G1 X90.339 Y93.471 E-.38747
G1 X91.329 Y93.323 E-.23774
G1 X92.006 Y93.323 E-.16068
;WIPE_END
G1 X90.93 Y97.635 F9000
G1 E.8 F1800
G1 F1200
G1 X92.853 Y96.986 E.06364
G1 X127.086 Y96.99 E1.07335
G1 X128.035 Y97.174 E.03031
G1 X128.943 Y97.565 E.031
G1 X130.162 Y98.588 E.0499
G1 X130.953 Y99.806 E.04554
G1 X131.313 Y101.189 E.04481
G1 X131.313 Y118.81 E.55249
G1 X131.015 Y120.033 E.03947
G1 X130.606 Y120.849 E.02862
G1 X129.708 Y121.861 E.04242
G1 X129.07 Y122.365 E.02549
G1 X127.147 Y123.013 E.06363
G1 X92.89 Y123.013 E1.0741
G1 X91.667 Y122.715 E.03947
G1 X90.851 Y122.306 E.02862
G1 X89.839 Y121.408 E.04242
G1 X89.335 Y120.77 E.02549
G1 X88.687 Y118.847 E.06363
G1 X88.687 Y101.19 E.55362
G1 X88.985 Y99.967 E.03947
G1 X89.394 Y99.151 E.02862
G1 X90.292 Y98.139 E.04242
G1 X90.883 Y97.673 E.0236
G1 X91.116 Y97.969 F9000
G1 F1200
G1 X91.137 Y97.952 E.00085
G1 X92.884 Y97.364 E.0578
G1 X127.068 Y97.367 E1.07182
G1 X127.941 Y97.54 E.0279
G1 X128.766 Y97.899 E.02821
G1 X129.897 Y98.858 E.04649
G1 X130.596 Y99.932 E.04018
G1 X130.936 Y101.213 E.04156
G1 X130.936 Y118.786 E.55099
G1 X130.655 Y119.92 E.03663
G1 X130.282 Y120.656 E.02587
G1 X129.439 Y121.596 E.03959
G1 X128.863 Y122.048 E.02296
G1 X127.116 Y122.636 E.0578
G1 X92.914 Y122.636 E1.07238
G1 X91.78 Y122.355 E.03663
G1 X91.044 Y121.982 E.02587
G1 X90.104 Y121.139 E.03959
G1 X89.652 Y120.563 E.02296
G1 X89.064 Y118.816 E.0578
G1 X89.064 Y101.214 E.5519
G1 X89.345 Y100.08 E.03663
G1 X89.718 Y99.344 E.02587
G1 X90.561 Y98.404 E.03959
G1 X91.068 Y98.006 E.02021
G1 X91.3 Y98.303 F9000
G1 F1200
G1 X91.344 Y98.269 E.00174
G1 X92.915 Y97.741 E.05197
G1 X127.048 Y97.744 E1.07022
G1 X127.846 Y97.905 E.02552
G1 X128.588 Y98.233 E.02544
G1 X129.63 Y99.126 E.04303
G1 X130.263 Y100.11 E.03669
G1 X130.559 Y101.238 E.03657
G1 X130.559 Y118.762 E.54945
G1 X130.295 Y119.806 E.03376
G1 X129.958 Y120.46 E.02307
G1 X129.171 Y121.33 E.03678
G1 X128.657 Y121.731 E.02044
G1 X127.086 Y122.259 E.05197
G1 X92.938 Y122.259 E1.07069
G1 X91.894 Y121.995 E.03376
G1 X91.24 Y121.658 E.02307
G1 X90.37 Y120.871 E.03678
G1 X89.969 Y120.357 E.02044
G1 X89.441 Y118.786 E.05197
G1 X89.441 Y101.238 E.55021
G1 X89.705 Y100.194 E.03376
G1 X90.042 Y99.54 E.02307
G1 X90.829 Y98.67 E.03678
G1 X91.253 Y98.34 E.01685
G1 X91.483 Y98.638 F9000
G1 F1200
G1 X91.549 Y98.587 E.00262
G1 X92.945 Y98.118 E.04617
G1 X127.029 Y98.121 E1.06868
G1 X127.748 Y98.27 E.02302
G1 X128.408 Y98.565 E.02267
G1 X129.362 Y99.392 E.03959
G1 X129.906 Y100.237 E.03151
G1 X130.182 Y101.263 E.03331
G1 X130.182 Y118.738 E.54792
G1 X129.935 Y119.689 E.03081
G1 X129.636 Y120.263 E.02029
G1 X128.904 Y121.063 E.034
G1 X128.451 Y121.413 E.01795
G1 X127.055 Y121.882 E.04617
G1 X92.962 Y121.882 E1.06896
G1 X92.011 Y121.635 E.03081
G1 X91.437 Y121.336 E.02029
G1 X90.637 Y120.604 E.034
G1 X90.287 Y120.151 E.01795
G1 X89.818 Y118.755 E.04617
G1 X89.818 Y101.262 E.54848
G1 X90.065 Y100.311 E.03081
G1 X90.364 Y99.737 E.02029
G1 X91.096 Y98.937 E.034
G1 X91.435 Y98.675 E.01343
G1 X91.664 Y98.974 F9000
G1 F1200
G1 X91.753 Y98.906 E.00351
G1 X92.976 Y98.495 E.04045
G1 X127.01 Y98.498 E1.06711
G1 X127.613 Y98.623 E.01931
G1 X128.228 Y98.897 E.02111
G1 X129.092 Y99.657 E.03608
G1 X129.572 Y100.414 E.0281
G1 X129.805 Y101.287 E.02833
G1 X129.805 Y118.713 E.54638
G1 X129.577 Y119.571 E.02784
G1 X129.315 Y120.064 E.0175
G1 X128.639 Y120.795 E.03122
G1 X128.247 Y121.094 E.01546
G1 X127.024 Y121.505 E.04045
G1 X92.987 Y121.505 E1.06721
G1 X92.129 Y121.277 E.02784
G1 X91.636 Y121.015 E.0175
G1 X90.905 Y120.339 E.03122
G1 X90.606 Y119.947 E.01546
G1 X90.195 Y118.724 E.04045
G1 X90.195 Y101.287 E.54672
G1 X90.423 Y100.429 E.02784
G1 X90.685 Y99.936 E.0175
G1 X91.361 Y99.205 E.03122
G1 X91.616 Y99.01 E.01007
G1 X91.843 Y99.31 F9000
G1 F1200
G1 X91.955 Y99.225 E.00441
G1 X93.006 Y98.872 E.03476
G1 X126.989 Y98.876 E1.06551
G1 X127.514 Y98.987 E.01682
G1 X128.045 Y99.228 E.01828
G1 X128.822 Y99.921 E.03264
G1 X129.216 Y100.541 E.02303
G1 X129.428 Y101.313 E.0251
G1 X129.428 Y118.687 E.54475
G1 X129.22 Y119.449 E.02477
G1 X128.996 Y119.862 E.01473
G1 X128.045 Y120.775 E.04134
G1 X126.994 Y121.128 E.03476
G1 X93.013 Y121.128 E1.06545
G1 X92.251 Y120.92 E.02477
G1 X91.838 Y120.696 E.01473
G1 X90.925 Y119.745 E.04134
G1 X90.572 Y118.694 E.03476
G1 X90.572 Y101.313 E.54497
G1 X90.78 Y100.551 E.02477
G1 X91.004 Y100.138 E.01473
G1 X91.625 Y99.475 E.02848
G1 X91.795 Y99.346 E.00669
G1 X92.067 Y99.631 F9000
G1 F1200
G1 X92.157 Y99.545 E.0039
G1 X93.037 Y99.249 E.02911
G1 X126.968 Y99.253 E1.06388
G1 X127.411 Y99.35 E.01422
G1 X127.859 Y99.558 E.01549
G1 X128.55 Y100.183 E.02921
G1 X128.862 Y100.671 E.01816
G1 X129.051 Y101.34 E.0218
G1 X129.051 Y118.66 E.54306
G1 X128.863 Y119.324 E.02164
G1 X128.678 Y119.657 E.01194
G1 X127.843 Y120.455 E.03621
G1 X126.963 Y120.751 E.02911
G1 X93.04 Y120.751 E1.06363
G1 X92.376 Y120.563 E.02164
G1 X92.043 Y120.378 E.01194
G1 X91.245 Y119.543 E.03621
G1 X90.949 Y118.663 E.02911
G1 X90.949 Y101.34 E.54315
G1 X91.137 Y100.676 E.02164
G1 X91.322 Y100.343 E.01194
G1 X92.024 Y99.672 E.03045
G1 X92.233 Y99.957 F9000
G1 F1200
G1 X92.356 Y99.866 E.0048
G1 X93.068 Y99.626 E.02356
G1 X126.946 Y99.63 E1.06222
G1 X127.671 Y99.885 E.0241
G1 X128.276 Y100.443 E.02581
G1 X128.508 Y100.805 E.01348
G1 X128.674 Y101.368 E.0184
G1 X128.674 Y118.632 E.5413
G1 X128.509 Y119.194 E.01836
G1 X128.363 Y119.449 E.00921
G1 X127.854 Y119.979 E.02304
G1 X127.644 Y120.134 E.00818
G1 X126.932 Y120.374 E.02356
G1 X93.068 Y120.374 E1.06178
G1 X92.506 Y120.209 E.01836
G1 X92.251 Y120.063 E.00921
G1 X91.721 Y119.554 E.02304
G1 X91.566 Y119.344 E.00818
G1 X91.326 Y118.632 E.02356
G1 X91.326 Y101.368 E.5413
G1 X91.637 Y100.551 E.02741
G1 X92.146 Y100.021 E.02304
G1 X92.185 Y99.992 E.00152
G1 X92.458 Y100.279 F9000
G1 F1200
G1 X92.554 Y100.188 E.00415
G1 X93.099 Y100.003 E.01805
G1 X126.924 Y100.007 E1.06056
G1 X127.482 Y100.213 E.01865
G1 X128.001 Y100.701 E.02234
G1 X128.297 Y101.398 E.02374
G1 X128.297 Y118.602 E.53942
G1 X128.051 Y119.236 E.02132
G1 X127.446 Y119.812 E.02619
G1 X126.901 Y119.997 E.01805
G1 X93.098 Y119.997 E1.05987
G1 X92.464 Y119.751 E.02132
G1 X91.888 Y119.146 E.02619
G1 X91.703 Y118.601 E.01805
G1 X91.703 Y101.398 E.53939
G1 X91.949 Y100.764 E.02132
G1 X92.415 Y100.321 E.02016
G1 X92.659 Y100.575 F9000
G1 F1200
G1 X93.131 Y100.38 E.01601
G1 X126.902 Y100.384 E1.05887
G1 X127.292 Y100.54 E.01317
G1 X127.723 Y100.957 E.0188
G1 X127.92 Y101.429 E.01604
G1 X127.92 Y118.571 E.53748
G1 X127.806 Y118.917 E.01142
G1 X127.341 Y119.425 E.02159
G1 X126.869 Y119.62 E.01601
G1 X93.129 Y119.62 E1.05789
G1 X92.783 Y119.506 E.01142
G1 X92.275 Y119.041 E.02159
G1 X92.08 Y118.569 E.01601
G1 X92.08 Y101.429 E.53741
G1 X92.256 Y100.982 E.01506
G1 X92.616 Y100.618 E.01605
G1 X92.883 Y100.891 F9000
G1 F1200
G1 X92.937 Y100.839 E.00235
G1 X93.164 Y100.757 E.00757
G1 X126.882 Y100.764 E1.0572
G1 X127.1 Y100.867 E.00756
G1 X127.443 Y101.21 E.01521
G1 X127.543 Y101.464 E.00856
G1 X127.543 Y118.536 E.53528
G1 X127.443 Y118.79 E.00856
G1 X127.063 Y119.161 E.01665
G1 X126.836 Y119.243 E.00757
G1 X93.164 Y119.243 E1.05576
G1 X92.91 Y119.143 E.00856
G1 X92.539 Y118.763 E.01665
G1 X92.457 Y118.536 E.00757
G1 X92.457 Y101.464 E.53528
G1 X92.557 Y101.21 E.00856
G1 X92.84 Y100.933 E.01242
G1 X93.121 Y101.181 F9000
G1 F1200
G1 X93.137 Y101.163 E.00076
G1 X126.794 Y101.134 E1.05529
G1 X127.166 Y101.506 E.0165
G1 X127.166 Y118.494 E.53265
G1 X126.863 Y118.837 E.01435
G1 X93.206 Y118.866 E1.05529
G1 X92.863 Y118.563 E.01435
G1 X92.834 Y101.506 E.53481
G1 X93.082 Y101.226 E.01173
G1 X93.322 Y101.511 F9000
G1 F1200
G1 X126.678 Y101.511 E1.04585
G1 X126.789 Y101.622 E.00492
G1 X126.789 Y118.378 E.52537
G1 X126.678 Y118.489 E.00492
G1 X93.322 Y118.489 E1.04585
G1 X93.211 Y118.378 E.00492
G1 X93.211 Y101.622 E.52537
G1 X93.279 Y101.554 E.00302
; printing object akkum2.STL id:0 copy 0
;WIPE_START
G1 F7200
G1 X93.322 Y101.511 E-.01444
G1 X96.63 Y101.511 E-.78556
;WIPE_END
G1 X94.364 Y102.664 F9000
G1 E.8 F1800
;TYPE:Perimeter
;WIDTH:0.419999
G1 F1200
G1 X125.636 Y102.664 E.98051
G1 X125.636 Y110 E.23001
G1 X125.636 Y117.336 E.23001
G1 X94.364 Y117.336 E.98051
G1 X94.364 Y102.724 E.45815
G1 X93.987 Y102.287 F9000
G1 F1200
G1 X126.013 Y102.287 E1.00415
G1 X126.013 Y110 E.24184
G1 X126.013 Y117.713 E.24184
G1 X93.987 Y117.713 E1.00415
G1 X93.987 Y102.347 E.48179
G1 X93.61 Y101.91 F9000
;TYPE:External perimeter
G1 F1200
G1 X126.39 Y101.91 E1.02779
G1 X126.39 Y110 E.25366
G1 X126.39 Y118.09 E.25366
G1 X93.61 Y118.09 E1.02779
G1 X93.61 Y101.97 E.50543
;WIPE_START
G1 F7200
G1 X93.61 Y101.91 E-.01425
G1 X96.918 Y101.91 E-.78575
;WIPE_END
G1 X125.515 Y103.551 F9000
G1 E.8 F1800
;TYPE:Solid infill
;WIDTH:0.42173
G1 F1200
G1 X124.919 Y102.955 E.02655
G1 X124.383 Y102.955 E.01688
G1 X125.345 Y103.917 E.04285
G1 X125.345 Y104.453 E.01688
G1 X123.847 Y102.955 E.06673
G1 X123.312 Y102.955 E.01685
G1 X125.345 Y104.988 E.09056
G1 X125.345 Y105.524 E.01688
G1 X122.776 Y102.955 E.11444
G1 X122.24 Y102.955 E.01688
G1 X125.345 Y106.06 E.13831
G1 X125.345 Y106.595 E.01685
G1 X121.705 Y102.955 E.16214
G1 X121.169 Y102.955 E.01688
G1 X125.345 Y107.131 E.18602
G1 X125.345 Y107.667 E.01688
G1 X120.633 Y102.955 E.2099
G1 X120.097 Y102.955 E.01688
G1 X125.345 Y108.203 E.23377
G1 X125.345 Y108.738 E.01685
G1 X119.562 Y102.955 E.2576
G1 X119.026 Y102.955 E.01688
G1 X125.345 Y109.274 E.28148
G1 X125.345 Y109.81 E.01688
G1 X118.49 Y102.955 E.30536
G1 X117.955 Y102.955 E.01685
G1 X125.345 Y110.345 E.32919
G1 X125.345 Y110.881 E.01688
G1 X117.419 Y102.955 E.35306
G1 X116.883 Y102.955 E.01688
G1 X125.345 Y111.417 E.37694
G1 X125.345 Y111.953 E.01688
G1 X116.347 Y102.955 E.40082
G1 X115.812 Y102.955 E.01685
G1 X125.345 Y112.488 E.42465
G1 X125.345 Y113.024 E.01688
G1 X115.276 Y102.955 E.44853
G1 X114.74 Y102.955 E.01688
G1 X125.345 Y113.56 E.4724
G1 X125.345 Y114.095 E.01685
G1 X114.205 Y102.955 E.49623
G1 X113.669 Y102.955 E.01688
G1 X125.345 Y114.631 E.52011
G1 X125.345 Y115.167 E.01688
G1 X113.133 Y102.955 E.54399
G1 X112.597 Y102.955 E.01688
G1 X125.345 Y115.703 E.56786
G1 X125.345 Y116.238 E.01685
G1 X112.062 Y102.955 E.59169
G1 X111.526 Y102.955 E.01688
G1 X125.345 Y116.774 E.61557
G1 X125.345 Y117.045 E.00854
G1 X125.081 Y117.045 E.00832
G1 X110.99 Y102.955 E.62766
G1 X110.455 Y102.955 E.01685
G1 X124.546 Y117.045 E.62766
G1 X124.01 Y117.045 E.01688
G1 X109.919 Y102.955 E.62766
G1 X109.383 Y102.955 E.01688
G1 X123.474 Y117.045 E.62766
G1 X122.938 Y117.045 E.01688
G1 X108.847 Y102.955 E.62766
G1 X108.312 Y102.955 E.01685
G1 X122.403 Y117.045 E.62766
G1 X121.867 Y117.045 E.01688
G1 X107.776 Y102.955 E.62766
G1 X107.24 Y102.955 E.01688
G1 X121.331 Y117.045 E.62766
G1 X120.795 Y117.045 E.01688
G1 X106.705 Y102.955 E.62764
G1 X106.169 Y102.955 E.01688
G1 X120.26 Y117.045 E.62766
G1 X119.724 Y117.045 E.01688
G1 X105.633 Y102.955 E.62766
G1 X105.097 Y102.955 E.01688
G1 X119.188 Y117.045 E.62766
G1 X118.653 Y117.045 E.01685
G1 X104.562 Y102.955 E.62766
G1 X104.026 Y102.955 E.01688
G1 X118.117 Y117.045 E.62766
G1 X117.581 Y117.045 E.01688
G1 X103.49 Y102.955 E.62766
G1 X102.954 Y102.955 E.01688
G1 X117.045 Y117.045 E.62766
G1 X116.51 Y117.045 E.01685
G1 X102.419 Y102.955 E.62766
G1 X101.883 Y102.955 E.01688
G1 X115.974 Y117.045 E.62766
G1 X115.438 Y117.045 E.01688
G1 X101.347 Y102.955 E.62766
G1 X100.812 Y102.955 E.01685
G1 X114.903 Y117.045 E.62766
G1 X114.367 Y117.045 E.01688
G1 X100.276 Y102.955 E.62766
G1 X99.74 Y102.955 E.01688
G1 X113.831 Y117.045 E.62766
G1 X113.295 Y117.045 E.01688
G1 X99.204 Y102.955 E.62766
G1 X98.669 Y102.955 E.01685
G1 X112.76 Y117.045 E.62766
G1 X112.224 Y117.045 E.01688
G1 X98.133 Y102.955 E.62766
G1 X97.597 Y102.955 E.01688
G1 X111.688 Y117.045 E.62766
G1 X111.153 Y117.045 E.01685
G1 X97.062 Y102.955 E.62766
G1 X96.526 Y102.955 E.01688
G1 X110.617 Y117.045 E.62766
G1 X110.081 Y117.045 E.01688
G1 X95.99 Y102.955 E.62766
G1 X95.454 Y102.955 E.01688
G1 X109.545 Y117.045 E.62766
G1 X109.01 Y117.045 E.01685
G1 X94.919 Y102.955 E.62766
G1 X94.655 Y102.955 E.00832
G1 X94.655 Y103.226 E.00854
G1 X108.474 Y117.045 E.61557
G1 X107.938 Y117.045 E.01688
G1 X94.655 Y103.762 E.59169
G1 X94.655 Y104.297 E.01685
G1 X107.403 Y117.045 E.56786
G1 X106.867 Y117.045 E.01688
G1 X94.655 Y104.833 E.54399
G1 X94.655 Y105.369 E.01688
G1 X106.331 Y117.045 E.52011
G1 X105.795 Y117.045 E.01688
G1 X94.655 Y105.905 E.49623
G1 X94.655 Y106.44 E.01685
G1 X105.26 Y117.045 E.4724
G1 X104.724 Y117.045 E.01688
G1 X94.655 Y106.976 E.44853
G1 X94.655 Y107.512 E.01688
G1 X104.188 Y117.045 E.42465
G1 X103.653 Y117.045 E.01685
G1 X94.655 Y108.047 E.40082
G1 X94.655 Y108.583 E.01688
G1 X103.117 Y117.045 E.37694
G1 X102.581 Y117.045 E.01688
G1 X94.655 Y109.119 E.35306
G1 X94.655 Y109.655 E.01688
G1 X102.045 Y117.045 E.32919
G1 X101.51 Y117.045 E.01685
G1 X94.655 Y110.19 E.30536
G1 X94.655 Y110.726 E.01688
G1 X100.974 Y117.045 E.28148
G1 X100.438 Y117.045 E.01688
G1 X94.655 Y111.262 E.2576
G1 X94.655 Y111.798 E.01688
G1 X99.902 Y117.045 E.23373
G1 X99.367 Y117.045 E.01685
G1 X94.655 Y112.333 E.2099
G1 X94.655 Y112.869 E.01688
G1 X98.831 Y117.045 E.18602
G1 X98.295 Y117.045 E.01688
G1 X94.655 Y113.405 E.16214
G1 X94.655 Y113.94 E.01685
G1 X97.76 Y117.045 E.13831
G1 X97.224 Y117.045 E.01688
G1 X94.655 Y114.476 E.11444
G1 X94.655 Y115.012 E.01688
G1 X96.688 Y117.045 E.09056
G1 X96.152 Y117.045 E.01688
G1 X94.655 Y115.548 E.06668
G1 X94.655 Y116.083 E.01685
G1 X95.617 Y117.045 E.04285
G1 X95.081 Y117.045 E.01688
G1 X94.485 Y116.449 E.02655
; stop printing object akkum2.STL id:0 copy 0
M106 S255
;LAYER_CHANGE
;Z:0.4
;HEIGHT:0.2
;BEFORE_LAYER_CHANGE
G92 E0
;0.4


;WIPE_START
G1 F7200
G1 X95.081 Y117.045 E-.20018
G1 X95.617 Y117.045 E-.1273
