; generated by PrusaSlicer 2.7.1+win64 on 2025-04-09 at 15:16:46 UTC

; 

; external perimeters extrusion width = 0.42mm
; perimeters extrusion width = 0.44mm
; infill extrusion width = 0.44mm
; solid infill extrusion width = 0.44mm
; top infill extrusion width = 0.40mm
; support material extrusion width = 0.36mm
; first layer extrusion width = 0.42mm

M201 X500 Y500 Z100 E5000 ; sets maximum accelerations, mm/sec^2
M203 X500 Y500 Z10 E60 ; sets maximum feedrates, mm / sec
M204 S500 T1000 ; sets acceleration (S) and retract acceleration (R), mm/sec^2
M205 X8.00 Y8.00 Z0.40 E5.00 ; sets the jerk limits, mm/sec
M205 S0 T0 ; sets the minimum extruding and travel feed rate, mm/sec

; printing object derjatelzajigalka.STL id:0 copy 0
; stop printing object derjatelzajigalka.STL id:0 copy 0

;TYPE:Custom
G90 ; use absolute coordinates
M83 ; extruder relative mode
M104 S150 ; set temporary nozzle temp to prevent oozing during homing
M140 S60 ; set final bed temp
G4 S30 ; allow partial nozzle warmup
G28 ; home all axis and restore leveling
G1 Z50 F240
G1 X2.0 Y10 F3000
M104 S210 ; set final nozzle temp
M190 S60 ; wait for bed temp to stabilize
M109 S210 ; wait for nozzle temp to stabilize
G1 Z0.28 F240
G92 E0
G1 X2.0 Y140 E10 F1500 ; prime the nozzle
G1 X2.3 Y140 F5000
G92 E0
G1 X2.3 Y10 E10 F1200 ; prime the nozzle
G92 E0
G21 ; set units to millimeters
G90 ; use absolute coordinates
M83 ; use relative distances for extrusion
; Filament gcode
M107
;LAYER_CHANGE
;Z:0.2
;HEIGHT:0.2
;BEFORE_LAYER_CHANGE
G92 E0
;0.2


G1 E-.8 F1800
G1 Z.2 F9000
;AFTER_LAYER_CHANGE
;0.2
G1 X89.712 Y71.364
G1 Z.2
G1 E.8 F1800
M204 S500
;TYPE:Skirt/Brim
;WIDTH:0.42
G1 F1200
G1 X92.641 Y68.435 E.12988
G1 X94.039 Y67.594 E.05115
G1 X95.029 Y67.446 E.03139
G1 X124.971 Y67.446 E.93881
G1 X126.554 Y67.84 E.05115
G1 X127.359 Y68.435 E.03139
G1 X130.288 Y71.364 E.12988
G1 X131.256 Y73.373 E.06992
G1 X138.256 Y135.373 E1.95632
G1 X138.277 Y142.694 E.22955
G1 X137.883 Y144.277 E.05115
G1 X137.288 Y145.082 E.03139
G1 X134.359 Y148.011 E.12988
G1 X132.961 Y148.852 E.05115
G1 X131.971 Y149 E.03139
G1 X88.029 Y149 E1.37777
G1 X86.446 Y148.606 E.05115
G1 X85.641 Y148.011 E.03139
G1 X82.712 Y145.082 E.12988
G1 X81.871 Y143.684 E.05115
G1 X81.723 Y142.694 E.03139
G1 X81.723 Y135.752 E.21766
G1 X88.744 Y73.373 E1.9682
G1 X89.686 Y71.418 E.06804
;WIPE_START
G1 F7200
G1 X89.712 Y71.364 E-.01423
G1 X92.051 Y69.025 E-.78577
;WIPE_END
G1 X92.903 Y73.63 F9000
G1 E.8 F1800
G1 F1200
G1 X93.518 Y72.735 E.03405
G1 X94.511 Y71.844 E.04183
G1 X95.368 Y71.408 E.03015
G1 X96.591 Y71.11 E.03947
G1 X123.387 Y71.113 E.84017
G1 X124.335 Y71.297 E.03028
G1 X125.243 Y71.688 E.031
G1 X126.462 Y72.712 E.04992
G1 X127.253 Y73.929 E.04551
G1 X127.613 Y75.312 E.04481
G1 X127.613 Y133.117 E1.81244
G1 X130.627 Y133.139 E.0945
G1 X131.681 Y133.423 E.03423
G1 X132.732 Y134.025 E.03798
G1 X133.793 Y135.114 E.04767
G1 X134.313 Y136.082 E.03445
G1 X134.613 Y137.313 E.03973
G1 X134.613 Y141.154 E.12043
G1 X134.149 Y142.741 E.05184
G1 X133.482 Y143.711 E.03691
G1 X132.489 Y144.602 E.04183
G1 X131.632 Y145.038 E.03015
G1 X130.41 Y145.337 E.03945
G1 X89.569 Y145.337 E1.28054
G1 X87.981 Y144.872 E.05188
G1 X87.048 Y144.237 E.03539
G1 X86.212 Y143.34 E.03845
G1 X85.725 Y142.46 E.03154
G1 X85.43 Y141.451 E.03296
G1 X85.386 Y137.306 E.12997
G1 X85.8 Y135.812 E.04861
G1 X86.367 Y134.909 E.03343
G1 X87.14 Y134.129 E.03443
G1 X88.004 Y133.562 E.0324
G1 X89.31 Y133.149 E.04295
G1 X92.387 Y133.122 E.09648
G1 X92.387 Y75.292 E1.81322
G1 X92.851 Y73.705 E.05184
G1 X92.869 Y73.68 E.00097
G1 X93.204 Y73.842 F9000
G1 F1200
G1 X93.786 Y73.001 E.03207
G1 X94.744 Y72.141 E.04037
G1 X95.48 Y71.768 E.02587
G1 X96.614 Y71.487 E.03663
G1 X123.368 Y71.49 E.83885
G1 X124.241 Y71.663 E.0279
G1 X125.066 Y72.022 E.02821
G1 X126.197 Y72.981 E.04649
G1 X126.896 Y74.055 E.04018
G1 X127.236 Y75.337 E.04159
G1 X127.236 Y133.492 E1.82341
G1 X130.599 Y133.516 E.10545
G1 X131.558 Y133.78 E.03119
G1 X132.482 Y134.308 E.03337
G1 X133.475 Y135.319 E.04443
G1 X133.953 Y136.197 E.03134
G1 X134.236 Y137.337 E.03683
G1 X134.236 Y141.127 E.11883
G1 X133.796 Y142.604 E.04832
G1 X133.214 Y143.445 E.03207
G1 X132.256 Y144.305 E.04037
G1 X131.52 Y144.678 E.02587
G1 X130.386 Y144.959 E.03663
G1 X89.596 Y144.959 E1.27894
G1 X88.119 Y144.519 E.04832
G1 X87.28 Y143.939 E.03198
G1 X86.505 Y143.102 E.03577
G1 X86.066 Y142.298 E.02872
G1 X85.8 Y141.371 E.03024
G1 X85.763 Y137.33 E.12671
G1 X86.155 Y135.942 E.04522
G1 X86.65 Y135.159 E.02904
G1 X87.366 Y134.432 E.03199
G1 X88.146 Y133.913 E.02938
G1 X89.342 Y133.526 E.03941
G1 X92.764 Y133.496 E.1073
G1 X92.764 Y75.32 E1.82407
G1 X93.187 Y73.899 E.04649
G1 X93.547 Y74.009 F9000
G1 F1200
G1 X93.556 Y73.981 E.00092
G1 X94.055 Y73.266 E.02734
G1 X94.939 Y72.465 E.0374
G1 X95.594 Y72.128 E.0231
G1 X96.638 Y71.864 E.03376
G1 X123.349 Y71.867 E.8375
G1 X124.146 Y72.028 E.02549
G1 X124.888 Y72.356 E.02544
G1 X125.93 Y73.249 E.04303
G1 X126.563 Y74.233 E.03669
G1 X126.859 Y75.361 E.03657
G1 X126.859 Y133.866 E1.83438
G1 X130.571 Y133.892 E.11639
G1 X131.433 Y134.136 E.02809
G1 X132.233 Y134.592 E.02887
G1 X133.158 Y135.525 E.04119
G1 X133.594 Y136.314 E.02826
G1 X133.859 Y137.361 E.03386
G1 X133.859 Y141.098 E.11717
G1 X133.444 Y142.466 E.04482
G1 X132.945 Y143.18 E.02731
G1 X132.061 Y143.981 E.0374
G1 X131.406 Y144.318 E.0231
G1 X130.362 Y144.582 E.03376
G1 X89.625 Y144.582 E1.27728
G1 X88.257 Y144.168 E.04481
G1 X87.544 Y143.669 E.02729
G1 X86.798 Y142.863 E.03443
G1 X86.408 Y142.138 E.02581
G1 X86.169 Y141.294 E.0275
G1 X86.141 Y137.355 E.12351
G1 X86.51 Y136.073 E.04183
G1 X86.932 Y135.41 E.02464
G1 X87.621 Y134.71 E.0308
G1 X88.289 Y134.262 E.02522
G1 X89.376 Y133.903 E.03589
G1 X93.141 Y133.87 E.11805
G1 X93.141 Y75.348 E1.83492
G1 X93.53 Y74.066 E.04201
G1 X93.882 Y74.173 F9000
G1 F1200
G1 X93.883 Y74.17 E.0001
G1 X94.326 Y73.53 E.02441
G1 X95.137 Y72.787 E.03449
G1 X95.711 Y72.488 E.02029
G1 X96.662 Y72.241 E.03081
G1 X123.329 Y72.244 E.83613
G1 X124.048 Y72.393 E.02302
G1 X124.708 Y72.688 E.02267
G1 X125.662 Y73.516 E.03961
G1 X126.206 Y74.36 E.03148
G1 X126.482 Y75.386 E.03331
G1 X126.482 Y134.242 E1.84539
G1 X130.493 Y134.262 E.12576
G1 X131.307 Y134.493 E.02653
G1 X132.022 Y134.906 E.02589
G1 X132.842 Y135.732 E.03649
G1 X133.235 Y136.433 E.0252
G1 X133.482 Y137.385 E.03084
G1 X133.482 Y141.071 E.11557
G1 X133.117 Y142.276 E.03948
G1 X132.674 Y142.917 E.02443
G1 X131.863 Y143.659 E.03447
G1 X131.289 Y143.959 E.02031
G1 X130.338 Y144.205 E.0308
G1 X89.652 Y144.205 E1.27568
G1 X88.447 Y143.841 E.03947
G1 X87.806 Y143.397 E.02445
G1 X87.092 Y142.625 E.03297
G1 X86.766 Y142.016 E.02166
G1 X86.539 Y141.216 E.02607
G1 X86.518 Y137.38 E.12028
G1 X86.843 Y136.251 E.03684
G1 X87.216 Y135.659 E.02194
G1 X87.877 Y134.988 E.02953
G1 X88.435 Y134.611 E.02111
G1 X89.41 Y134.28 E.03228
G1 X93.518 Y134.244 E.12881
G1 X93.518 Y75.376 E1.84576
G1 X93.864 Y74.23 E.03753
G1 X94.224 Y74.342 F9000
G1 F1200
G1 X94.234 Y74.311 E.00102
G1 X94.597 Y73.792 E.01986
G1 X95.336 Y73.108 E.03157
G1 X95.829 Y72.846 E.0175
G1 X96.687 Y72.618 E.02784
G1 X123.31 Y72.622 E.83475
G1 X123.913 Y72.746 E.0193
G1 X124.528 Y73.02 E.02111
G1 X125.392 Y73.78 E.03608
G1 X125.872 Y74.537 E.0281
G1 X126.105 Y75.41 E.02833
G1 X126.105 Y134.618 E1.85643
G1 X130.415 Y134.632 E.13514
G1 X131.18 Y134.849 E.02493
G1 X131.808 Y135.218 E.02284
G1 X132.555 Y135.978 E.03341
G1 X132.877 Y136.553 E.02066
G1 X133.105 Y137.41 E.02781
G1 X133.105 Y141.042 E.11388
G1 X132.766 Y142.135 E.03588
G1 X132.403 Y142.654 E.01986
G1 X131.664 Y143.338 E.03157
G1 X131.171 Y143.6 E.0175
G1 X130.313 Y143.828 E.02784
G1 X89.681 Y143.828 E1.27399
G1 X88.588 Y143.49 E.03587
G1 X88.069 Y143.126 E.01988
G1 X87.385 Y142.387 E.03157
G1 X87.123 Y141.895 E.01748
G1 X86.909 Y141.138 E.02467
G1 X86.895 Y137.406 E.11702
G1 X87.177 Y136.427 E.03194
G1 X87.501 Y135.908 E.01918
G1 X88.107 Y135.287 E.02721
G1 X88.582 Y134.959 E.0181
G1 X89.502 Y134.647 E.03046
G1 X93.895 Y134.619 E.13774
G1 X93.895 Y75.405 E1.85661
G1 X94.206 Y74.399 E.03302
G1 X94.558 Y74.508 F9000
G1 F1200
G1 X94.56 Y74.501 E.00023
G1 X94.87 Y74.053 E.01708
G1 X95.538 Y73.427 E.0287
G1 X95.951 Y73.204 E.01472
G1 X96.713 Y72.995 E.02477
G1 X123.289 Y72.999 E.83327
G1 X123.814 Y73.11 E.01682
G1 X124.345 Y73.351 E.01828
G1 X125.122 Y74.044 E.03264
G1 X125.516 Y74.664 E.02303
G1 X125.728 Y75.436 E.0251
G1 X125.728 Y134.995 E1.86743
G1 X130.337 Y135.002 E.14451
G1 X131.053 Y135.205 E.02333
G1 X131.593 Y135.528 E.01973
G1 X132.267 Y136.222 E.03033
G1 X132.52 Y136.675 E.01627
G1 X132.728 Y137.436 E.02474
G1 X132.728 Y141.013 E.11215
G1 X132.44 Y141.945 E.03059
G1 X132.13 Y142.393 E.01708
G1 X131.462 Y143.019 E.0287
G1 X131.049 Y143.243 E.01473
G1 X130.287 Y143.451 E.02477
G1 X89.71 Y143.451 E1.27226
G1 X88.778 Y143.163 E.03059
G1 X88.33 Y142.853 E.01708
G1 X87.704 Y142.185 E.0287
G1 X87.48 Y141.771 E.01476
G1 X87.279 Y141.06 E.02317
G1 X87.272 Y137.432 E.11375
G1 X87.512 Y136.602 E.02709
G1 X87.786 Y136.154 E.01647
G1 X88.34 Y135.583 E.02495
G1 X88.73 Y135.307 E.01498
G1 X89.594 Y135.014 E.02861
G1 X94.272 Y134.995 E.14668
G1 X94.272 Y75.433 E1.86752
G1 X94.541 Y74.565 E.02849
G1 X94.899 Y74.679 F9000
G1 F1200
G1 X94.91 Y74.645 E.00112
G1 X95.143 Y74.314 E.01269
G1 X95.743 Y73.745 E.02593
G1 X96.076 Y73.56 E.01194
G1 X96.74 Y73.372 E.02164
G1 X123.268 Y73.376 E.83177
G1 X123.711 Y73.473 E.01422
G1 X124.159 Y73.681 E.01549
G1 X124.85 Y74.306 E.02921
G1 X125.162 Y74.794 E.01816
G1 X125.351 Y75.463 E.0218
G1 X125.351 Y135.372 E1.8784
G1 X130.26 Y135.372 E.15392
G1 X130.924 Y135.56 E.02164
G1 X131.374 Y135.836 E.01655
G1 X131.978 Y136.465 E.02734
G1 X132.163 Y136.799 E.01197
G1 X132.351 Y137.463 E.02164
G1 X132.351 Y140.983 E.11037
G1 X132.09 Y141.802 E.02695
G1 X131.857 Y142.132 E.01267
G1 X131.257 Y142.701 E.02593
G1 X130.924 Y142.886 E.01194
G1 X130.26 Y143.074 E.02164
G1 X89.74 Y143.074 E1.27048
G1 X88.921 Y142.813 E.02695
G1 X88.591 Y142.58 E.01267
G1 X88.022 Y141.98 E.02593
G1 X87.837 Y141.647 E.01194
G1 X87.649 Y140.983 E.02164
G1 X87.649 Y137.46 E.11046
G1 X87.865 Y136.736 E.02369
G1 X88.094 Y136.374 E.01343
G1 X88.923 Y135.632 E.03488
G1 X89.683 Y135.381 E.0251
G1 X94.649 Y135.372 E.15571
G1 X94.649 Y75.463 E1.8784
G1 X94.881 Y74.737 E.0239
G1 X95.232 Y74.849 F9000
G1 F1200
G1 X95.236 Y74.835 E.00046
G1 X95.419 Y74.571 E.01007
G1 X95.951 Y74.06 E.02313
G1 X96.768 Y73.749 E.02741
G1 X123.246 Y73.753 E.8302
G1 X123.971 Y74.009 E.02411
G1 X124.576 Y74.566 E.02578
G1 X124.808 Y74.928 E.01348
G1 X124.974 Y75.491 E.0184
G1 X124.974 Y135.749 E1.88935
G1 X130.232 Y135.749 E.16486
G1 X130.793 Y135.914 E.01833
G1 X131.12 Y136.116 E.01205
G1 X131.663 Y136.674 E.02441
G1 X131.974 Y137.491 E.02741
G1 X131.974 Y140.954 E.10858
G1 X131.764 Y141.611 E.02163
G1 X131.581 Y141.875 E.01007
G1 X131.049 Y142.387 E.02315
G1 X130.794 Y142.532 E.0092
G1 X130.232 Y142.697 E.01836
G1 X89.769 Y142.697 E1.26869
G1 X89.112 Y142.487 E.02163
G1 X88.848 Y142.304 E.01007
G1 X88.337 Y141.772 E.02313
G1 X88.191 Y141.517 E.00921
G1 X88.026 Y140.955 E.01836
G1 X88.026 Y137.49 E.10864
G1 X88.217 Y136.875 E.02019
G1 X88.851 Y136.139 E.03046
G1 X89.112 Y135.959 E.00994
G1 X89.769 Y135.749 E.02163
G1 X95.026 Y135.749 E.16483
G1 X95.026 Y75.492 E1.88932
G1 X95.214 Y74.906 E.0193
G1 X95.564 Y75.023 F9000
G1 F1200
G1 X96.164 Y74.372 E.02776
G1 X96.798 Y74.126 E.02132
G1 X123.224 Y74.13 E.82857
G1 X123.782 Y74.336 E.01865
G1 X124.301 Y74.824 E.02234
G1 X124.597 Y75.521 E.02374
G1 X124.597 Y136.126 E1.90023
G1 X130.202 Y136.126 E.17574
G1 X130.868 Y136.397 E.02254
G1 X131.351 Y136.887 E.02157
G1 X131.597 Y137.521 E.02132
G1 X131.597 Y140.924 E.1067
G1 X131.436 Y141.423 E.01644
G1 X130.836 Y142.075 E.02778
G1 X130.202 Y142.32 E.02131
G1 X89.799 Y142.32 E1.26681
G1 X89.3 Y142.159 E.01644
G1 X88.649 Y141.559 E.02776
G1 X88.403 Y140.925 E.02132
G1 X88.403 Y137.521 E.10673
G1 X88.566 Y137.02 E.01652
G1 X89.104 Y136.419 E.02529
G1 X89.799 Y136.126 E.02365
G1 X95.403 Y136.126 E.17571
G1 X95.403 Y75.522 E1.9002
G1 X95.546 Y75.081 E.01454
G1 X95.913 Y75.234 F9000
G1 F1200
G1 X95.977 Y75.079 E.00526
G1 X96.382 Y74.679 E.01785
G1 X96.829 Y74.503 E.01506
G1 X123.202 Y74.507 E.82691
G1 X123.592 Y74.664 E.01318
G1 X124.107 Y75.208 E.02349
G1 X124.22 Y75.552 E.01135
G1 X124.22 Y136.503 E1.91108
G1 X130.171 Y136.503 E.18659
G1 X130.617 Y136.679 E.01503
G1 X131.044 Y137.106 E.01893
G1 X131.22 Y137.552 E.01503
G1 X131.22 Y140.894 E.10479
G1 X131.023 Y141.367 E.01607
G1 X130.517 Y141.829 E.02148
G1 X130.171 Y141.943 E.01142
G1 X89.829 Y141.943 E1.2649
G1 X89.356 Y141.746 E.01607
G1 X88.894 Y141.24 E.02148
G1 X88.78 Y140.894 E.01142
G1 X88.78 Y137.554 E.10472
G1 X88.912 Y137.171 E.0127
G1 X89.356 Y136.701 E.02027
G1 X89.829 Y136.503 E.01608
G1 X95.78 Y136.503 E.18659
G1 X95.78 Y75.552 E1.91108
G1 X95.89 Y75.289 E.00894
G1 X96.222 Y75.408 F9000
G1 F1200
G1 X96.239 Y75.36 E.0016
G1 X96.61 Y74.98 E.01665
G1 X96.864 Y74.88 E.00856
G1 X123.182 Y74.887 E.82518
G1 X123.4 Y74.99 E.00756
G1 X123.743 Y75.333 E.01521
G1 X123.843 Y75.587 E.00856
G1 X123.843 Y136.88 E1.9218
G1 X130.136 Y136.88 E.19731
G1 X130.363 Y136.962 E.00757
G1 X130.743 Y137.333 E.01665
G1 X130.843 Y137.587 E.00856
G1 X130.843 Y140.859 E.10259
G1 X130.761 Y141.086 E.00757
G1 X130.39 Y141.466 E.01665
G1 X130.136 Y141.566 E.00856
G1 X89.864 Y141.566 E1.2627
G1 X89.637 Y141.484 E.00757
G1 X89.257 Y141.113 E.01665
G1 X89.157 Y140.859 E.00856
G1 X89.157 Y137.587 E.10259
G1 X89.257 Y137.333 E.00856
G1 X89.61 Y136.98 E.01565
G1 X89.864 Y136.88 E.00856
G1 X96.157 Y136.88 E.19731
G1 X96.157 Y75.587 E1.9218
G1 X96.201 Y75.464 E.0041
G1 X96.563 Y75.56 F9000
G1 F1200
G1 X96.906 Y75.257 E.01435
G1 X123.094 Y75.257 E.82111
G1 X123.466 Y75.629 E.0165
G1 X123.466 Y137.257 E1.9323
G1 X130.163 Y137.286 E.20998
G1 X130.466 Y137.629 E.01435
G1 X130.437 Y140.886 E.10212
G1 X130.094 Y141.189 E.01435
G1 X89.837 Y141.16 E1.26223
G1 X89.534 Y140.817 E.01435
G1 X89.534 Y137.629 E.09996
G1 X89.837 Y137.286 E.01435
G1 X96.534 Y137.257 E.20998
G1 X96.563 Y75.62 E1.93259
G1 X96.911 Y75.745 F9000
G1 F1200
G1 X97.022 Y75.635 E.0049
G1 X122.978 Y75.635 E.81383
G1 X123.089 Y75.745 E.0049
G1 X123.089 Y137.635 E1.94052
G1 X129.978 Y137.635 E.216
G1 X130.089 Y137.745 E.0049
G1 X130.089 Y140.701 E.09268
G1 X129.978 Y140.812 E.00492
G1 X90.022 Y140.812 E1.25279
G1 X89.911 Y140.701 E.00492
G1 X89.911 Y137.745 E.09268
G1 X90.022 Y137.635 E.0049
G1 X96.911 Y137.635 E.216
G1 X96.911 Y75.805 E1.93864
; printing object derjatelzajigalka.STL id:0 copy 0
;WIPE_START
G1 F7200
G1 X96.911 Y75.745 E-.01425
G1 X97.022 Y75.635 E-.03711
G1 X100.174 Y75.635 E-.74864
;WIPE_END
G1 X98.064 Y76.787 F9000
G1 E.8 F1800
;TYPE:Perimeter
;WIDTH:0.419999
G1 F1200
G1 X121.936 Y76.787 E.74849
G1 X121.936 Y137.845 E1.91443
G1 X122.008 Y138.207 E.01157
G1 X122.313 Y138.599 E.01557
G1 X122.879 Y138.787 E.0187
G1 X128.936 Y138.787 E.18991
G1 X128.936 Y139.223 E.01367
G1 X128.936 Y139.659 E.01367
G1 X91.064 Y139.659 E1.18745
G1 X91.064 Y138.787 E.02734
G1 X97.121 Y138.787 E.18991
G1 X97.284 Y138.773 E.00513
G1 X97.687 Y138.599 E.01376
G1 X97.992 Y138.207 E.01557
G1 X98.064 Y137.845 E.01157
G1 X98.064 Y76.847 E1.91255
G1 X97.687 Y76.41 F9000
G1 F1200
G1 X122.313 Y76.41 E.77213
G1 X122.313 Y137.845 E1.92625
G1 X122.356 Y138.062 E.00694
G1 X122.539 Y138.297 E.00934
G1 X122.879 Y138.41 E.01123
G1 X129.313 Y138.41 E.20173
G1 X129.313 Y139.223 E.02549
G1 X129.313 Y140.036 E.02549
G1 X90.687 Y140.036 E1.21109
G1 X90.687 Y138.41 E.05098
G1 X97.121 Y138.41 E.20173
G1 X97.461 Y138.297 E.01123
G1 X97.644 Y138.062 E.00934
G1 X97.687 Y137.845 E.00694
G1 X97.687 Y76.47 E1.92437
G1 X97.31 Y76.033 F9000
;TYPE:External perimeter
G1 F1200
G1 X122.69 Y76.033 E.79577
G1 X122.69 Y137.845 E1.93807
G1 X122.765 Y137.995 E.00526
G1 X122.879 Y138.033 E.00377
G1 X129.69 Y138.033 E.21355
G1 X129.69 Y139.223 E.03731
G1 X129.69 Y140.413 E.03731
G1 X90.31 Y140.413 E1.23473
G1 X90.31 Y138.033 E.07462
G1 X97.121 Y138.033 E.21355
G1 X97.235 Y137.995 E.00377
G1 X97.31 Y137.845 E.00526
