; generated by PrusaSlicer 2.7.1+win64 on 2025-04-09 at 15:07:56 UTC

; 

; external perimeters extrusion width = 0.42mm
; perimeters extrusion width = 0.44mm
; infill extrusion width = 0.44mm
; solid infill extrusion width = 0.44mm
; top infill extrusion width = 0.40mm
; support material extrusion width = 0.36mm
; first layer extrusion width = 0.42mm

M201 X500 Y500 Z100 E5000 ; sets maximum accelerations, mm/sec^2
M203 X500 Y500 Z10 E60 ; sets maximum feedrates, mm / sec
M204 S500 T1000 ; sets acceleration (S) and retract acceleration (R), mm/sec^2
M205 X8.00 Y8.00 Z0.40 E5.00 ; sets the jerk limits, mm/sec
M205 S0 T0 ; sets the minimum extruding and travel feed rate, mm/sec

; printing object derjatelsoplo.STL id:0 copy 0
; stop printing object derjatelsoplo.STL id:0 copy 0

;TYPE:Custom
G90 ; use absolute coordinates
M83 ; extruder relative mode
M104 S150 ; set temporary nozzle temp to prevent oozing during homing
M140 S60 ; set final bed temp
G4 S30 ; allow partial nozzle warmup
G28 ; home all axis and restore leveling
G1 Z50 F240
G1 X2.0 Y10 F3000
M104 S210 ; set final nozzle temp
M190 S60 ; wait for bed temp to stabilize
M109 S210 ; wait for nozzle temp to stabilize
G1 Z0.28 F240
G92 E0
G1 X2.0 Y140 E10 F1500 ; prime the nozzle
G1 X2.3 Y140 F5000
G92 E0
G1 X2.3 Y10 E10 F1200 ; prime the nozzle
G92 E0
G21 ; set units to millimeters
G90 ; use absolute coordinates
M83 ; use relative distances for extrusion
; Filament gcode
M107
;LAYER_CHANGE
;Z:0.2
;HEIGHT:0.2
;BEFORE_LAYER_CHANGE
G92 E0
;0.2


G1 E-.8 F1800
G1 Z.2 F9000
;AFTER_LAYER_CHANGE
;0.2
G1 X97.712 Y77.059
G1 Z.2
G1 E.8 F1800
M204 S500
;TYPE:Skirt/Brim
;WIDTH:0.42
G1 F1200
G1 X100.641 Y74.13 E.12988
G1 X102.039 Y73.289 E.05115
G1 X103.029 Y73.141 E.03139
G1 X116.971 Y73.141 E.43714
G1 X118.554 Y73.535 E.05115
G1 X119.359 Y74.13 E.03139
G1 X122.288 Y77.059 E.12988
G1 X123.247 Y78.997 E.0678
G1 X130.247 Y130.997 E1.64513
G1 X130.277 Y138.389 E.23177
G1 X129.883 Y139.972 E.05115
G1 X129.288 Y140.777 E.03139
G1 X126.359 Y143.706 E.12988
G1 X124.961 Y144.547 E.05115
G1 X123.971 Y144.695 E.03139
G1 X96.029 Y144.695 E.8761
G1 X94.446 Y144.301 E.05115
G1 X93.641 Y143.706 E.03139
G1 X90.712 Y140.777 E.12988
G1 X89.871 Y139.379 E.05115
G1 X89.723 Y138.389 E.03139
G1 X89.723 Y131.447 E.21766
G1 X96.753 Y78.997 E1.65924
G1 X97.685 Y77.113 E.0659
;WIPE_START
G1 F7200
G1 X97.712 Y77.059 E-.01434
G1 X100.051 Y74.72 E-.78566
;WIPE_END
G1 X101.089 Y78.987 F9000
G1 E.8 F1800
G1 F1200
G1 X102.031 Y77.917 E.0447
G1 X103.026 Y77.248 E.03759
G1 X104.183 Y76.864 E.03822
G1 X115.653 Y76.838 E.35963
G1 X116.48 Y77.04 E.02669
G1 X117.255 Y77.39 E.02666
G1 X118.462 Y78.407 E.04949
G1 X119.253 Y79.624 E.04551
G1 X119.613 Y81.007 E.04481
G1 X119.613 Y128.806 E1.4987
G1 X122.461 Y128.811 E.0893
G1 X123.658 Y129.11 E.03868
G1 X124.818 Y129.788 E.04213
G1 X125.769 Y130.776 E.043
G1 X126.281 Y131.692 E.0329
G1 X126.564 Y132.669 E.03189
G1 X126.614 Y136.7 E.1264
G1 X126.487 Y137.559 E.02723
G1 X125.911 Y138.85 E.04432
G1 X124.966 Y139.923 E.04483
G1 X123.784 Y140.675 E.04393
G1 X122.41 Y141.032 E.04451
G1 X97.697 Y141.032 E.77486
G1 X96.858 Y140.905 E.02661
G1 X95.473 Y140.266 E.04782
G1 X94.504 Y139.392 E.04092
G1 X93.811 Y138.355 E.03911
G1 X93.448 Y137.245 E.03662
G1 X93.385 Y133.013 E.13271
G1 X93.789 Y131.535 E.04804
G1 X94.363 Y130.611 E.03411
G1 X95.208 Y129.768 E.03742
G1 X96.011 Y129.254 E.02989
G1 X97.326 Y128.842 E.04321
G1 X100.387 Y128.817 E.09598
G1 X100.387 Y81.115 E1.49566
G1 X100.514 Y80.275 E.02664
G1 X101.065 Y79.042 E.04234
G1 X101.408 Y79.197 F9000
G1 F1200
G1 X101.421 Y79.169 E.00097
G1 X102.295 Y78.187 E.04122
G1 X103.213 Y77.576 E.03458
G1 X104.272 Y77.231 E.03492
G1 X115.587 Y77.21 E.35477
G1 X116.341 Y77.391 E.02431
G1 X117.076 Y77.722 E.02527
G1 X118.197 Y78.676 E.04615
G1 X118.896 Y79.75 E.04018
G1 X119.236 Y81.032 E.04159
G1 X119.236 Y129.183 E1.50974
G1 X122.436 Y129.188 E.10033
G1 X123.539 Y129.469 E.03569
G1 X124.565 Y130.068 E.03725
G1 X125.48 Y131.02 E.0414
G1 X125.926 Y131.819 E.02869
G1 X126.188 Y132.7 E.02882
G1 X126.237 Y136.689 E.12508
G1 X126.118 Y137.476 E.02496
G1 X125.58 Y138.667 E.04098
G1 X124.703 Y139.652 E.04135
G1 X123.609 Y140.34 E.04052
G1 X122.386 Y140.655 E.0396
G1 X97.712 Y140.655 E.77364
G1 X96.941 Y140.536 E.02446
G1 X95.704 Y139.967 E.04269
G1 X94.774 Y139.128 E.03927
G1 X94.16 Y138.211 E.0346
G1 X93.825 Y137.21 E.0331
G1 X93.762 Y133.035 E.13092
G1 X94.144 Y131.663 E.04465
G1 X94.67 Y130.832 E.03084
G1 X95.458 Y130.051 E.03479
G1 X96.192 Y129.586 E.02724
G1 X97.357 Y129.218 E.03831
G1 X100.764 Y129.191 E.10683
G1 X100.764 Y81.13 E1.50692
G1 X100.882 Y80.359 E.02446
G1 X101.383 Y79.251 E.03813
G1 X101.725 Y79.408 F9000
G1 F1200
G1 X101.751 Y79.353 E.00191
G1 X102.558 Y78.458 E.03779
G1 X103.397 Y77.906 E.03149
G1 X104.358 Y77.599 E.03163
G1 X115.521 Y77.582 E.35001
G1 X116.235 Y77.753 E.02302
G1 X116.894 Y78.054 E.02272
G1 X117.93 Y78.944 E.04282
G1 X118.563 Y79.928 E.03669
G1 X118.859 Y81.056 E.03657
G1 X118.859 Y129.559 E1.52078
G1 X122.411 Y129.565 E.11137
G1 X123.419 Y129.827 E.03266
G1 X124.311 Y130.348 E.03239
G1 X125.191 Y131.263 E.0398
G1 X125.571 Y131.949 E.02459
G1 X125.811 Y132.733 E.02571
G1 X125.86 Y136.678 E.1237
G1 X125.75 Y137.392 E.02265
G1 X125.249 Y138.483 E.03764
G1 X124.44 Y139.38 E.03787
G1 X123.484 Y139.983 E.03544
G1 X122.362 Y140.278 E.03638
G1 X97.726 Y140.278 E.77244
G1 X97.025 Y140.168 E.02225
G1 X95.935 Y139.667 E.03761
G1 X95.043 Y138.863 E.03765
G1 X94.508 Y138.064 E.03015
G1 X94.201 Y137.173 E.02955
G1 X94.14 Y133.057 E.12907
G1 X94.499 Y131.795 E.04114
G1 X94.975 Y131.054 E.02761
G1 X95.707 Y130.334 E.03219
G1 X96.372 Y129.918 E.02459
G1 X97.389 Y129.595 E.03346
G1 X101.141 Y129.565 E.11765
G1 X101.141 Y81.145 E1.51818
G1 X101.251 Y80.444 E.02225
G1 X101.7 Y79.463 E.03383
G1 X102.037 Y79.614 F9000
G1 F1200
G1 X102.051 Y79.584 E.00104
G1 X102.821 Y78.729 E.03608
G1 X103.58 Y78.237 E.02836
G1 X104.443 Y77.968 E.02834
G1 X115.456 Y77.954 E.34531
G1 X116.096 Y78.104 E.02061
G1 X116.712 Y78.385 E.02123
G1 X117.662 Y79.211 E.03947
G1 X118.206 Y80.055 E.03148
G1 X118.482 Y81.081 E.03331
G1 X118.482 Y129.936 E1.53181
G1 X122.386 Y129.942 E.12241
G1 X123.297 Y130.185 E.02956
G1 X124.057 Y130.629 E.0276
G1 X124.902 Y131.507 E.03821
G1 X125.218 Y132.081 E.02054
G1 X125.434 Y132.766 E.02252
G1 X125.483 Y136.668 E.12235
G1 X125.395 Y137.262 E.01883
G1 X124.949 Y138.253 E.03407
G1 X124.178 Y139.107 E.03607
G1 X123.31 Y139.648 E.03207
G1 X122.338 Y139.9 E.03148
G1 X97.74 Y139.9 E.77125
G1 X97.155 Y139.813 E.01854
G1 X96.165 Y139.367 E.03405
G1 X95.313 Y138.599 E.03597
G1 X94.855 Y137.915 E.02581
G1 X94.578 Y137.136 E.02592
G1 X94.517 Y133.08 E.12719
G1 X94.852 Y131.928 E.03762
G1 X95.278 Y131.279 E.02434
G1 X95.955 Y130.619 E.02964
G1 X96.551 Y130.251 E.02196
G1 X97.421 Y129.972 E.02865
G1 X101.518 Y129.939 E.12846
G1 X101.518 Y81.158 E1.52949
G1 X101.605 Y80.573 E.01854
G1 X102.012 Y79.669 E.03108
G1 X102.355 Y79.826 F9000
G1 F1200
G1 X102.381 Y79.768 E.00199
G1 X103.082 Y79.003 E.03253
G1 X103.76 Y78.569 E.02524
G1 X104.525 Y78.337 E.02506
G1 X115.391 Y78.326 E.3407
G1 X115.991 Y78.467 E.01933
G1 X116.529 Y78.716 E.01859
G1 X117.392 Y79.475 E.03603
G1 X117.872 Y80.232 E.0281
G1 X118.105 Y81.105 E.02833
G1 X118.105 Y130.313 E1.54288
G1 X122.313 Y130.313 E.13194
G1 X123.174 Y130.542 E.02793
G1 X123.842 Y130.939 E.02436
G1 X124.611 Y131.748 E.035
G1 X124.865 Y132.215 E.01667
G1 X125.057 Y132.8 E.0193
G1 X125.105 Y136.657 E.12094
G1 X125.026 Y137.179 E.01655
G1 X124.619 Y138.068 E.03066
G1 X123.918 Y138.833 E.03253
G1 X123.185 Y139.291 E.0271
G1 X122.313 Y139.523 E.02829
G1 X97.755 Y139.523 E.77
G1 X97.239 Y139.444 E.01637
G1 X96.35 Y139.037 E.03066
G1 X95.586 Y138.337 E.03249
G1 X95.183 Y137.728 E.0229
G1 X94.944 Y137.042 E.02278
G1 X94.894 Y133.105 E.12345
G1 X95.205 Y132.064 E.03407
G1 X95.556 Y131.534 E.01993
G1 X96.174 Y130.927 E.02716
G1 X96.689 Y130.602 E.01909
G1 X97.508 Y130.34 E.02696
G1 X101.895 Y130.314 E.13755
G1 X101.895 Y81.173 E1.54078
G1 X101.974 Y80.657 E.01637
G1 X102.33 Y79.88 E.0268
G1 X102.672 Y80.037 F9000
G1 F1200
G1 X102.711 Y79.954 E.00288
G1 X103.341 Y79.278 E.02897
G1 X103.895 Y78.922 E.02065
G1 X104.608 Y78.705 E.02337
G1 X115.329 Y78.698 E.33615
G1 X115.851 Y78.817 E.01679
G1 X116.344 Y79.046 E.01704
G1 X117.122 Y79.739 E.03267
G1 X117.516 Y80.359 E.02303
G1 X117.728 Y81.131 E.0251
G1 X117.728 Y130.69 E1.55389
G1 X122.287 Y130.69 E.14294
G1 X123.049 Y130.899 E.02477
G1 X123.588 Y131.219 E.01965
G1 X124.294 Y131.952 E.03191
G1 X124.69 Y132.89 E.03192
G1 X124.728 Y136.648 E.11784
G1 X124.672 Y137.047 E.01263
G1 X124.289 Y137.883 E.02883
G1 X123.66 Y138.558 E.02893
G1 X123.058 Y138.935 E.02227
G1 X122.287 Y139.146 E.02506
G1 X97.767 Y139.146 E.76881
G1 X97.371 Y139.09 E.01254
G1 X96.536 Y138.708 E.02879
G1 X95.86 Y138.077 E.02899
G1 X95.531 Y137.581 E.01866
G1 X95.311 Y136.947 E.02104
G1 X95.272 Y133.131 E.11965
G1 X95.557 Y132.202 E.03047
G1 X95.835 Y131.789 E.01561
G1 X96.396 Y131.232 E.02479
G1 X96.828 Y130.953 E.01612
G1 X97.595 Y130.708 E.02525
G1 X102.272 Y130.69 E.14665
G1 X102.272 Y81.185 E1.55219
G1 X102.329 Y80.789 E.01254
G1 X102.647 Y80.092 E.02402
G1 X102.988 Y80.251 F9000
G1 F1200
G1 X103.038 Y80.143 E.00373
G1 X103.597 Y79.556 E.02542
G1 X104.072 Y79.256 E.01762
G1 X104.688 Y79.075 E.02013
G1 X115.268 Y79.071 E.33173
G1 X115.711 Y79.169 E.01423
G1 X116.159 Y79.376 E.01547
G1 X116.85 Y80.001 E.02921
G1 X117.162 Y80.49 E.01819
G1 X117.351 Y81.158 E.02177
G1 X117.351 Y131.067 E1.56486
G1 X122.26 Y131.067 E.15392
G1 X122.922 Y131.255 E.02158
G1 X123.336 Y131.5 E.01508
G1 X123.977 Y132.159 E.02882
G1 X124.323 Y132.98 E.02793
G1 X124.303 Y136.964 E.12492
G1 X123.962 Y137.694 E.02526
G1 X123.403 Y138.281 E.02542
G1 X122.929 Y138.58 E.01757
G1 X122.26 Y138.769 E.0218
G1 X97.454 Y138.721 E.77778
G1 X96.724 Y138.38 E.02526
G1 X96.137 Y137.821 E.02542
G1 X95.861 Y137.397 E.01586
G1 X95.677 Y136.855 E.01795
G1 X95.649 Y133.158 E.11592
G1 X95.886 Y132.387 E.02529
G1 X96.116 Y132.041 E.01303
G1 X96.621 Y131.535 E.02241
G1 X96.969 Y131.304 E.0131
G1 X97.682 Y131.076 E.02347
G1 X102.649 Y131.067 E.15574
G1 X102.697 Y80.872 E1.57383
G1 X102.962 Y80.305 E.01962
G1 X103.301 Y80.467 F9000
G1 F1200
G1 X103.364 Y80.335 E.00459
G1 X103.851 Y79.835 E.02188
G1 X104.204 Y79.61 E.01313
G1 X104.768 Y79.444 E.01843
G1 X115.246 Y79.448 E.32853
G1 X115.971 Y79.704 E.02411
G1 X116.576 Y80.261 E.02578
G1 X116.808 Y80.623 E.01348
G1 X116.974 Y81.186 E.0184
G1 X116.974 Y131.444 E1.5758
G1 X122.232 Y131.444 E.16486
G1 X122.793 Y131.609 E.01833
G1 X123.085 Y131.782 E.01064
G1 X123.663 Y132.369 E.02583
G1 X123.955 Y133.069 E.02378
G1 X123.974 Y136.622 E.1114
G1 X123.935 Y136.878 E.00812
G1 X123.636 Y137.502 E.0217
G1 X123.149 Y138.002 E.02188
G1 X122.796 Y138.226 E.01311
G1 X122.232 Y138.392 E.01843
G1 X97.796 Y138.392 E.76617
G1 X97.54 Y138.353 E.00812
G1 X96.917 Y138.054 E.02167
G1 X96.416 Y137.567 E.02191
G1 X96.192 Y137.216 E.01306
G1 X96.045 Y136.767 E.01481
G1 X96.026 Y133.185 E.11231
G1 X96.217 Y132.57 E.02019
G1 X96.851 Y131.834 E.03046
G1 X97.112 Y131.655 E.00992
G1 X97.769 Y131.444 E.02164
G1 X103.026 Y131.444 E.16483
G1 X103.026 Y81.214 E1.57493
G1 X103.065 Y80.958 E.00812
G1 X103.275 Y80.521 E.0152
G1 X103.611 Y80.687 F9000
G1 F1200
G1 X103.687 Y80.531 E.00544
G1 X104.102 Y80.116 E.0184
G1 X104.798 Y79.821 E.0237
G1 X115.224 Y79.825 E.3269
G1 X115.782 Y80.031 E.01865
G1 X116.301 Y80.52 E.02236
G1 X116.597 Y81.216 E.02371
G1 X116.597 Y131.821 E1.58668
G1 X122.202 Y131.821 E.17574
G1 X122.836 Y132.066 E.02131
G1 X123.352 Y132.583 E.0229
G1 X123.587 Y133.159 E.01951
G1 X123.567 Y136.788 E.11379
G1 X123.313 Y137.305 E.01806
G1 X122.898 Y137.72 E.0184
G1 X122.202 Y138.015 E.0237
G1 X97.63 Y137.986 E.77044
G1 X97.113 Y137.731 E.01807
G1 X96.698 Y137.316 E.0184
G1 X96.413 Y136.678 E.02191
G1 X96.403 Y133.216 E.10855
G1 X96.698 Y132.52 E.0237
G1 X97.3 Y131.982 E.02531
G1 X97.799 Y131.821 E.01644
G1 X103.403 Y131.821 E.17571
G1 X103.433 Y81.048 E1.59195
G1 X103.584 Y80.741 E.01073
G1 X103.931 Y80.885 F9000
G1 F1200
G1 X103.976 Y80.775 E.00373
G1 X104.356 Y80.396 E.01683
G1 X104.829 Y80.198 E.01608
G1 X115.202 Y80.202 E.32524
G1 X115.592 Y80.359 E.01318
G1 X116.023 Y80.775 E.01878
G1 X116.22 Y81.248 E.01607
G1 X116.22 Y132.198 E1.5975
G1 X122.171 Y132.198 E.18659
G1 X122.617 Y132.374 E.01503
G1 X123.044 Y132.801 E.01893
G1 X123.22 Y133.248 E.01506
G1 X123.22 Y136.589 E.10475
G1 X123.024 Y137.061 E.01602
G1 X122.644 Y137.44 E.01683
G1 X122.171 Y137.638 E.01608
G1 X97.829 Y137.638 E.76323
G1 X97.357 Y137.442 E.01602
G1 X96.978 Y137.062 E.01683
G1 X96.78 Y136.589 E.01608
G1 X96.78 Y133.249 E.10472
G1 X96.975 Y132.776 E.01604
G1 X97.485 Y132.311 E.02164
G1 X97.829 Y132.198 E.01135
G1 X103.78 Y132.198 E.18659
G1 X103.78 Y81.248 E1.5975
G1 X103.908 Y80.94 E.01046
G1 X104.231 Y81.093 F9000
G1 F1200
G1 X104.267 Y81.018 E.00261
G1 X104.61 Y80.675 E.01521
G1 X104.864 Y80.575 E.00856
G1 X115.182 Y80.582 E.32351
G1 X115.4 Y80.685 E.00756
G1 X115.743 Y81.028 E.01521
G1 X115.843 Y81.283 E.00859
G1 X115.843 Y132.575 E1.60822
G1 X122.136 Y132.575 E.19731
G1 X122.363 Y132.657 E.00757
G1 X122.743 Y133.028 E.01665
G1 X122.843 Y133.283 E.00859
G1 X122.836 Y136.6 E.104
G1 X122.733 Y136.818 E.00756
G1 X122.39 Y137.161 E.01521
G1 X122.136 Y137.261 E.00856
G1 X97.818 Y137.255 E.76247
G1 X97.6 Y137.151 E.00757
G1 X97.257 Y136.808 E.01521
G1 X97.157 Y136.554 E.00856
G1 X97.157 Y133.283 E.10256
G1 X97.257 Y133.028 E.00859
G1 X97.61 Y132.675 E.01565
G1 X97.864 Y132.575 E.00856
G1 X104.157 Y132.575 E.19731
G1 X104.164 Y81.237 E1.60967
G1 X104.206 Y81.147 E.00311
G1 X104.534 Y81.324 F9000
G1 F1200
G1 X104.906 Y80.953 E.01647
G1 X115.094 Y80.953 E.31944
G1 X115.466 Y81.324 E.01647
G1 X115.466 Y132.953 E1.61879
G1 X122.163 Y132.981 E.20998
G1 X122.466 Y133.324 E.01435
G1 X122.466 Y136.512 E.09996
G1 X122.094 Y136.884 E.0165
G1 X97.906 Y136.884 E.7584
G1 X97.534 Y136.512 E.0165
G1 X97.534 Y133.324 E.09996
G1 X97.837 Y132.981 E.01435
G1 X104.534 Y132.953 E.20998
G1 X104.534 Y81.384 E1.61691
G1 X104.911 Y81.44 F9000
G1 F1200
G1 X105.022 Y81.33 E.0049
G1 X114.978 Y81.33 E.31216
G1 X115.089 Y81.44 E.0049
G1 X115.089 Y133.33 E1.62697
G1 X121.978 Y133.33 E.216
G1 X122.089 Y133.44 E.0049
G1 X122.089 Y136.396 E.09268
G1 X121.978 Y136.507 E.00492
G1 X98.022 Y136.507 E.75112
G1 X97.911 Y136.396 E.00492
G1 X97.911 Y133.44 E.09268
G1 X98.022 Y133.33 E.0049
G1 X104.911 Y133.33 E.216
G1 X104.911 Y81.5 E1.62509
; printing object derjatelsoplo.STL id:0 copy 0
;WIPE_START
G1 F7200
G1 X104.911 Y81.44 E-.01425
G1 X105.022 Y81.33 E-.03711
G1 X108.174 Y81.33 E-.74864
;WIPE_END
G1 X106.064 Y82.482 F9000
G1 E.8 F1800
;TYPE:Perimeter
;WIDTH:0.419999
G1 F1200
G1 X113.936 Y82.482 E.24682
G1 X113.936 Y133.54 E1.60089
G1 X114.008 Y133.902 E.01157
G1 X114.313 Y134.294 E.01557
G1 X114.879 Y134.482 E.0187
G1 X120.936 Y134.482 E.18991
G1 X120.936 Y134.918 E.01367
G1 X120.936 Y135.354 E.01367
G1 X99.064 Y135.354 E.68578
G1 X99.064 Y134.482 E.02734
G1 X105.121 Y134.482 E.18991
G1 X105.284 Y134.468 E.00513
G1 X105.687 Y134.294 E.01376
G1 X105.992 Y133.902 E.01557
G1 X106.064 Y133.54 E.01157
G1 X106.064 Y82.542 E1.599
G1 X105.687 Y82.105 F9000
G1 F1200
G1 X114.313 Y82.105 E.27046
G1 X114.313 Y133.54 E1.61271
G1 X114.356 Y133.757 E.00694
G1 X114.539 Y133.992 E.00934
G1 X114.879 Y134.105 E.01123
G1 X121.313 Y134.105 E.20173
G1 X121.313 Y134.918 E.02549
G1 X121.313 Y135.731 E.02549
G1 X98.687 Y135.731 E.70942
G1 X98.687 Y134.105 E.05098
G1 X105.121 Y134.105 E.20173
G1 X105.461 Y133.992 E.01123
G1 X105.644 Y133.757 E.00934
G1 X105.687 Y133.54 E.00694
G1 X105.687 Y82.165 E1.61082
G1 X105.31 Y81.728 F9000
;TYPE:External perimeter
G1 F1200
G1 X114.69 Y81.728 E.2941
G1 X114.69 Y133.54 E1.62453
G1 X114.765 Y133.69 E.00526
G1 X114.879 Y133.728 E.00377
G1 X121.69 Y133.728 E.21355
G1 X121.69 Y134.918 E.03731
G1 X121.69 Y136.108 E.03731
G1 X98.31 Y136.108 E.73306
G1 X98.31 Y133.728 E.07462
G1 X105.121 Y133.728 E.21355
G1 X105.235 Y133.69 E.00377
