; generated by PrusaSlicer 2.7.1+win64 on 2025-04-04 at 10:04:31 UTC

; 

; external perimeters extrusion width = 0.42mm
; perimeters extrusion width = 0.44mm
; infill extrusion width = 0.44mm
; solid infill extrusion width = 0.44mm
; top infill extrusion width = 0.40mm
; support material extrusion width = 0.36mm
; first layer extrusion width = 0.42mm

M201 X500 Y500 Z100 E5000 ; sets maximum accelerations, mm/sec^2
M203 X500 Y500 Z10 E60 ; sets maximum feedrates, mm / sec
M204 S500 T1000 ; sets acceleration (S) and retract acceleration (R), mm/sec^2
M205 X8.00 Y8.00 Z0.40 E5.00 ; sets the jerk limits, mm/sec
M205 S0 T0 ; sets the minimum extruding and travel feed rate, mm/sec

; printing object derjatelzadneekoleso.STL id:0 copy 0
; stop printing object derjatelzadneekoleso.STL id:0 copy 0

;TYPE:Custom
G90 ; use absolute coordinates
M83 ; extruder relative mode
M104 S150 ; set temporary nozzle temp to prevent oozing during homing
M140 S60 ; set final bed temp
G4 S30 ; allow partial nozzle warmup
G28 ; home all axis and restore leveling
G1 Z50 F240
G1 X2.0 Y10 F3000
M104 S210 ; set final nozzle temp
M190 S60 ; wait for bed temp to stabilize
M109 S210 ; wait for nozzle temp to stabilize
G1 Z0.28 F240
G92 E0
G1 X2.0 Y140 E10 F1500 ; prime the nozzle
G1 X2.3 Y140 F5000
G92 E0
G1 X2.3 Y10 E10 F1200 ; prime the nozzle
G92 E0
G21 ; set units to millimeters
G90 ; use absolute coordinates
M83 ; use relative distances for extrusion
; Filament gcode
M107
;LAYER_CHANGE
;Z:0.2
;HEIGHT:0.2
;BEFORE_LAYER_CHANGE
G92 E0
;0.2


G1 E-.8 F1800
G1 Z.2 F9000
;AFTER_LAYER_CHANGE
;0.2
G1 X77.927 Y77.927
G1 Z.2
G1 E.8 F1800
M204 S500
;TYPE:Skirt/Brim
;WIDTH:0.42
G1 F1200
G1 X78.141 Y77.712 E.00951
G1 X79.539 Y76.871 E.05115
G1 X80.529 Y76.723 E.03139
G1 X139.471 Y76.723 E1.84809
G1 X141.054 Y77.117 E.05115
G1 X141.859 Y77.712 E.03139
G1 X144.788 Y80.641 E.12988
G1 X145.629 Y82.039 E.05115
G1 X145.777 Y83.029 E.03139
G1 X145.777 Y91.971 E.28037
G1 X145.697 Y92.704 E.02312
G1 X135.697 Y137.704 E1.44536
G1 X134.788 Y139.359 E.0592
G1 X131.859 Y142.288 E.12988
G1 X130.461 Y143.129 E.05115
G1 X129.471 Y143.277 E.03139
G1 X90.529 Y143.277 E1.221
G1 X88.946 Y142.883 E.05115
G1 X88.141 Y142.288 E.03139
G1 X85.212 Y139.359 E.12988
G1 X84.303 Y137.704 E.0592
G1 X74.303 Y92.704 E1.44536
G1 X74.223 Y91.971 E.02312
G1 X74.223 Y83.029 E.28037
G1 X74.617 Y81.446 E.05115
G1 X75.212 Y80.641 E.03139
G1 X77.884 Y77.969 E.11848
;WIPE_START
G1 F7200
G1 X77.927 Y77.927 E-.01428
G1 X78.141 Y77.712 E-.07205
G1 X79.539 Y76.871 E-.38747
G1 X80.529 Y76.723 E-.23774
G1 X80.901 Y76.723 E-.08846
;WIPE_END
G1 X80.14 Y81.029 F9000
G1 E.8 F1800
G1 F1200
G1 X82.054 Y80.386 E.06331
G1 X137.886 Y80.39 E1.75057
G1 X138.959 Y80.614 E.03437
G1 X139.886 Y81.056 E.0322
G1 X140.959 Y81.986 E.04452
G1 X141.702 Y83.092 E.04178
G1 X142.069 Y84.273 E.03878
G1 X142.114 Y90.414 E.19255
G1 X141.719 Y91.867 E.04721
G1 X141.178 Y92.756 E.03263
G1 X140.385 Y93.574 E.03572
G1 X139.471 Y94.171 E.03423
G1 X138.052 Y94.595 E.04644
G1 X132.113 Y94.611 E.18621
G1 X132.113 Y135.41 E1.27922
G1 X131.782 Y136.727 E.04258
G1 X131.055 Y137.911 E.04356
G1 X130.451 Y138.515 E.02678
G1 X129.86 Y138.971 E.02341
G1 X127.947 Y139.613 E.06327
G1 X92.09 Y139.613 E1.12427
G1 X90.773 Y139.282 E.04258
G1 X89.589 Y138.555 E.04356
G1 X88.985 Y137.951 E.02678
G1 X88.529 Y137.36 E.02341
G1 X87.887 Y135.447 E.06327
G1 X87.887 Y94.611 E1.28038
G1 X81.835 Y94.579 E.18976
G1 X80.779 Y94.284 E.03438
G1 X79.799 Y93.721 E.03544
G1 X78.699 Y92.598 E.04929
G1 X78.186 Y91.638 E.03413
G1 X77.887 Y90.41 E.03963
G1 X77.887 Y84.59 E.18248
G1 X78.218 Y83.273 E.04258
G1 X78.945 Y82.089 E.04356
G1 X79.549 Y81.485 E.02678
G1 X80.092 Y81.066 E.0215
G1 X80.343 Y81.349 F9000
G1 F1200
G1 X80.344 Y81.348 E.00004
G1 X82.084 Y80.764 E.05755
G1 X137.867 Y80.767 E1.74904
G1 X138.82 Y80.965 E.03052
G1 X139.66 Y81.358 E.02908
G1 X140.693 Y82.254 E.04288
G1 X141.352 Y83.233 E.037
G1 X141.692 Y84.305 E.03526
G1 X141.737 Y90.39 E.1908
G1 X141.363 Y91.74 E.04392
G1 X140.868 Y92.539 E.02947
G1 X140.129 Y93.295 E.03315
G1 X139.335 Y93.819 E.02983
G1 X138.023 Y94.218 E.043
G1 X131.736 Y94.234 E.19713
G1 X131.736 Y135.386 E1.29029
G1 X131.424 Y136.605 E.03945
G1 X130.773 Y137.659 E.03884
G1 X130.194 Y138.239 E.0257
G1 X129.656 Y138.652 E.02127
G1 X127.916 Y139.236 E.05755
G1 X92.114 Y139.236 E1.12255
G1 X90.895 Y138.924 E.03945
G1 X89.841 Y138.273 E.03884
G1 X89.261 Y137.694 E.0257
G1 X88.848 Y137.156 E.02127
G1 X88.264 Y135.416 E.05755
G1 X88.264 Y94.235 E1.2912
G1 X81.913 Y94.209 E.19913
G1 X80.904 Y93.927 E.03285
G1 X80.011 Y93.408 E.03238
G1 X79.018 Y92.395 E.04448
G1 X78.546 Y91.523 E.03109
G1 X78.264 Y90.386 E.03673
G1 X78.264 Y84.614 E.18098
G1 X78.576 Y83.395 E.03945
G1 X79.227 Y82.341 E.03884
G1 X80.298 Y81.389 E.04493
G1 X80.547 Y81.668 F9000
G1 F1200
G1 X80.548 Y81.666 E.00007
G1 X82.115 Y81.141 E.05182
G1 X137.848 Y81.144 E1.74747
G1 X138.683 Y81.317 E.02674
G1 X139.434 Y81.661 E.0259
G1 X140.427 Y82.523 E.04123
G1 X141.002 Y83.375 E.03223
G1 X141.315 Y84.337 E.03172
G1 X141.36 Y90.366 E.18904
G1 X141.008 Y91.61 E.04054
G1 X140.561 Y92.32 E.02631
G1 X139.874 Y93.017 E.03069
G1 X139.196 Y93.467 E.02551
G1 X137.993 Y93.841 E.0395
G1 X131.359 Y93.858 E.20801
G1 X131.359 Y135.362 E1.30133
G1 X131.087 Y136.433 E.03465
G1 X130.491 Y137.409 E.03586
G1 X129.452 Y138.334 E.04362
G1 X127.885 Y138.859 E.05182
G1 X92.138 Y138.859 E1.12082
G1 X91.067 Y138.587 E.03465
G1 X90.091 Y137.991 E.03586
G1 X89.166 Y136.952 E.04362
G1 X88.641 Y135.385 E.05182
G1 X88.641 Y93.859 E1.30202
G1 X81.987 Y93.839 E.20863
G1 X81.072 Y93.588 E.02975
G1 X80.222 Y93.095 E.03081
G1 X79.336 Y92.191 E.03969
G1 X78.905 Y91.406 E.02808
G1 X78.641 Y90.362 E.03376
G1 X78.641 Y84.638 E.17947
G1 X78.913 Y83.567 E.03465
G1 X79.509 Y82.591 E.03586
G1 X80.502 Y81.708 E.04166
G1 X80.751 Y81.986 F9000
G1 F1200
G1 X80.752 Y81.985 E.00004
G1 X82.145 Y81.518 E.04607
G1 X137.829 Y81.521 E1.74593
G1 X138.548 Y81.67 E.02302
G1 X139.208 Y81.965 E.02267
G1 X140.161 Y82.792 E.03956
G1 X140.653 Y83.52 E.02755
G1 X140.938 Y84.371 E.02814
G1 X140.982 Y90.341 E.18719
G1 X140.654 Y91.478 E.0371
G1 X140.255 Y92.099 E.02314
G1 X139.62 Y92.738 E.02825
G1 X139.056 Y93.116 E.02129
G1 X137.963 Y93.464 E.03597
G1 X130.982 Y93.482 E.21889
G1 X130.982 Y135.338 E1.31237
G1 X130.729 Y136.31 E.03149
G1 X130.208 Y137.158 E.03121
G1 X129.678 Y137.688 E.0235
G1 X129.248 Y138.015 E.01694
G1 X127.855 Y138.482 E.04607
G1 X92.162 Y138.482 E1.11913
G1 X91.19 Y138.229 E.03149
G1 X90.342 Y137.709 E.03119
G1 X89.812 Y137.178 E.02352
G1 X89.485 Y136.748 E.01694
G1 X89.018 Y135.355 E.04607
G1 X89.018 Y93.482 E1.3129
G1 X82.063 Y93.469 E.21807
G1 X81.196 Y93.231 E.02819
G1 X80.436 Y92.784 E.02765
G1 X79.624 Y91.947 E.03656
G1 X79.264 Y91.289 E.02352
G1 X79.018 Y90.338 E.0308
G1 X79.018 Y84.662 E.17797
G1 X79.271 Y83.69 E.03149
G1 X79.792 Y82.842 E.03121
G1 X80.706 Y82.026 E.03842
G1 X80.955 Y82.304 F9000
G1 F1200
G1 X82.176 Y81.895 E.04037
G1 X137.81 Y81.898 E1.74437
G1 X138.413 Y82.023 E.01931
G1 X139.028 Y82.297 E.02111
G1 X139.893 Y83.058 E.03612
G1 X140.324 Y83.706 E.0244
G1 X140.571 Y84.46 E.02488
G1 X140.605 Y90.316 E.18361
G1 X140.321 Y91.299 E.03208
G1 X139.972 Y91.849 E.02042
G1 X139.391 Y92.438 E.02594
G1 X138.914 Y92.766 E.01815
G1 X137.876 Y93.096 E.03415
G1 X130.605 Y93.105 E.22798
G1 X130.605 Y135.313 E1.3234
G1 X130.373 Y136.185 E.02829
G1 X129.927 Y136.906 E.02658
G1 X129.045 Y137.696 E.03713
G1 X127.824 Y138.105 E.04037
G1 X92.187 Y138.105 E1.11737
G1 X91.315 Y137.873 E.02829
G1 X90.594 Y137.427 E.02658
G1 X89.804 Y136.545 E.03713
G1 X89.395 Y135.324 E.04037
G1 X89.395 Y93.105 E1.32375
G1 X82.138 Y93.098 E.22754
G1 X81.321 Y92.875 E.02655
G1 X80.652 Y92.474 E.02446
G1 X79.914 Y91.704 E.03344
G1 X79.623 Y91.17 E.01907
G1 X79.395 Y90.313 E.02781
G1 X79.395 Y84.687 E.1764
G1 X79.627 Y83.815 E.02829
G1 X80.073 Y83.094 E.02658
G1 X80.91 Y82.344 E.03524
G1 X81.156 Y82.624 F9000
G1 F1200
G1 X82.206 Y82.272 E.03472
G1 X137.789 Y82.276 E1.74277
G1 X138.314 Y82.387 E.01682
G1 X138.845 Y82.628 E.01828
G1 X139.623 Y83.321 E.03267
G1 X139.994 Y83.89 E.0213
G1 X140.203 Y84.546 E.02159
G1 X140.228 Y90.29 E.1801
G1 X139.988 Y91.122 E.02715
G1 X139.688 Y91.6 E.01769
G1 X139.158 Y92.141 E.02375
G1 X138.77 Y92.416 E.01491
G1 X137.789 Y92.728 E.03228
G1 X130.228 Y92.728 E.23707
G1 X130.228 Y135.287 E1.33441
G1 X130.017 Y136.058 E.02506
G1 X129.645 Y136.655 E.02206
G1 X129.164 Y137.135 E.02131
G1 X128.844 Y137.376 E.01256
G1 X127.794 Y137.728 E.03472
G1 X92.213 Y137.728 E1.11562
G1 X91.442 Y137.517 E.02506
G1 X90.845 Y137.145 E.02206
G1 X90.365 Y136.664 E.02131
G1 X90.124 Y136.344 E.01256
G1 X89.772 Y135.294 E.03472
G1 X89.772 Y92.728 E1.33463
G1 X82.213 Y92.728 E.23701
G1 X81.447 Y92.518 E.0249
G1 X80.871 Y92.166 E.02117
G1 X80.205 Y91.464 E.03034
G1 X79.98 Y91.049 E.0148
G1 X79.772 Y90.287 E.02477
G1 X79.772 Y84.713 E.17477
G1 X79.983 Y83.942 E.02506
G1 X80.355 Y83.345 E.02206
G1 X81.112 Y82.664 E.03193
G1 X81.357 Y82.945 F9000
G1 F1200
G1 X82.237 Y82.649 E.02911
G1 X137.768 Y82.653 E1.74114
G1 X138.211 Y82.75 E.01422
G1 X138.659 Y82.958 E.01549
G1 X139.35 Y83.583 E.02921
G1 X139.661 Y84.07 E.01812
G1 X139.834 Y84.629 E.01835
G1 X139.851 Y90.263 E.17665
G1 X139.635 Y90.987 E.02369
G1 X139.383 Y91.379 E.01461
G1 X138.578 Y92.09 E.03368
G1 X137.76 Y92.351 E.02692
G1 X129.851 Y92.351 E.24798
G1 X129.851 Y135.26 E1.34538
G1 X129.662 Y135.929 E.0218
G1 X129.364 Y136.403 E.01756
G1 X128.643 Y137.055 E.03048
G1 X127.763 Y137.351 E.02911
G1 X92.24 Y137.351 E1.1138
G1 X91.571 Y137.162 E.0218
G1 X91.097 Y136.864 E.01756
G1 X90.445 Y136.143 E.03048
G1 X90.149 Y135.263 E.02911
G1 X90.149 Y92.351 E1.34548
G1 X82.24 Y92.351 E.24798
G1 X81.576 Y92.163 E.02164
G1 X81.126 Y91.887 E.01655
G1 X80.522 Y91.258 E.02734
G1 X80.337 Y90.924 E.01197
G1 X80.149 Y90.26 E.02164
G1 X80.149 Y84.74 E.17308
G1 X80.338 Y84.071 E.0218
G1 X80.636 Y83.597 E.01756
G1 X81.313 Y82.985 E.02861
G1 X81.556 Y83.266 F9000
G1 F1200
G1 X82.268 Y83.026 E.02356
G1 X137.746 Y83.03 E1.73947
G1 X138.471 Y83.285 E.0241
G1 X139.076 Y83.843 E.02581
G1 X139.309 Y84.206 E.01352
G1 X139.466 Y84.714 E.01667
G1 X139.474 Y90.233 E.17304
G1 X139.283 Y90.847 E.02016
G1 X138.649 Y91.584 E.03048
G1 X138.388 Y91.764 E.00994
G1 X137.731 Y91.974 E.02163
G1 X129.474 Y91.974 E.25889
G1 X129.474 Y135.232 E1.35632
G1 X129.308 Y135.796 E.01843
G1 X129.083 Y136.15 E.01315
G1 X128.652 Y136.581 E.01911
G1 X128.444 Y136.734 E.0081
G1 X127.732 Y136.974 E.02356
G1 X92.268 Y136.974 E1.11195
G1 X91.704 Y136.808 E.01843
G1 X91.35 Y136.583 E.01315
G1 X90.919 Y136.152 E.01911
G1 X90.766 Y135.944 E.0081
G1 X90.526 Y135.232 E.02356
G1 X90.526 Y91.974 E1.35632
G1 X82.268 Y91.974 E.25892
G1 X81.707 Y91.809 E.01833
G1 X81.38 Y91.608 E.01203
G1 X80.837 Y91.049 E.02443
G1 X80.526 Y90.232 E.02741
G1 X80.526 Y84.768 E.17132
G1 X80.692 Y84.204 E.01843
G1 X80.917 Y83.85 E.01315
G1 X81.512 Y83.307 E.02526
G1 X81.754 Y83.588 F9000
G1 F1200
G1 X82.299 Y83.403 E.01805
G1 X137.724 Y83.407 E1.73781
G1 X138.282 Y83.613 E.01865
G1 X138.801 Y84.101 E.02234
G1 X139.097 Y84.798 E.02374
G1 X139.097 Y90.202 E.16944
G1 X138.934 Y90.703 E.01652
G1 X138.396 Y91.304 E.02529
G1 X137.701 Y91.597 E.02365
G1 X129.097 Y91.597 E.26977
G1 X129.097 Y135.202 E1.3672
G1 X128.802 Y135.898 E.0237
G1 X128.246 Y136.412 E.02374
G1 X127.701 Y136.597 E.01805
G1 X92.298 Y136.597 E1.11004
G1 X91.602 Y136.302 E.0237
G1 X91.088 Y135.746 E.02374
G1 X90.903 Y135.201 E.01805
G1 X90.903 Y91.597 E1.36717
G1 X82.298 Y91.597 E.2698
G1 X81.632 Y91.326 E.02254
G1 X81.149 Y90.836 E.02157
G1 X80.903 Y90.202 E.02132
G1 X80.903 Y84.798 E.16944
G1 X81.198 Y84.102 E.0237
G1 X81.709 Y83.629 E.02183
G1 X81.858 Y83.975 F9000
G1 F1200
G1 X82.331 Y83.78 E.01604
G1 X137.702 Y83.784 E1.73612
G1 X138.092 Y83.94 E.01317
G1 X138.523 Y84.357 E.0188
G1 X138.72 Y84.829 E.01604
G1 X138.72 Y90.169 E.16743
G1 X138.588 Y90.552 E.0127
G1 X138.144 Y91.022 E.02027
G1 X137.671 Y91.22 E.01608
G1 X128.72 Y91.22 E.28065
G1 X128.72 Y135.171 E1.37805
G1 X128.522 Y135.644 E.01608
G1 X128.142 Y136.025 E.01687
G1 X127.669 Y136.22 E.01604
G1 X92.329 Y136.22 E1.10806
G1 X91.856 Y136.022 E.01608
G1 X91.475 Y135.642 E.01687
G1 X91.28 Y135.169 E.01604
G1 X91.28 Y91.22 E1.37799
G1 X82.329 Y91.22 E.28065
G1 X81.883 Y91.044 E.01503
G1 X81.456 Y90.617 E.01893
G1 X81.28 Y90.171 E.01503
G1 X81.28 Y84.829 E.16749
G1 X81.478 Y84.356 E.01608
G1 X81.816 Y84.018 E.01499
G1 X82.082 Y84.285 F9000
G1 F1200
G1 X82.11 Y84.257 E.00124
G1 X82.364 Y84.157 E.00856
G1 X137.682 Y84.164 E1.73446
G1 X137.9 Y84.267 E.00756
G1 X138.243 Y84.61 E.01521
G1 X138.343 Y84.864 E.00856
G1 X138.343 Y90.136 E.1653
G1 X138.243 Y90.39 E.00856
G1 X137.89 Y90.743 E.01565
G1 X137.636 Y90.843 E.00856
G1 X128.343 Y90.843 E.29138
G1 X128.343 Y135.136 E1.38878
G1 X128.243 Y135.39 E.00856
G1 X127.89 Y135.743 E.01565
G1 X127.636 Y135.843 E.00856
G1 X92.364 Y135.843 E1.10593
G1 X92.11 Y135.743 E.00856
G1 X91.757 Y135.39 E.01565
G1 X91.657 Y135.136 E.00856
G1 X91.657 Y90.843 E1.38878
G1 X82.364 Y90.843 E.29138
G1 X82.137 Y90.761 E.00757
G1 X81.757 Y90.39 E.01665
G1 X81.657 Y90.136 E.00856
G1 X81.657 Y84.864 E.1653
G1 X81.757 Y84.61 E.00856
G1 X82.04 Y84.327 E.01255
G1 X82.303 Y84.625 F9000
G1 F1200
G1 X82.406 Y84.534 E.00431
G1 X137.594 Y84.534 E1.73038
G1 X137.966 Y84.906 E.0165
G1 X137.966 Y90.094 E.16267
G1 X137.663 Y90.437 E.01435
G1 X127.966 Y90.466 E.30404
G1 X127.937 Y135.163 E1.40144
G1 X127.594 Y135.466 E.01435
G1 X92.337 Y135.437 E1.10546
G1 X92.034 Y135.094 E.01435
G1 X92.034 Y90.466 E1.39928
G1 X82.337 Y90.437 E.30404
G1 X82.034 Y90.094 E.01435
G1 X82.063 Y84.837 E.16483
G1 X82.258 Y84.665 E.00815
G1 X82.513 Y84.92 F9000
G1 F1200
G1 X82.522 Y84.911 E.0004
G1 X137.478 Y84.911 E1.72311
G1 X137.589 Y85.022 E.00492
G1 X137.589 Y89.978 E.15539
G1 X137.478 Y90.089 E.00492
G1 X127.589 Y90.089 E.31006
G1 X127.589 Y134.978 E1.40746
G1 X127.478 Y135.089 E.00492
G1 X92.522 Y135.089 E1.09602
G1 X92.411 Y134.978 E.00492
G1 X92.411 Y90.089 E1.40746
G1 X82.522 Y90.089 E.31006
G1 X82.411 Y89.978 E.00492
G1 X82.411 Y85.022 E.15539
G1 X82.471 Y84.963 E.00264
; printing object derjatelzadneekoleso.STL id:0 copy 0
;WIPE_START
G1 F7200
G1 X82.513 Y84.92 E-.01428
G1 X82.522 Y84.911 E-.00302
G1 X85.818 Y84.911 E-.7827
;WIPE_END
G1 X83.564 Y86.064 F9000
G1 E.8 F1800
;TYPE:Perimeter
;WIDTH:0.419999
G1 F1200
G1 X136.436 Y86.064 E1.65776
G1 X136.436 Y87.5 E.04502
G1 X136.436 Y88.936 E.04502
G1 X127.379 Y88.936 E.28398
G1 X127.216 Y88.95 E.00513
G1 X126.813 Y89.124 E.01376
G1 X126.624 Y89.313 E.00838
G1 X126.508 Y89.516 E.00733
G1 X126.436 Y89.879 E.0116
G1 X126.436 Y133.936 E1.38137
G1 X93.564 Y133.936 E1.03068
G1 X93.564 Y89.879 E1.38137
G1 X93.549 Y89.709 E.00535
G1 X93.376 Y89.313 E.01355
G1 X93.187 Y89.124 E.00838
G1 X92.927 Y88.987 E.00921
G1 X92.621 Y88.936 E.00973
G1 X83.564 Y88.936 E.28398
G1 X83.564 Y86.124 E.08817
;WIPE_START
G1 F7200
G1 X83.564 Y86.064 E-.01425
G1 X86.872 Y86.064 E-.78575
;WIPE_END
G1 X92.694 Y89.325 F9000
G1 E.8 F1800
G1 F1200
G1 X92.621 Y89.313 E.00232
G1 X83.187 Y89.313 E.2958
G1 X83.187 Y85.687 E.11369
G1 X136.813 Y85.687 E1.6814
G1 X136.813 Y87.5 E.05685
G1 X136.813 Y89.313 E.05685
G1 X127.379 Y89.313 E.2958
G1 X127.281 Y89.321 E.00308
G1 X127.039 Y89.426 E.00827
G1 X126.856 Y89.661 E.00934
G1 X126.813 Y89.879 E.00697
G1 X126.813 Y134.313 E1.39319
G1 X93.187 Y134.313 E1.05432
G1 X93.178 Y89.777 E1.39639
G1 X93.074 Y89.539 E.00814
G1 X92.805 Y89.343 E.01044
G1 X92.753 Y89.335 E.00165
G1 X92.81 Y89.879 F9000
;TYPE:External perimeter
G1 F1200
G1 X92.772 Y89.765 E.00377
G1 X92.621 Y89.69 E.00529
G1 X82.81 Y89.69 E.30762
G1 X82.81 Y85.31 E.13733
G1 X137.19 Y85.31 E1.70504
G1 X137.19 Y87.5 E.06867
G1 X137.19 Y89.69 E.06867
G1 X127.379 Y89.69 E.30762
G1 X127.265 Y89.728 E.00377
G1 X127.19 Y89.879 E.00529
G1 X127.19 Y134.69 E1.40502
G1 X92.81 Y134.69 E1.07796
G1 X92.81 Y89.939 E1.40313
;WIPE_START
G1 F7200
G1 X92.81 Y89.879 E-.01425
G1 X92.772 Y89.765 E-.02854
G1 X92.621 Y89.69 E-.04004
G1 X89.601 Y89.69 E-.71717
