; generated by PrusaSlicer 2.7.1+win64 on 2025-04-03 at 13:19:44 UTC

; 

; external perimeters extrusion width = 0.42mm
; perimeters extrusion width = 0.44mm
; infill extrusion width = 0.44mm
; solid infill extrusion width = 0.44mm
; top infill extrusion width = 0.40mm
; support material extrusion width = 0.36mm
; first layer extrusion width = 0.42mm

M201 X500 Y500 Z100 E5000 ; sets maximum accelerations, mm/sec^2
M203 X500 Y500 Z10 E60 ; sets maximum feedrates, mm / sec
M204 S500 T1000 ; sets acceleration (S) and retract acceleration (R), mm/sec^2
M205 X8.00 Y8.00 Z0.40 E5.00 ; sets the jerk limits, mm/sec
M205 S0 T0 ; sets the minimum extruding and travel feed rate, mm/sec

; printing object derjateldlyaled.STL id:0 copy 0
; stop printing object derjateldlyaled.STL id:0 copy 0

;TYPE:Custom
G90 ; use absolute coordinates
M83 ; extruder relative mode
M104 S150 ; set temporary nozzle temp to prevent oozing during homing
M140 S60 ; set final bed temp
G4 S30 ; allow partial nozzle warmup
G28 ; home all axis and restore leveling
G1 Z50 F240
G1 X2.0 Y10 F3000
M104 S210 ; set final nozzle temp
M190 S60 ; wait for bed temp to stabilize
M109 S210 ; wait for nozzle temp to stabilize
G1 Z0.28 F240
G92 E0
G1 X2.0 Y140 E10 F1500 ; prime the nozzle
G1 X2.3 Y140 F5000
G92 E0
G1 X2.3 Y10 E10 F1200 ; prime the nozzle
G92 E0
G21 ; set units to millimeters
G90 ; use absolute coordinates
M83 ; use relative distances for extrusion
; Filament gcode
M107
;LAYER_CHANGE
;Z:0.2
;HEIGHT:0.2
;BEFORE_LAYER_CHANGE
G92 E0
;0.2


G1 E-.8 F1800
G1 Z.2 F9000
;AFTER_LAYER_CHANGE
;0.2
G1 X83.107 Y102.203
G1 Z.2
G1 E.8 F1800
M204 S500
;TYPE:Skirt/Brim
;WIDTH:0.42
G1 F1200
G1 X85 Y101.623 E.06208
G1 X135 Y101.623 E1.56771
G1 X136.583 Y102.017 E.05115
G1 X137.797 Y103.107 E.05116
G1 X138.377 Y105 E.06208
G1 X138.377 Y115 E.31354
G1 X137.983 Y116.583 E.05115
G1 X136.893 Y117.797 E.05116
G1 X135 Y118.377 E.06208
G1 X85 Y118.377 E1.56771
G1 X83.417 Y117.983 E.05115
G1 X82.203 Y116.893 E.05116
G1 X81.623 Y115 E.06208
G1 X81.623 Y105 E.31354
G1 X82.017 Y103.417 E.05115
G1 X83.067 Y102.248 E.04927
; printing object derjateldlyaled.STL id:0 copy 0
;WIPE_START
G1 F7200
G1 X83.107 Y102.203 E-.0143
G1 X85 Y101.623 E-.47022
G1 X86.328 Y101.623 E-.31548
;WIPE_END
G1 X86.064 Y106.064 F9000
G1 E.8 F1800
;TYPE:Perimeter
;WIDTH:0.419999
G1 F1200
G1 X133.936 Y106.064 E1.50099
G1 X133.936 Y110 E.12341
G1 X133.936 Y113.936 E.12341
G1 X86.064 Y113.936 E1.50099
G1 X86.064 Y106.124 E.24494
G1 X85.687 Y105.687 F9000
G1 F1200
G1 X134.313 Y105.687 E1.52463
G1 X134.313 Y110 E.13523
G1 X134.313 Y114.313 E.13523
G1 X85.687 Y114.313 E1.52463
G1 X85.687 Y105.747 E.26858
G1 X85.31 Y105.31 F9000
;TYPE:External perimeter
G1 F1200
G1 X134.69 Y105.31 E1.54827
G1 X134.69 Y110 E.14705
G1 X134.69 Y114.69 E.14705
G1 X85.31 Y114.69 E1.54827
G1 X85.31 Y105.37 E.29222
;WIPE_START
G1 F7200
G1 X85.31 Y105.31 E-.01425
G1 X88.618 Y105.31 E-.78575
;WIPE_END
G1 X133.047 Y106.185 F9000
G1 E.8 F1800
;TYPE:Solid infill
;WIDTH:0.422808
G1 F1200
G1 X133.645 Y106.783 E.02671
G1 X133.645 Y107.321 E.01699
G1 X132.679 Y106.355 E.04315
G1 X132.142 Y106.355 E.01696
G1 X133.645 Y107.858 E.06714
G1 X133.645 Y108.395 E.01696
G1 X131.605 Y106.355 E.09113
G1 X131.068 Y106.355 E.01696
G1 X133.645 Y108.932 E.11512
G1 X133.645 Y109.47 E.01699
G1 X130.53 Y106.355 E.13915
G1 X129.993 Y106.355 E.01696
G1 X133.645 Y110.007 E.16314
G1 X133.645 Y110.544 E.01696
G1 X129.456 Y106.355 E.18713
G1 X128.919 Y106.355 E.01696
G1 X133.645 Y111.081 E.21112
G1 X133.645 Y111.619 E.01699
G1 X128.381 Y106.355 E.23515
G1 X127.844 Y106.355 E.01696
G1 X133.645 Y112.156 E.25914
G1 X133.645 Y112.693 E.01696
G1 X127.307 Y106.355 E.28313
G1 X126.77 Y106.355 E.01696
G1 X133.645 Y113.23 E.30712
G1 X133.645 Y113.645 E.01311
G1 X133.523 Y113.645 E.00385
G1 X126.232 Y106.355 E.32568
G1 X125.695 Y106.355 E.01696
G1 X132.986 Y113.645 E.32568
G1 X132.449 Y113.645 E.01696
G1 X125.158 Y106.355 E.32568
G1 X124.621 Y106.355 E.01696
G1 X131.912 Y113.645 E.32568
G1 X131.374 Y113.645 E.01699
G1 X124.084 Y106.355 E.32566
G1 X123.546 Y106.355 E.01699
G1 X130.837 Y113.645 E.32568
G1 X130.3 Y113.645 E.01696
G1 X123.009 Y106.355 E.32568
G1 X122.472 Y106.355 E.01696
G1 X129.763 Y113.645 E.32568
G1 X129.226 Y113.645 E.01696
G1 X121.935 Y106.355 E.32568
G1 X121.397 Y106.355 E.01699
G1 X128.688 Y113.645 E.32568
G1 X128.151 Y113.645 E.01696
G1 X120.86 Y106.355 E.32568
G1 X120.323 Y106.355 E.01696
G1 X127.614 Y113.645 E.32568
G1 X127.077 Y113.645 E.01696
G1 X119.786 Y106.355 E.32568
G1 X119.248 Y106.355 E.01699
G1 X126.539 Y113.645 E.32568
G1 X126.002 Y113.645 E.01696
G1 X118.711 Y106.355 E.32568
G1 X118.174 Y106.355 E.01696
G1 X125.465 Y113.645 E.32568
G1 X124.928 Y113.645 E.01696
G1 X117.637 Y106.355 E.32568
G1 X117.099 Y106.355 E.01699
G1 X124.39 Y113.645 E.32568
G1 X123.853 Y113.645 E.01696
G1 X116.562 Y106.355 E.32568
G1 X116.025 Y106.355 E.01696
G1 X123.316 Y113.645 E.32568
G1 X122.779 Y113.645 E.01696
G1 X115.488 Y106.355 E.32568
G1 X114.95 Y106.355 E.01699
G1 X122.241 Y113.645 E.32568
G1 X121.704 Y113.645 E.01696
G1 X114.413 Y106.355 E.32568
G1 X113.876 Y106.355 E.01696
G1 X121.167 Y113.645 E.32568
G1 X120.63 Y113.645 E.01696
G1 X113.339 Y106.355 E.32568
G1 X112.801 Y106.355 E.01699
G1 X120.092 Y113.645 E.32568
G1 X119.555 Y113.645 E.01696
G1 X112.264 Y106.355 E.32568
G1 X111.727 Y106.355 E.01696
G1 X119.018 Y113.645 E.32568
G1 X118.481 Y113.645 E.01696
G1 X111.19 Y106.355 E.32568
G1 X110.652 Y106.355 E.01699
G1 X117.943 Y113.645 E.32568
G1 X117.406 Y113.645 E.01696
G1 X110.115 Y106.355 E.32568
G1 X109.578 Y106.355 E.01696
G1 X116.869 Y113.645 E.32568
G1 X116.332 Y113.645 E.01696
G1 X109.041 Y106.355 E.32568
G1 X108.503 Y106.355 E.01699
G1 X115.794 Y113.645 E.32568
G1 X115.257 Y113.645 E.01696
G1 X107.966 Y106.355 E.32568
G1 X107.429 Y106.355 E.01696
G1 X114.72 Y113.645 E.32568
G1 X114.183 Y113.645 E.01696
G1 X106.892 Y106.355 E.32568
G1 X106.355 Y106.355 E.01696
G1 X113.645 Y113.645 E.32566
G1 X113.108 Y113.645 E.01696
G1 X105.817 Y106.355 E.32568
G1 X105.28 Y106.355 E.01696
G1 X112.571 Y113.645 E.32568
G1 X112.034 Y113.645 E.01696
G1 X104.743 Y106.355 E.32568
G1 X104.206 Y106.355 E.01696
G1 X111.497 Y113.645 E.32568
G1 X110.959 Y113.645 E.01699
G1 X103.668 Y106.355 E.32568
G1 X103.131 Y106.355 E.01696
G1 X110.422 Y113.645 E.32568
G1 X109.885 Y113.645 E.01696
G1 X102.594 Y106.355 E.32568
G1 X102.057 Y106.355 E.01696
G1 X109.348 Y113.645 E.32568
G1 X108.81 Y113.645 E.01699
G1 X101.519 Y106.355 E.32568
G1 X100.982 Y106.355 E.01696
G1 X108.273 Y113.645 E.32568
G1 X107.736 Y113.645 E.01696
G1 X100.445 Y106.355 E.32568
G1 X99.908 Y106.355 E.01696
G1 X107.199 Y113.645 E.32568
G1 X106.661 Y113.645 E.01699
G1 X99.37 Y106.355 E.32568
G1 X98.833 Y106.355 E.01696
G1 X106.124 Y113.645 E.32568
G1 X105.587 Y113.645 E.01696
G1 X98.296 Y106.355 E.32568
G1 X97.759 Y106.355 E.01696
G1 X105.05 Y113.645 E.32568
G1 X104.512 Y113.645 E.01699
G1 X97.221 Y106.355 E.32568
G1 X96.684 Y106.355 E.01696
G1 X103.975 Y113.645 E.32568
G1 X103.438 Y113.645 E.01696
G1 X96.147 Y106.355 E.32568
G1 X95.61 Y106.355 E.01696
G1 X102.901 Y113.645 E.32568
G1 X102.363 Y113.645 E.01699
G1 X95.072 Y106.355 E.32568
G1 X94.535 Y106.355 E.01696
G1 X101.826 Y113.645 E.32568
G1 X101.289 Y113.645 E.01696
G1 X93.998 Y106.355 E.32568
G1 X93.461 Y106.355 E.01696
G1 X100.752 Y113.645 E.32568
G1 X100.214 Y113.645 E.01699
G1 X92.923 Y106.355 E.32568
G1 X92.386 Y106.355 E.01696
G1 X99.677 Y113.645 E.32568
G1 X99.14 Y113.645 E.01696
G1 X91.849 Y106.355 E.32568
G1 X91.312 Y106.355 E.01696
G1 X98.603 Y113.645 E.32568
G1 X98.065 Y113.645 E.01699
G1 X90.774 Y106.355 E.32568
G1 X90.237 Y106.355 E.01696
G1 X97.528 Y113.645 E.32568
G1 X96.991 Y113.645 E.01696
G1 X89.7 Y106.355 E.32568
G1 X89.163 Y106.355 E.01696
G1 X96.454 Y113.645 E.32568
G1 X95.916 Y113.645 E.01699
G1 X88.625 Y106.355 E.32568
G1 X88.088 Y106.355 E.01696
G1 X95.379 Y113.645 E.32568
G1 X94.842 Y113.645 E.01696
G1 X87.551 Y106.355 E.32568
G1 X87.014 Y106.355 E.01696
G1 X94.305 Y113.645 E.32568
G1 X93.768 Y113.645 E.01696
G1 X86.477 Y106.355 E.32568
G1 X86.355 Y106.355 E.00385
G1 X86.355 Y106.77 E.01311
G1 X93.23 Y113.645 E.30712
G1 X92.693 Y113.645 E.01696
G1 X86.355 Y107.307 E.28313
G1 X86.355 Y107.844 E.01696
G1 X92.156 Y113.645 E.25914
G1 X91.619 Y113.645 E.01696
G1 X86.355 Y108.381 E.23515
G1 X86.355 Y108.919 E.01699
G1 X91.081 Y113.645 E.21112
G1 X90.544 Y113.645 E.01696
G1 X86.355 Y109.456 E.18713
G1 X86.355 Y109.993 E.01696
G1 X90.007 Y113.645 E.16314
G1 X89.47 Y113.645 E.01696
G1 X86.355 Y110.53 E.13915
G1 X86.355 Y111.068 E.01699
G1 X88.932 Y113.645 E.11512
G1 X88.395 Y113.645 E.01696
G1 X86.355 Y111.605 E.09113
G1 X86.355 Y112.142 E.01696
G1 X87.858 Y113.645 E.06714
G1 X87.321 Y113.645 E.01696
G1 X86.355 Y112.679 E.04315
G1 X86.355 Y113.217 E.01699
G1 X86.953 Y113.815 E.02671
; stop printing object derjateldlyaled.STL id:0 copy 0
M106 S255
;LAYER_CHANGE
;Z:0.4
;HEIGHT:0.2
;BEFORE_LAYER_CHANGE
G92 E0
;0.4


;WIPE_START
G1 F7200
G1 X86.355 Y113.217 E-.20085
G1 X86.355 Y112.679 E-.12777
G1 X87.321 Y113.645 E-.32446
G1 X87.858 Y113.645 E-.12754
G1 X87.8 Y113.587 E-.01938
;WIPE_END
G1 Z.4 F9000
;AFTER_LAYER_CHANGE
;0.4
M104 S205 ; set temperature
G1 X87.8 Y118.377
G1 E.8 F1800
;TYPE:Skirt/Brim
;WIDTH:0.42
G1 F2400
G1 X85 Y118.377 E.08779
G1 X83.417 Y117.983 E.05115
G1 X82.203 Y116.893 E.05116
G1 X81.623 Y115 E.06208
G1 X81.623 Y105 E.31354
G1 X82.017 Y103.417 E.05115
G1 X83.107 Y102.203 E.05116
G1 X85 Y101.623 E.06208
G1 X135 Y101.623 E1.56771
G1 X136.583 Y102.017 E.05115
G1 X137.797 Y103.107 E.05116
G1 X138.377 Y105 E.06208
G1 X138.377 Y115 E.31354
G1 X137.983 Y116.583 E.05115
G1 X136.893 Y117.797 E.05116
G1 X135 Y118.377 E.06208
G1 X87.86 Y118.377 E1.47804
; printing object derjateldlyaled.STL id:0 copy 0
;WIPE_START
G1 F7200
G1 X87.8 Y118.377 E-.01425
G1 X85 Y118.377 E-.665
G1 X84.507 Y118.254 E-.12075
;WIPE_END
G1 X85.994 Y114.006 F9000
G1 E.8 F1800
;TYPE:Perimeter
;WIDTH:0.439999
G1 F2400
G1 X85.994 Y105.994 E.26453
G1 X134.006 Y105.994 E1.58522
G1 X134.006 Y110 E.13227
G1 X134.006 Y114.006 E.13227
G1 X86.054 Y114.006 E1.58324
G1 X85.597 Y114.403 F9000
G1 F2400
G1 X85.597 Y105.597 E.29075
G1 X134.403 Y105.597 E1.61144
G1 X134.403 Y110 E.14537
G1 X134.403 Y114.403 E.14537
G1 X85.657 Y114.403 E1.60946
G1 X85.21 Y114.79 F9000
;TYPE:External perimeter
;WIDTH:0.419999
G1 F1500
G1 X85.21 Y105.21 E.30037
G1 X134.79 Y105.21 E1.55454
G1 X134.79 Y110 E.15019
G1 X134.79 Y114.79 E.15019
G1 X85.27 Y114.79 E1.55266
;WIPE_START
G1 F7200
G1 X85.21 Y114.79 E-.01425
G1 X85.21 Y111.482 E-.78575
;WIPE_END
G1 X86.408 Y106.332 F9000
G1 E.8 F1800
;TYPE:Solid infill
;WIDTH:0.53634
G1 F2400
G1 X86.364 Y106.289 E.00252
G1 X86.304 Y106.304 E.00254
G1 X86.289 Y106.364 E.00254
G1 X86.332 Y106.408 E.00252
G1 X86.392 Y106.392 E.00255
;WIDTH:0.439999
G1 X86.3 Y107.026 E.02115
G1 X87.026 Y106.3 E.0339
G1 X87.117 Y106.23 E.00379
;WIDTH:0.41146
G1 X87.208 Y106.16 E.00352
;WIDTH:0.38292
G1 X87.167 Y106.171 E.0012
G1 X87.148 Y106.1 E.00208
G1 X87.219 Y106.119 E.00208
;WIDTH:0.439999
G1 X87.587 Y106.3 E.01354
G1 X86.3 Y107.587 E.06009
G1 X86.3 Y108.149 E.01856
G1 X88.149 Y106.3 E.08634
G1 X88.711 Y106.3 E.01856
G1 X86.3 Y108.711 E.11258
G1 X86.3 Y109.272 E.01852
G1 X89.272 Y106.3 E.13877
G1 X89.834 Y106.3 E.01856
G1 X86.3 Y109.834 E.16501
G1 X86.3 Y110.395 E.01852
G1 X90.395 Y106.3 E.19121
G1 X90.957 Y106.3 E.01856
G1 X86.3 Y110.957 E.21745
G1 X86.3 Y111.518 E.01852
G1 X91.518 Y106.3 E.24365
G1 X92.08 Y106.3 E.01856
G1 X86.3 Y112.08 E.26989
G1 X86.3 Y112.641 E.01852
G1 X92.641 Y106.3 E.29608
G1 X93.203 Y106.3 E.01856
G1 X86.3 Y113.203 E.32232
G1 X86.162 Y113.838 E.02146
;WIDTH:0.38292
G1 X86.152 Y113.677 E.00456
;WIDTH:0.41146
G1 X86.258 Y113.689 E.00327
;WIDTH:0.439999
G1 X86.364 Y113.7 E.00352
G1 X93.765 Y106.3 E.34555
G1 X94.326 Y106.3 E.01852
G1 X86.926 Y113.7 E.34553
G1 X87.488 Y113.7 E.01856
G1 X94.888 Y106.3 E.34553
G1 X95.449 Y106.3 E.01852
G1 X88.049 Y113.7 E.34553
G1 X88.611 Y113.7 E.01856
G1 X96.011 Y106.3 E.34553
G1 X96.572 Y106.3 E.01852
G1 X89.172 Y113.7 E.34553
G1 X89.734 Y113.7 E.01856
G1 X97.134 Y106.3 E.34553
G1 X97.695 Y106.3 E.01852
G1 X90.295 Y113.7 E.34553
G1 X90.857 Y113.7 E.01856
G1 X98.257 Y106.3 E.34553
G1 X98.819 Y106.3 E.01856
G1 X91.418 Y113.7 E.34555
G1 X91.98 Y113.7 E.01856
G1 X99.38 Y106.3 E.34553
G1 X99.942 Y106.3 E.01856
G1 X92.542 Y113.7 E.34553
G1 X93.103 Y113.7 E.01852
G1 X100.503 Y106.3 E.34553
G1 X101.065 Y106.3 E.01856
G1 X93.665 Y113.7 E.34553
G1 X94.226 Y113.7 E.01852
G1 X101.626 Y106.3 E.34553
G1 X102.188 Y106.3 E.01856
G1 X94.788 Y113.7 E.34553
G1 X95.349 Y113.7 E.01852
G1 X102.749 Y106.3 E.34553
G1 X103.311 Y106.3 E.01856
G1 X95.911 Y113.7 E.34553
G1 X96.472 Y113.7 E.01852
G1 X103.873 Y106.3 E.34555
G1 X104.434 Y106.3 E.01852
G1 X97.034 Y113.7 E.34553
G1 X97.595 Y113.7 E.01852
G1 X104.996 Y106.3 E.34555
G1 X105.557 Y106.3 E.01852
G1 X98.157 Y113.7 E.34553
G1 X98.719 Y113.7 E.01856
G1 X106.119 Y106.3 E.34553
G1 X106.68 Y106.3 E.01852
G1 X99.28 Y113.7 E.34553
G1 X99.842 Y113.7 E.01856
G1 X107.242 Y106.3 E.34553
G1 X107.803 Y106.3 E.01852
G1 X100.403 Y113.7 E.34553
G1 X100.965 Y113.7 E.01856
G1 X108.365 Y106.3 E.34553
G1 X108.927 Y106.3 E.01856
G1 X101.526 Y113.7 E.34555
G1 X102.088 Y113.7 E.01856
G1 X109.488 Y106.3 E.34553
G1 X110.05 Y106.3 E.01856
G1 X102.649 Y113.7 E.34555
G1 X103.211 Y113.7 E.01856
G1 X110.611 Y106.3 E.34553
G1 X111.173 Y106.3 E.01856
G1 X103.773 Y113.7 E.34553
G1 X104.334 Y113.7 E.01852
G1 X111.734 Y106.3 E.34553
G1 X112.296 Y106.3 E.01856
G1 X104.896 Y113.7 E.34553
G1 X105.457 Y113.7 E.01852
G1 X112.857 Y106.3 E.34553
G1 X113.419 Y106.3 E.01856
G1 X106.019 Y113.7 E.34553
G1 X106.58 Y113.7 E.01852
G1 X113.981 Y106.3 E.34555
G1 X114.542 Y106.3 E.01852
G1 X107.142 Y113.7 E.34553
G1 X107.703 Y113.7 E.01852
G1 X115.104 Y106.3 E.34555
G1 X115.665 Y106.3 E.01852
G1 X108.265 Y113.7 E.34553
G1 X108.827 Y113.7 E.01856
G1 X116.227 Y106.3 E.34553
G1 X116.788 Y106.3 E.01852
G1 X109.388 Y113.7 E.34553
G1 X109.95 Y113.7 E.01856
G1 X117.35 Y106.3 E.34553
G1 X117.911 Y106.3 E.01852
G1 X110.511 Y113.7 E.34553
G1 X111.073 Y113.7 E.01856
G1 X118.473 Y106.3 E.34553
G1 X119.035 Y106.3 E.01856
G1 X111.634 Y113.7 E.34555
G1 X112.196 Y113.7 E.01856
G1 X119.596 Y106.3 E.34553
G1 X120.158 Y106.3 E.01856
G1 X112.757 Y113.7 E.34555
G1 X113.319 Y113.7 E.01856
G1 X120.719 Y106.3 E.34553
G1 X121.281 Y106.3 E.01856
G1 X113.881 Y113.7 E.34553
G1 X114.442 Y113.7 E.01852
G1 X121.842 Y106.3 E.34553
G1 X122.404 Y106.3 E.01856
G1 X115.004 Y113.7 E.34553
G1 X115.565 Y113.7 E.01852
G1 X122.965 Y106.3 E.34553
G1 X123.527 Y106.3 E.01856
G1 X116.127 Y113.7 E.34553
G1 X116.688 Y113.7 E.01852
G1 X124.089 Y106.3 E.34555
G1 X124.65 Y106.3 E.01852
G1 X117.25 Y113.7 E.34553
G1 X117.811 Y113.7 E.01852
G1 X125.212 Y106.3 E.34555
G1 X125.773 Y106.3 E.01852
G1 X118.373 Y113.7 E.34553
G1 X118.935 Y113.7 E.01856
G1 X126.335 Y106.3 E.34553
G1 X126.896 Y106.3 E.01852
G1 X119.496 Y113.7 E.34553
G1 X120.058 Y113.7 E.01856
G1 X127.458 Y106.3 E.34553
G1 X128.019 Y106.3 E.01852
G1 X120.619 Y113.7 E.34553
G1 X121.181 Y113.7 E.01856
G1 X128.581 Y106.3 E.34553
G1 X129.143 Y106.3 E.01856
G1 X121.742 Y113.7 E.34555
G1 X122.304 Y113.7 E.01856
G1 X129.704 Y106.3 E.34553
G1 X130.266 Y106.3 E.01856
G1 X122.865 Y113.7 E.34555
G1 X123.427 Y113.7 E.01856
G1 X130.827 Y106.3 E.34553
G1 X131.389 Y106.3 E.01856
G1 X123.989 Y113.7 E.34553
G1 X124.55 Y113.7 E.01852
G1 X131.95 Y106.3 E.34553
G1 X132.512 Y106.3 E.01856
G1 X125.112 Y113.7 E.34553
G1 X125.673 Y113.7 E.01852
G1 X133.073 Y106.3 E.34553
G1 X133.635 Y106.3 E.01856
G1 X126.235 Y113.7 E.34553
G1 X126.796 Y113.7 E.01852
G1 X133.7 Y106.796 E.32237
G1 X133.7 Y107.358 E.01856
G1 X127.358 Y113.7 E.29613
G1 X127.919 Y113.7 E.01852
G1 X133.7 Y107.919 E.26993
G1 X133.7 Y108.481 E.01856
G1 X128.481 Y113.7 E.24369
G1 X129.043 Y113.7 E.01856
G1 X133.7 Y109.043 E.21745
G1 X133.7 Y109.604 E.01852
G1 X129.604 Y113.7 E.19126
G1 X130.166 Y113.7 E.01856
G1 X133.7 Y110.166 E.16501
G1 X133.7 Y110.727 E.01852
G1 X130.727 Y113.7 E.13882
