; generated by PrusaSlicer 2.7.1+win64 on 2025-04-03 at 12:29:59 UTC

; 

; external perimeters extrusion width = 0.42mm
; perimeters extrusion width = 0.44mm
; infill extrusion width = 0.44mm
; solid infill extrusion width = 0.44mm
; top infill extrusion width = 0.40mm
; first layer extrusion width = 0.42mm

M201 X500 Y500 Z100 E5000 ; sets maximum accelerations, mm/sec^2
M203 X500 Y500 Z10 E60 ; sets maximum feedrates, mm / sec
M204 S500 T1000 ; sets acceleration (S) and retract acceleration (R), mm/sec^2
M205 X8.00 Y8.00 Z0.40 E5.00 ; sets the jerk limits, mm/sec
M205 S0 T0 ; sets the minimum extruding and travel feed rate, mm/sec

; printing object derjateldlyasosuda.STL id:0 copy 0
; stop printing object derjateldlyasosuda.STL id:0 copy 0

;TYPE:Custom
G90 ; use absolute coordinates
M83 ; extruder relative mode
M104 S150 ; set temporary nozzle temp to prevent oozing during homing
M140 S60 ; set final bed temp
G4 S30 ; allow partial nozzle warmup
G28 ; home all axis and restore leveling
G1 Z50 F240
G1 X2.0 Y10 F3000
M104 S210 ; set final nozzle temp
M190 S60 ; wait for bed temp to stabilize
M109 S210 ; wait for nozzle temp to stabilize
G1 Z0.28 F240
G92 E0
G1 X2.0 Y140 E10 F1500 ; prime the nozzle
G1 X2.3 Y140 F5000
G92 E0
G1 X2.3 Y10 E10 F1200 ; prime the nozzle
G92 E0
G21 ; set units to millimeters
G90 ; use absolute coordinates
M83 ; use relative distances for extrusion
; Filament gcode
M107
;LAYER_CHANGE
;Z:0.2
;HEIGHT:0.2
;BEFORE_LAYER_CHANGE
G92 E0
;0.2


G1 E-.8 F1800
G1 Z.2 F9000
;AFTER_LAYER_CHANGE
;0.2
G1 X75.607 Y74.703
G1 Z.2
G1 E.8 F1800
M204 S500
;TYPE:Skirt/Brim
;WIDTH:0.42
G1 F1200
G1 X77.5 Y74.123 E.06208
G1 X142.5 Y74.123 E2.03803
G1 X144.083 Y74.517 E.05115
G1 X145.297 Y75.607 E.05116
G1 X145.877 Y77.5 E.06208
G1 X145.877 Y142.5 E2.03803
G1 X145.483 Y144.083 E.05115
G1 X144.393 Y145.297 E.05116
G1 X142.5 Y145.877 E.06208
G1 X77.5 Y145.877 E2.03803
G1 X75.917 Y145.483 E.05115
G1 X74.703 Y144.393 E.05116
G1 X74.123 Y142.5 E.06208
G1 X74.123 Y77.5 E2.03803
G1 X74.517 Y75.917 E.05115
G1 X75.567 Y74.748 E.04927
; printing object derjateldlyasosuda.STL id:0 copy 0
;WIPE_START
G1 F7200
G1 X75.607 Y74.703 E-.0143
G1 X77.5 Y74.123 E-.47022
G1 X78.828 Y74.123 E-.31548
;WIPE_END
G1 X140.218 Y78.655 F9000
G1 E.8 F1800
;TYPE:Perimeter
;WIDTH:0.601644
G1 F1200
G1 X141.345 Y78.655 E.05236
G1 X141.345 Y78.934 E.01296
G1 X141.345 Y79.8 E.04023
G1 X141.138 Y79.441 E.01925
G1 X140.907 Y79.166 E.01669
G1 X140.475 Y78.804 E.02618
G1 X140.27 Y78.685 E.01101
;WIPE_START
G1 F7200
G1 X140.218 Y78.655 E-.01426
G1 X141.345 Y78.655 E-.26766
G1 X141.345 Y78.934 E-.06626
G1 X141.345 Y79.8 E-.20567
G1 X141.138 Y79.441 E-.09842
G1 X140.907 Y79.166 E-.0853
G1 X140.706 Y78.997 E-.06243
;WIPE_END
G1 X136.672 Y79.985 F9000
G1 E.8 F1800
;WIDTH:0.419999
G1 F1200
G1 X136.464 Y80.636 E.02143
G1 X136.45 Y81.164 E.01656
G1 X136.548 Y81.718 E.01764
G1 X136.659 Y82.026 E.01027
G1 X136.941 Y82.514 E.01767
G1 X137.152 Y82.765 E.01028
G1 X137.583 Y83.127 E.01765
G1 X137.867 Y83.29 E.01027
G1 X138.396 Y83.483 E.01766
G1 X138.718 Y83.54 E.01025
G1 X139.282 Y83.54 E.01768
G1 X139.604 Y83.483 E.01025
G1 X140.133 Y83.29 E.01766
G1 X140.417 Y83.127 E.01027
G1 X140.848 Y82.765 E.01765
G1 X141.059 Y82.514 E.01028
;WIDTH:0.447066
G1 X141.395 Y81.993 E.02083
G1 X141.436 Y82.615 E.02095
;WIDTH:0.419999
G1 X141.436 Y138.236 E1.74395
G1 X141.341 Y137.974 E.00874
G1 X141.059 Y137.486 E.01767
G1 X140.848 Y137.235 E.01028
G1 X140.417 Y136.873 E.01765
G1 X140.133 Y136.71 E.01027
G1 X139.354 Y136.463 E.02562
G1 X138.816 Y136.452 E.01687
G1 X138.279 Y136.548 E.0171
G1 X137.974 Y136.659 E.01018
G1 X137.486 Y136.941 E.01767
G1 X137.235 Y137.152 E.01028
G1 X136.873 Y137.583 E.01765
G1 X136.71 Y137.867 E.01027
G1 X136.464 Y138.636 E.02532
G1 X136.45 Y139.164 E.01656
G1 X136.548 Y139.718 E.01764
G1 X136.659 Y140.026 E.01027
G1 X136.941 Y140.514 E.01767
G1 X137.152 Y140.765 E.01028
G1 X137.583 Y141.127 E.01765
G1 X137.867 Y141.29 E.01027
G1 X138.266 Y141.436 E.01332
G1 X82.615 Y141.436 E1.7449
;WIDTH:0.447068
G1 X81.993 Y141.395 E.02095
G1 X82.046 Y141.376 E.00189
G1 X82.765 Y140.848 E.02998
;WIDTH:0.419999
G1 X83.127 Y140.417 E.01765
G1 X83.29 Y140.133 E.01027
G1 X83.483 Y139.604 E.01766
G1 X83.54 Y139.282 E.01025
G1 X83.54 Y138.718 E.01768
G1 X83.483 Y138.396 E.01025
G1 X83.29 Y137.867 E.01766
G1 X83.127 Y137.583 E.01027
G1 X82.765 Y137.152 E.01765
G1 X82.514 Y136.941 E.01028
G1 X81.927 Y136.61 E.02113
G1 X81.354 Y136.463 E.01855
G1 X80.816 Y136.452 E.01687
G1 X80.279 Y136.548 E.0171
G1 X79.974 Y136.659 E.01018
G1 X79.486 Y136.941 E.01767
G1 X79.235 Y137.152 E.01028
G1 X78.873 Y137.583 E.01765
G1 X78.71 Y137.867 E.01027
G1 X78.564 Y138.266 E.01332
G1 X78.564 Y81.734 E1.77252
G1 X78.71 Y82.133 E.01332
G1 X78.873 Y82.417 E.01027
G1 X79.235 Y82.848 E.01765
G1 X79.486 Y83.059 E.01028
G1 X79.974 Y83.341 E.01767
G1 X80.282 Y83.452 E.01027
G1 X80.836 Y83.55 E.01764
G1 X81.164 Y83.55 E.01028
G1 X81.718 Y83.452 E.01764
G1 X82.026 Y83.341 E.01027
G1 X82.514 Y83.059 E.01767
G1 X82.765 Y82.848 E.01028
G1 X83.127 Y82.417 E.01765
G1 X83.29 Y82.133 E.01027
G1 X83.483 Y81.604 E.01766
G1 X83.54 Y81.282 E.01025
G1 X83.54 Y80.718 E.01768
G1 X83.483 Y80.396 E.01025
G1 X83.29 Y79.867 E.01766
G1 X83.127 Y79.583 E.01027
G1 X82.765 Y79.152 E.01765
G1 X82.514 Y78.941 E.01028
G1 X81.799 Y78.565 E.02533
G1 X138.235 Y78.564 E1.76951
G1 X137.974 Y78.659 E.00871
G1 X137.486 Y78.941 E.01767
G1 X137.235 Y79.152 E.01028
G1 X136.873 Y79.583 E.01765
G1 X136.71 Y79.867 E.01027
G1 X136.69 Y79.928 E.00201
G1 X136.948 Y80.342 F9000
G1 F1200
G1 X137.064 Y79.996 E.01144
G1 X137.162 Y79.825 E.00618
G1 X137.524 Y79.394 E.01765
G1 X137.675 Y79.268 E.00617
G1 X138.162 Y78.986 E.01764
;WIDTH:0.463499
G1 X138.399 Y78.91 E.0087
;WIDTH:0.506998
G1 X138.635 Y78.834 E.00957
;WIDTH:0.550497
G1 X138.871 Y78.759 E.01045
;WIDTH:0.557778
G1 X139.33 Y78.77 E.01966
G1 X139.555 Y78.868 E.01051
;WIDTH:0.511852
G1 X139.78 Y78.966 E.00957
;WIDTH:0.465926
G1 X140.004 Y79.064 E.0086
;WIDTH:0.419999
G1 X140.175 Y79.162 E.00618
G1 X140.606 Y79.524 E.01765
G1 X140.732 Y79.675 E.00617
G1 X141.014 Y80.162 E.01764
;WIDTH:0.463624
G1 X141.09 Y80.405 E.00891
;WIDTH:0.507248
G1 X141.167 Y80.648 E.00984
;WIDTH:0.550872
G1 X141.243 Y80.89 E.01071
;WIDTH:0.600154
G1 X141.17 Y81.669 E.03625
G1 X141.06 Y81.833 E.00915
;WIDTH:0.555116
G1 X140.951 Y81.997 E.00839
;WIDTH:0.510077
G1 X140.842 Y82.161 E.00765
;WIDTH:0.465038
G1 X140.732 Y82.325 E.00693
;WIDTH:0.419999
G1 X140.606 Y82.476 E.00617
G1 X140.175 Y82.838 E.01765
G1 X140.004 Y82.936 E.00618
G1 X139.475 Y83.129 E.01766
G1 X139.282 Y83.163 E.00614
G1 X138.718 Y83.163 E.01768
G1 X138.525 Y83.129 E.00614
G1 X137.996 Y82.936 E.01766
G1 X137.825 Y82.838 E.00618
G1 X137.394 Y82.476 E.01765
G1 X137.268 Y82.325 E.00617
G1 X136.986 Y81.838 E.01764
G1 X136.919 Y81.653 E.00617
G1 X136.821 Y81.098 E.01767
G1 X136.839 Y80.669 E.01346
G1 X136.929 Y80.399 E.00892
G1 X137.215 Y80.702 F9000
;TYPE:External perimeter
G1 F1200
G1 X137.418 Y80.125 E.01918
G1 X137.813 Y79.636 E.01971
G1 X138.351 Y79.313 E.01968
G1 X138.949 Y79.194 E.01912
G1 X139.346 Y79.226 E.01249
G1 X139.875 Y79.418 E.01765
G1 X140.343 Y79.796 E.01886
G1 X140.687 Y80.351 E.02047
G1 X140.808 Y80.967 E.01968
G1 X140.71 Y81.587 E.01968
G1 X140.406 Y82.137 E.0197
G1 X139.932 Y82.549 E.01969
G1 X139.346 Y82.774 E.01968
G1 X138.718 Y82.786 E.01969
G1 X138.125 Y82.582 E.01966
G1 X137.636 Y82.187 E.01971
G1 X137.313 Y81.649 E.01968
G1 X137.192 Y81.033 E.01968
G1 X137.211 Y80.762 E.00852
;WIPE_START
G1 F7200
G1 X137.215 Y80.702 E-.01428
G1 X137.418 Y80.125 E-.14527
G1 X137.813 Y79.636 E-.14929
G1 X138.351 Y79.313 E-.14903
G1 X138.949 Y79.194 E-.14481
G1 X139.346 Y79.226 E-.09459
G1 X139.753 Y79.374 E-.10273
;WIPE_END
G1 X79.8 Y78.655 F9000
G1 E.8 F1800
;TYPE:Perimeter
;WIDTH:0.601644
G1 F1200
G1 X79.441 Y78.862 E.01925
G1 X79.166 Y79.093 E.01669
G1 X78.804 Y79.525 E.02618
G1 X78.655 Y79.782 E.0138
G1 X78.655 Y78.655 E.05236
G1 X79.74 Y78.655 E.05041
;WIPE_START
G1 F7200
G1 X79.8 Y78.655 E-.01425
G1 X79.441 Y78.862 E-.09842
G1 X79.166 Y79.093 E-.0853
G1 X78.804 Y79.525 E-.13386
G1 X78.655 Y79.782 E-.07055
G1 X78.655 Y78.655 E-.26766
G1 X79.202 Y78.655 E-.12996
;WIPE_END
G1 X81.358 Y78.779 F9000
G1 E.8 F1800
;WIDTH:0.57189
G1 F1200
G1 X81.448 Y78.783 E.00396
G1 X81.667 Y78.904 E.011
;WIDTH:0.533918
G1 X81.886 Y79.025 E.01021
;WIDTH:0.495945
G1 X82.106 Y79.147 E.00948
;WIDTH:0.457972
G1 X82.325 Y79.268 E.00863
;WIDTH:0.419999
G1 X82.476 Y79.394 E.00617
G1 X82.838 Y79.825 E.01765
G1 X82.936 Y79.996 E.00618
G1 X83.129 Y80.525 E.01766
G1 X83.163 Y80.718 E.00614
G1 X83.163 Y81.282 E.01768
G1 X83.129 Y81.475 E.00614
G1 X82.936 Y82.004 E.01766
G1 X82.838 Y82.175 E.00618
G1 X82.476 Y82.606 E.01765
G1 X82.325 Y82.732 E.00617
G1 X81.838 Y83.014 E.01764
G1 X81.653 Y83.081 E.00617
G1 X81.098 Y83.179 E.01767
G1 X80.902 Y83.179 E.00615
G1 X80.347 Y83.081 E.01767
G1 X80.162 Y83.014 E.00617
G1 X79.675 Y82.732 E.01764
G1 X79.524 Y82.606 E.00617
G1 X79.162 Y82.175 E.01765
;WIDTH:0.462892
G1 X78.996 Y81.832 E.01331
;WIDTH:0.505785
G1 X78.831 Y81.49 E.01461
;WIDTH:0.534502
G1 X78.803 Y81.441 E.00231
;WIDTH:0.563219
G1 X78.775 Y81.392 E.00244
G1 X78.769 Y80.718 E.02916
;WIDTH:0.556471
G1 X78.867 Y80.477 E.01111
;WIDTH:0.510981
G1 X78.966 Y80.237 E.0101
;WIDTH:0.46549
G1 X79.064 Y79.996 E.00914
;WIDTH:0.419999
G1 X79.162 Y79.825 E.00618
G1 X79.524 Y79.394 E.01765
G1 X79.675 Y79.268 E.00617
G1 X80.162 Y78.986 E.01764
;WIDTH:0.463499
G1 X80.399 Y78.91 E.0087
;WIDTH:0.506998
G1 X80.635 Y78.834 E.00957
;WIDTH:0.550497
G1 X80.871 Y78.759 E.01045
;WIDTH:0.57189
G1 X81.298 Y78.777 E.0188
G1 X81.33 Y79.221 F9000
;TYPE:External perimeter
;WIDTH:0.419999
G1 F1200
G1 X81.649 Y79.313 E.01041
G1 X82.137 Y79.594 E.01766
G1 X82.549 Y80.068 E.01969
G1 X82.774 Y80.654 E.01968
G1 X82.786 Y81.282 E.01969
G1 X82.582 Y81.875 E.01966
G1 X82.187 Y82.364 E.01971
G1 X81.649 Y82.687 E.01968
G1 X81.033 Y82.808 E.01968
G1 X80.413 Y82.71 E.01968
G1 X79.863 Y82.406 E.0197
G1 X79.451 Y81.932 E.01969
G1 X79.226 Y81.346 E.01968
G1 X79.214 Y80.718 E.01969
G1 X79.418 Y80.125 E.01966
G1 X79.796 Y79.657 E.01886
G1 X80.351 Y79.313 E.02047
G1 X80.949 Y79.194 E.01912
G1 X81.27 Y79.216 E.01009
;WIPE_START
G1 F7200
G1 X81.33 Y79.221 E-.0143
G1 X81.649 Y79.313 E-.07885
G1 X82.137 Y79.594 E-.13374
G1 X82.549 Y80.068 E-.14916
G1 X82.774 Y80.654 E-.14908
G1 X82.786 Y81.282 E-.14918
G1 X82.614 Y81.783 E-.12569
;WIPE_END
G1 X78.655 Y140.218 F9000
G1 E.8 F1800
;TYPE:Perimeter
;WIDTH:0.601643
G1 F1200
G1 X78.804 Y140.475 E.0138
G1 X79.148 Y140.886 E.0249
G1 X79.441 Y141.138 E.01795
G1 X79.8 Y141.345 E.01925
G1 X78.655 Y141.345 E.05319
G1 X78.655 Y140.278 E.04957
G1 X79.125 Y140.099 F9000
;WIDTH:0.462893
G1 F1200
G1 X78.996 Y139.832 E.01036
;WIDTH:0.505786
G1 X78.831 Y139.49 E.01461
;WIDTH:0.534503
G1 X78.803 Y139.441 E.00231
;WIDTH:0.563219
G1 X78.775 Y139.392 E.00244
G1 X78.769 Y138.718 E.02916
;WIDTH:0.556471
G1 X78.867 Y138.477 E.01111
;WIDTH:0.510981
G1 X78.966 Y138.237 E.0101
;WIDTH:0.46549
G1 X79.064 Y137.996 E.00914
;WIDTH:0.419999
G1 X79.162 Y137.825 E.00618
G1 X79.524 Y137.394 E.01765
G1 X79.675 Y137.268 E.00617
G1 X80.162 Y136.986 E.01764
G1 X80.883 Y136.823 E.02318
G1 X81.428 Y136.856 E.01712
G1 X81.838 Y136.986 E.01349
G1 X82.325 Y137.268 E.01764
G1 X82.476 Y137.394 E.00617
G1 X82.838 Y137.825 E.01765
G1 X82.936 Y137.996 E.00618
G1 X83.129 Y138.525 E.01766
G1 X83.163 Y138.718 E.00614
G1 X83.163 Y139.282 E.01768
G1 X83.129 Y139.475 E.00614
G1 X82.936 Y140.004 E.01766
G1 X82.838 Y140.175 E.00618
G1 X82.476 Y140.606 E.01765
;WIDTH:0.447068
G1 X81.844 Y141.026 E.0255
;WIDTH:0.485339
G1 X81.8 Y141.062 E.00209
;WIDTH:0.52361
G1 X81.756 Y141.098 E.00227
;WIDTH:0.561881
G1 X81.713 Y141.134 E.00242
;WIDTH:0.600152
G1 X81.669 Y141.17 E.00263
G1 X81.109 Y141.243 E.02617
;WIDTH:0.550871
G1 X80.89 Y141.243 E.00925
G1 X80.709 Y141.189 E.00798
;WIDTH:0.507247
G1 X80.528 Y141.135 E.00729
;WIDTH:0.463623
G1 X80.347 Y141.081 E.00661
;WIDTH:0.419999
G1 X80.162 Y141.014 E.00617
G1 X79.675 Y140.732 E.01764
G1 X79.507 Y140.585 E.007
G1 X79.162 Y140.175 E.0168
;WIDTH:0.462893
G1 X79.152 Y140.153 E.00084
G1 X79.451 Y139.932 F9000
;TYPE:External perimeter
;WIDTH:0.419999
G1 F1200
G1 X79.226 Y139.346 E.01968
G1 X79.214 Y138.718 E.01969
G1 X79.418 Y138.125 E.01966
G1 X79.813 Y137.636 E.01971
G1 X80.351 Y137.313 E.01968
G1 X80.949 Y137.194 E.01912
G1 X81.33 Y137.221 E.01198
G1 X81.649 Y137.313 E.01041
G1 X82.137 Y137.594 E.01766
G1 X82.549 Y138.068 E.01969
G1 X82.774 Y138.654 E.01968
G1 X82.786 Y139.282 E.01969
G1 X82.582 Y139.875 E.01966
G1 X82.187 Y140.364 E.01971
G1 X81.649 Y140.687 E.01968
G1 X81.033 Y140.808 E.01968
G1 X80.413 Y140.71 E.01968
G1 X79.863 Y140.406 E.0197
G1 X79.49 Y139.977 E.01782
;WIPE_START
G1 F7200
G1 X79.451 Y139.932 E-.01414
G1 X79.226 Y139.346 E-.14908
G1 X79.214 Y138.718 E-.14918
G1 X79.418 Y138.125 E-.14894
G1 X79.813 Y137.636 E-.14929
G1 X80.351 Y137.313 E-.14903
G1 X80.518 Y137.28 E-.04034
;WIPE_END
G1 X141.345 Y140.2 F9000
G1 E.8 F1800
;TYPE:Perimeter
;WIDTH:0.601645
G1 F1200
G1 X141.345 Y141.345 E.05319
G1 X140.218 Y141.345 E.05236
G1 X140.475 Y141.196 E.0138
G1 X140.886 Y140.852 E.0249
G1 X141.138 Y140.559 E.01795
G1 X141.315 Y140.252 E.01646
;WIPE_START
G1 F7200
G1 X141.345 Y140.2 E-.01426
G1 X141.345 Y141.345 E-.27194
G1 X140.218 Y141.345 E-.26766
G1 X140.475 Y141.196 E-.07055
G1 X140.886 Y140.852 E-.12729
G1 X141.018 Y140.698 E-.0483
;WIPE_END
G1 X139.452 Y136.881 F9000
G1 E.8 F1800
;WIDTH:0.419999
G1 F1200
G1 X140.004 Y137.064 E.01823
G1 X140.175 Y137.162 E.00618
G1 X140.606 Y137.524 E.01765
G1 X140.732 Y137.675 E.00617
G1 X141.014 Y138.162 E.01764
;WIDTH:0.463623
G1 X141.09 Y138.405 E.00891
;WIDTH:0.507247
G1 X141.167 Y138.648 E.00984
;WIDTH:0.550871
G1 X141.243 Y138.89 E.01071
;WIDTH:0.600153
G1 X141.17 Y139.669 E.03625
G1 X141.06 Y139.833 E.00915
;WIDTH:0.555115
G1 X140.951 Y139.997 E.00839
;WIDTH:0.510076
G1 X140.842 Y140.161 E.00765
;WIDTH:0.465038
G1 X140.732 Y140.325 E.00693
;WIDTH:0.419999
G1 X140.606 Y140.476 E.00617
G1 X140.175 Y140.838 E.01765
;WIDTH:0.462893
G1 X139.832 Y141.004 E.01331
;WIDTH:0.505786
G1 X139.49 Y141.169 E.01461
;WIDTH:0.534503
G1 X139.441 Y141.197 E.00231
;WIDTH:0.563219
G1 X139.392 Y141.225 E.00244
G1 X138.718 Y141.231 E.02916
;WIDTH:0.556472
G1 X138.477 Y141.133 E.01111
;WIDTH:0.510981
G1 X138.237 Y141.034 E.0101
;WIDTH:0.46549
G1 X137.996 Y140.936 E.00914
;WIDTH:0.419999
G1 X137.825 Y140.838 E.00618
G1 X137.394 Y140.476 E.01765
G1 X137.268 Y140.325 E.00617
G1 X136.986 Y139.838 E.01764
G1 X136.919 Y139.653 E.00617
G1 X136.821 Y139.098 E.01767
G1 X136.852 Y138.59 E.01596
G1 X137.064 Y137.996 E.01978
G1 X137.162 Y137.825 E.00618
G1 X137.524 Y137.394 E.01765
G1 X137.675 Y137.268 E.00617
G1 X138.162 Y136.986 E.01764
G1 X138.345 Y136.919 E.00611
G1 X138.883 Y136.823 E.01714
G1 X139.325 Y136.839 E.01387
G1 X139.395 Y136.862 E.00231
G1 X139.346 Y137.226 F9000
;TYPE:External perimeter
G1 F1200
G1 X139.875 Y137.418 E.01765
G1 X140.364 Y137.813 E.01971
G1 X140.687 Y138.351 E.01968
G1 X140.808 Y138.967 E.01968
G1 X140.71 Y139.587 E.01968
G1 X140.364 Y140.187 E.02172
G1 X139.932 Y140.549 E.01767
G1 X139.346 Y140.774 E.01968
G1 X138.718 Y140.786 E.01969
G1 X138.125 Y140.582 E.01966
G1 X137.636 Y140.187 E.01971
G1 X137.313 Y139.649 E.01968
G1 X137.192 Y139.033 E.01968
G1 X137.226 Y138.654 E.01193
G1 X137.418 Y138.125 E.01765
G1 X137.813 Y137.636 E.01971
G1 X138.351 Y137.313 E.01968
G1 X138.949 Y137.194 E.01912
G1 X139.286 Y137.221 E.0106
;WIPE_START
G1 F7200
G1 X139.346 Y137.226 E-.0143
G1 X139.875 Y137.418 E-.13366
G1 X140.364 Y137.813 E-.14929
G1 X140.687 Y138.351 E-.14903
G1 X140.808 Y138.967 E-.1491
G1 X140.71 Y139.587 E-.14908
G1 X140.593 Y139.79 E-.05554
;WIPE_END
G1 X137.338 Y78.187 F9000
G1 E.8 F1800
;TYPE:Perimeter
G1 F1200
G1 X138.28 Y78.187 E.02954
;WIDTH:0.463858
G1 X138.463 Y78.209 E.00645
;WIDTH:0.507717
G1 X138.646 Y78.231 E.00712
;WIDTH:0.551575
G1 X138.829 Y78.253 E.0078
;WIDTH:0.557778
G1 X139.35 Y78.256 E.0223
