; generated by PrusaSlicer 2.7.1+win64 on 2025-04-25 at 14:52:09 UTC

; 

; external perimeters extrusion width = 0.42mm
; perimeters extrusion width = 0.44mm
; infill extrusion width = 0.44mm
; solid infill extrusion width = 0.44mm
; top infill extrusion width = 0.40mm
; support material extrusion width = 0.36mm
; first layer extrusion width = 0.42mm

M201 X500 Y500 Z100 E5000 ; sets maximum accelerations, mm/sec^2
M203 X500 Y500 Z10 E60 ; sets maximum feedrates, mm / sec
M204 S500 T1000 ; sets acceleration (S) and retract acceleration (R), mm/sec^2
M205 X8.00 Y8.00 Z0.40 E5.00 ; sets the jerk limits, mm/sec
M205 S0 T0 ; sets the minimum extruding and travel feed rate, mm/sec

; printing object kaima.STL id:0 copy 0
; stop printing object kaima.STL id:0 copy 0

;TYPE:Custom
G90 ; use absolute coordinates
M83 ; extruder relative mode
M104 S150 ; set temporary nozzle temp to prevent oozing during homing
M140 S60 ; set final bed temp
G4 S30 ; allow partial nozzle warmup
G28 ; home all axis and restore leveling
G1 Z50 F240
G1 X2.0 Y10 F3000
M104 S210 ; set final nozzle temp
M190 S60 ; wait for bed temp to stabilize
M109 S210 ; wait for nozzle temp to stabilize
G1 Z0.28 F240
G92 E0
G1 X2.0 Y140 E10 F1500 ; prime the nozzle
G1 X2.3 Y140 F5000
G92 E0
G1 X2.3 Y10 E10 F1200 ; prime the nozzle
G92 E0
G21 ; set units to millimeters
G90 ; use absolute coordinates
M83 ; use relative distances for extrusion
; Filament gcode
M107
;LAYER_CHANGE
;Z:0.2
;HEIGHT:0.2
;BEFORE_LAYER_CHANGE
G92 E0
;0.2


G1 E-.8 F1800
G1 Z.2 F9000
;AFTER_LAYER_CHANGE
;0.2
G1 X22.539 Y81.371
G1 Z.2
G1 E.8 F1800
M204 S500
;TYPE:Skirt/Brim
;WIDTH:0.42
G1 F1200
G1 X23.529 Y81.223 E.03139
G1 X196.471 Y81.223 E5.42247
G1 X198.054 Y81.617 E.05115
G1 X198.859 Y82.212 E.03139
G1 X201.788 Y85.141 E.12988
G1 X202.629 Y86.539 E.05115
G1 X202.777 Y87.529 E.03139
G1 X202.777 Y132.471 E1.40912
G1 X202.383 Y134.054 E.05115
G1 X201.788 Y134.859 E.03139
G1 X198.859 Y137.788 E.12988
G1 X197.461 Y138.629 E.05115
G1 X196.471 Y138.777 E.03139
G1 X23.529 Y138.777 E5.42247
G1 X21.946 Y138.383 E.05115
G1 X21.141 Y137.788 E.03139
G1 X18.212 Y134.859 E.12988
G1 X17.371 Y133.461 E.05115
G1 X17.223 Y132.471 E.03139
G1 X17.223 Y87.529 E1.40912
G1 X17.617 Y85.946 E.05115
G1 X18.212 Y85.141 E.03139
G1 X21.141 Y82.212 E.12988
G1 X22.488 Y81.402 E.04928
;WIPE_START
G1 F7200
G1 X22.539 Y81.371 E-.01417
G1 X23.529 Y81.223 E-.23774
G1 X25.837 Y81.223 E-.54809
;WIPE_END
G1 X24.074 Y85.151 F9000
G1 E.8 F1800
G1 F1200
G1 X24.481 Y84.979 E.01385
G1 X25.202 Y84.887 E.02279
G1 X194.886 Y84.89 E5.32032
G1 X195.835 Y85.074 E.03031
G1 X196.743 Y85.465 E.031
G1 X197.962 Y86.488 E.0499
G1 X198.753 Y87.706 E.04554
G1 X199.113 Y89.089 E.04481
G1 X199.113 Y130.91 E1.31127
G1 X198.757 Y132.284 E.0445
G1 X198.002 Y133.468 E.04403
G1 X196.87 Y134.45 E.04699
G1 X195.519 Y135.021 E.04599
G1 X194.798 Y135.113 E.02279
G1 X25.09 Y135.113 E5.32108
G1 X23.716 Y134.757 E.0445
G1 X22.532 Y134.002 E.04403
G1 X21.55 Y132.87 E.04699
G1 X20.979 Y131.519 E.04599
G1 X20.887 Y130.798 E.02279
G1 X20.887 Y89.09 E1.30773
G1 X21.243 Y87.716 E.0445
G1 X21.998 Y86.532 E.04403
G1 X23.13 Y85.55 E.04699
G1 X24.018 Y85.175 E.03022
G1 X24.165 Y85.517 F9000
G1 F1200
G1 X24.556 Y85.35 E.01333
G1 X25.214 Y85.264 E.02081
G1 X194.867 Y85.267 E5.31935
G1 X195.741 Y85.44 E.02794
G1 X196.566 Y85.799 E.02821
G1 X197.697 Y86.758 E.04649
G1 X198.396 Y87.832 E.04018
G1 X198.736 Y89.113 E.04156
G1 X198.736 Y130.886 E1.30976
G1 X198.422 Y132.109 E.03959
G1 X197.733 Y133.204 E.04056
G1 X196.693 Y134.115 E.04335
G1 X195.444 Y134.65 E.0426
G1 X194.786 Y134.736 E.02081
G1 X25.114 Y134.736 E5.31995
G1 X23.891 Y134.422 E.03959
G1 X22.796 Y133.733 E.04056
G1 X21.885 Y132.693 E.04335
G1 X21.35 Y131.444 E.0426
G1 X21.264 Y130.786 E.02081
G1 X21.264 Y89.114 E1.3066
G1 X21.578 Y87.891 E.03959
G1 X22.267 Y86.796 E.04056
G1 X23.307 Y85.885 E.04335
G1 X24.11 Y85.541 E.02739
G1 X24.258 Y85.882 F9000
G1 F1200
G1 X24.632 Y85.72 E.01278
G1 X25.227 Y85.641 E.01882
G1 X194.848 Y85.644 E5.31835
G1 X195.646 Y85.805 E.02552
G1 X196.388 Y86.133 E.02544
G1 X197.43 Y87.026 E.04303
G1 X198.063 Y88.01 E.03669
G1 X198.359 Y89.138 E.03657
G1 X198.359 Y130.862 E1.30823
G1 X198.065 Y131.984 E.03637
G1 X197.462 Y132.94 E.03544
G1 X196.514 Y133.782 E.03976
G1 X195.368 Y134.28 E.03918
G1 X194.773 Y134.359 E.01882
G1 X25.138 Y134.359 E5.31879
G1 X24.016 Y134.065 E.03637
G1 X23.06 Y133.462 E.03544
G1 X22.218 Y132.514 E.03976
G1 X21.72 Y131.368 E.03918
G1 X21.641 Y130.773 E.01882
G1 X21.641 Y89.138 E1.30544
G1 X21.935 Y88.016 E.03637
G1 X22.538 Y87.06 E.03544
G1 X23.486 Y86.218 E.03976
G1 X24.203 Y85.906 E.02452
G1 X24.354 Y86.247 F9000
G1 F1200
G1 X24.71 Y86.09 E.0122
G1 X25.24 Y86.018 E.01677
G1 X194.829 Y86.021 E5.31734
G1 X195.548 Y86.17 E.02302
G1 X196.208 Y86.465 E.02267
G1 X197.162 Y87.292 E.03959
G1 X197.706 Y88.137 E.03151
G1 X197.982 Y89.163 E.03331
G1 X197.982 Y130.838 E1.30669
G1 X197.729 Y131.81 E.03149
G1 X197.189 Y132.678 E.03205
G1 X196.333 Y133.45 E.03614
G1 X195.29 Y133.91 E.03574
G1 X194.76 Y133.982 E.01677
G1 X25.162 Y133.982 E5.31763
G1 X24.19 Y133.729 E.03149
G1 X23.322 Y133.189 E.03205
G1 X22.55 Y132.333 E.03614
G1 X22.09 Y131.29 E.03574
G1 X22.018 Y130.76 E.01677
G1 X22.018 Y89.162 E1.30428
G1 X22.271 Y88.19 E.03149
G1 X22.811 Y87.322 E.03205
G1 X23.667 Y86.55 E.03614
G1 X24.299 Y86.271 E.02166
G1 X24.452 Y86.611 F9000
G1 F1200
G1 X24.789 Y86.459 E.01159
G1 X25.253 Y86.395 E.01469
G1 X194.81 Y86.398 E5.31634
G1 X195.413 Y86.523 E.01931
G1 X196.028 Y86.797 E.02111
G1 X196.892 Y87.557 E.03608
G1 X197.372 Y88.314 E.0281
G1 X197.605 Y89.187 E.02833
G1 X197.605 Y130.813 E1.30515
G1 X197.373 Y131.685 E.02829
G1 X196.915 Y132.418 E.0271
G1 X196.15 Y133.119 E.03253
G1 X195.211 Y133.541 E.03228
G1 X194.747 Y133.605 E.01469
G1 X25.187 Y133.605 E5.31643
G1 X24.315 Y133.373 E.02829
G1 X23.582 Y132.915 E.0271
G1 X22.881 Y132.15 E.03253
G1 X22.459 Y131.211 E.03228
G1 X22.395 Y130.747 E.01469
G1 X22.395 Y89.187 E1.30308
G1 X22.627 Y88.315 E.02829
G1 X23.085 Y87.582 E.0271
G1 X23.85 Y86.881 E.03253
G1 X24.397 Y86.636 E.01879
G1 X24.552 Y86.974 F9000
G1 F1200
G1 X24.871 Y86.829 E.01099
G1 X25.267 Y86.772 E.01254
G1 X194.789 Y86.776 E5.31524
G1 X195.314 Y86.887 E.01682
G1 X195.845 Y87.128 E.01828
G1 X196.622 Y87.821 E.03264
G1 X197.016 Y88.441 E.02303
G1 X197.228 Y89.213 E.0251
G1 X197.228 Y130.787 E1.30352
G1 X197.017 Y131.558 E.02506
G1 X196.64 Y132.16 E.02227
G1 X195.964 Y132.789 E.02895
G1 X195.129 Y133.171 E.02879
G1 X194.733 Y133.228 E.01254
G1 X25.213 Y133.228 E5.31518
G1 X24.442 Y133.017 E.02506
G1 X23.84 Y132.64 E.02227
G1 X23.211 Y131.964 E.02895
G1 X22.829 Y131.129 E.02879
G1 X22.772 Y130.733 E.01254
G1 X22.772 Y89.213 E1.30183
G1 X22.983 Y88.442 E.02506
G1 X23.36 Y87.84 E.02227
G1 X24.036 Y87.211 E.02895
G1 X24.497 Y86.999 E.01591
G1 X24.655 Y87.337 F9000
G1 F1200
G1 X24.954 Y87.197 E.01035
G1 X194.768 Y87.153 E5.3244
G1 X195.211 Y87.25 E.01422
G1 X195.659 Y87.458 E.01549
G1 X196.35 Y88.083 E.02921
G1 X196.662 Y88.571 E.01816
G1 X196.851 Y89.24 E.0218
G1 X196.851 Y130.76 E1.30183
G1 X196.662 Y131.429 E.0218
G1 X196.362 Y131.903 E.01759
G1 X195.776 Y132.462 E.02539
G1 X195.046 Y132.803 E.02526
G1 X25.24 Y132.851 E5.32415
G1 X24.571 Y132.662 E.0218
G1 X24.097 Y132.362 E.01759
G1 X23.538 Y131.776 E.02539
G1 X23.197 Y131.046 E.02526
G1 X23.149 Y89.24 E1.3108
G1 X23.338 Y88.571 E.0218
G1 X23.638 Y88.097 E.01759
G1 X24.224 Y87.538 E.02539
G1 X24.601 Y87.362 E.01305
G1 X24.762 Y87.699 F9000
G1 F1200
G1 X25.04 Y87.565 E.00968
G1 X25.296 Y87.526 E.00812
G1 X194.746 Y87.53 E5.31299
G1 X195.105 Y87.613 E.01155
G1 X195.471 Y87.785 E.01268
G1 X196.076 Y88.343 E.02581
G1 X196.308 Y88.705 E.01348
G1 X196.474 Y89.268 E.0184
G1 X196.474 Y130.732 E1.30007
G1 X196.308 Y131.296 E.01843
G1 X196.083 Y131.649 E.01313
G1 X195.583 Y132.136 E.02188
G1 X194.96 Y132.435 E.02167
G1 X194.704 Y132.474 E.00812
G1 X25.268 Y132.474 E5.31255
G1 X24.704 Y132.308 E.01843
G1 X24.351 Y132.083 E.01313
G1 X23.864 Y131.583 E.02188
G1 X23.565 Y130.96 E.02167
G1 X23.526 Y130.704 E.00812
G1 X23.526 Y89.268 E1.2992
G1 X23.692 Y88.704 E.01843
G1 X23.917 Y88.351 E.01313
G1 X24.417 Y87.864 E.02188
G1 X24.708 Y87.725 E.01011
G1 X24.873 Y88.059 F9000
G1 F1200
G1 X25.13 Y87.933 E.00897
G1 X194.724 Y87.907 E5.3175
G1 X195.282 Y88.113 E.01865
G1 X195.801 Y88.601 E.02234
G1 X196.097 Y89.298 E.02374
G1 X196.097 Y130.702 E1.29819
G1 X195.802 Y131.398 E.0237
G1 X195.387 Y131.813 E.0184
G1 X194.87 Y132.067 E.01806
G1 X25.298 Y132.097 E5.31681
G1 X24.602 Y131.802 E.0237
G1 X24.187 Y131.387 E.0184
G1 X23.933 Y130.87 E.01806
G1 X23.903 Y89.298 E1.30346
G1 X24.198 Y88.602 E.0237
G1 X24.613 Y88.187 E.0184
G1 X24.819 Y88.086 E.00719
G1 X24.963 Y88.432 F9000
G1 F1200
G1 X25.329 Y88.28 E.01243
G1 X194.819 Y88.311 E5.31424
G1 X195.092 Y88.44 E.00947
G1 X195.523 Y88.857 E.0188
G1 X195.72 Y89.329 E.01604
G1 X195.72 Y130.671 E1.29625
G1 X195.522 Y131.144 E.01608
G1 X195.143 Y131.524 E.01683
G1 X194.671 Y131.72 E.01602
G1 X25.329 Y131.72 E5.3096
G1 X24.856 Y131.522 E.01608
G1 X24.476 Y131.143 E.01683
G1 X24.28 Y130.671 E.01602
G1 X24.28 Y89.329 E1.29625
G1 X24.478 Y88.856 E.01608
G1 X24.857 Y88.476 E.01683
G1 X24.908 Y88.455 E.00173
G1 X25.1 Y88.767 F9000
G1 F1200
G1 X25.318 Y88.664 E.00756
G1 X194.682 Y88.664 E5.31029
G1 X194.9 Y88.767 E.00756
G1 X195.243 Y89.11 E.01521
G1 X195.343 Y89.364 E.00856
G1 X195.343 Y130.636 E1.29405
G1 X195.243 Y130.89 E.00856
G1 X194.9 Y131.233 E.01521
G1 X194.682 Y131.336 E.00756
G1 X25.364 Y131.343 E5.30885
G1 X25.11 Y131.243 E.00856
G1 X24.767 Y130.9 E.01521
G1 X24.664 Y130.682 E.00756
G1 X24.657 Y89.364 E1.2955
G1 X24.757 Y89.11 E.00856
G1 X25.058 Y88.809 E.01335
G1 X25.345 Y89.096 F9000
G1 F1200
G1 X25.406 Y89.034 E.00273
G1 X194.594 Y89.034 E5.30477
G1 X194.966 Y89.406 E.0165
G1 X194.966 Y130.594 E1.29142
G1 X194.594 Y130.966 E.0165
G1 X25.406 Y130.966 E5.30477
G1 X25.034 Y130.594 E.0165
G1 X25.034 Y89.406 E1.29142
G1 X25.302 Y89.139 E.01186
G1 X25.522 Y89.411 F9000
G1 F1200
G1 X194.478 Y89.411 E5.2975
G1 X194.589 Y89.522 E.00492
G1 X194.589 Y130.478 E1.28415
G1 X194.478 Y130.589 E.00492
G1 X25.522 Y130.589 E5.2975
G1 X25.411 Y130.478 E.00492
G1 X25.411 Y89.522 E1.28415
G1 X25.479 Y89.454 E.00302
; printing object kaima.STL id:0 copy 0
;WIPE_START
G1 F7200
G1 X25.522 Y89.411 E-.01444
G1 X28.83 Y89.411 E-.78556
;WIPE_END
G1 X26.564 Y90.564 F9000
G1 E.8 F1800
;TYPE:Perimeter
;WIDTH:0.419999
G1 F1200
G1 X193.436 Y90.564 E5.23215
G1 X193.436 Y110 E.6094
G1 X193.436 Y129.436 E.6094
G1 X190.261 Y129.436 E.09955
;WIDTH:0.425705
G1 X188.739 Y129.436 E.04844
;WIDTH:0.419999
G1 X145.261 Y129.436 E1.36322
;WIDTH:0.425705
G1 X144.303 Y129.433 E.03049
;WIDTH:0.474987
G1 X143.739 Y129.408 E.02028
G1 X143.527 Y129.422 E.00763
;WIDTH:0.447493
G1 X143.314 Y129.436 E.00718
;WIDTH:0.419999
G1 X76.261 Y129.436 E2.1024
;WIDTH:0.425705
G1 X74.739 Y129.436 E.04844
;WIDTH:0.419999
G1 X31.747 Y129.436 E1.34798
;WIDTH:0.431569
G1 X30.303 Y129.433 E.04666
;WIDTH:0.474987
G1 X29.739 Y129.408 E.02028
G1 X29.527 Y129.422 E.00763
;WIDTH:0.447493
G1 X29.314 Y129.436 E.00718
;WIDTH:0.419999
G1 X26.564 Y129.436 E.08622
G1 X26.564 Y90.624 E1.21692
G1 X26.187 Y90.187 F9000
G1 F1200
G1 X193.813 Y90.187 E5.25579
G1 X193.813 Y110 E.62122
G1 X193.813 Y129.813 E.62122
G1 X26.187 Y129.813 E5.25579
G1 X26.187 Y90.247 E1.24056
G1 X25.81 Y89.81 F9000
;TYPE:External perimeter
G1 F1200
G1 X194.19 Y89.81 E5.27943
G1 X194.19 Y110 E.63304
G1 X194.19 Y130.19 E.63304
G1 X25.81 Y130.19 E5.27943
G1 X25.81 Y89.87 E1.2642
;WIPE_START
G1 F7200
G1 X25.81 Y89.81 E-.01425
G1 X29.118 Y89.81 E-.78575
;WIPE_END
G1 X189.992 Y123.994 F9000
G1 E.8 F1800
;TYPE:Perimeter
G1 F1200
G1 X190.299 Y124.065 E.00988
G1 X191.014 Y124.441 E.02533
G1 X191.265 Y124.652 E.01028
G1 X191.627 Y125.083 E.01765
G1 X191.79 Y125.367 E.01027
G1 X191.983 Y125.896 E.01766
G1 X192.04 Y126.218 E.01025
G1 X192.04 Y126.782 E.01768
G1 X191.983 Y127.104 E.01025
G1 X191.79 Y127.633 E.01766
G1 X191.627 Y127.917 E.01027
G1 X191.265 Y128.348 E.01765
G1 X191.014 Y128.559 E.01028
G1 X190.526 Y128.841 E.01767
G1 X190.218 Y128.952 E.01027
;WIDTH:0.425706
G1 X189.664 Y129.053 E.01792
G1 X189.336 Y129.053 E.01044
G1 X188.782 Y128.952 E.01792
;WIDTH:0.419999
G1 X188.474 Y128.841 E.01027
G1 X187.986 Y128.559 E.01767
G1 X187.735 Y128.348 E.01028
G1 X187.373 Y127.917 E.01765
G1 X187.21 Y127.633 E.01027
G1 X187.017 Y127.104 E.01766
G1 X186.96 Y126.782 E.01025
G1 X186.96 Y126.218 E.01768
G1 X187.017 Y125.896 E.01025
G1 X187.21 Y125.367 E.01766
G1 X187.373 Y125.083 E.01027
G1 X187.735 Y124.652 E.01765
G1 X187.986 Y124.441 E.01028
G1 X188.474 Y124.159 E.01767
G1 X188.78 Y124.048 E.01021
G1 X189.32 Y123.951 E.0172
G1 X189.856 Y123.963 E.01681
G1 X189.934 Y123.981 E.00251
G1 X189.86 Y124.352 F9000
G1 F1200
G1 X189.928 Y124.356 E.00214
G1 X190.338 Y124.486 E.01349
G1 X190.825 Y124.768 E.01764
G1 X190.976 Y124.894 E.00617
G1 X191.338 Y125.325 E.01765
G1 X191.436 Y125.496 E.00618
G1 X191.629 Y126.025 E.01766
G1 X191.663 Y126.218 E.00614
G1 X191.663 Y126.782 E.01768
G1 X191.629 Y126.975 E.00614
G1 X191.436 Y127.504 E.01766
G1 X191.338 Y127.675 E.00618
G1 X190.976 Y128.106 E.01765
G1 X190.825 Y128.232 E.00617
G1 X190.338 Y128.514 E.01764
G1 X190.153 Y128.581 E.00617
G1 X189.598 Y128.679 E.01767
G1 X189.402 Y128.679 E.00615
G1 X188.847 Y128.581 E.01767
G1 X188.662 Y128.514 E.00617
G1 X188.175 Y128.232 E.01764
G1 X188.024 Y128.106 E.00617
G1 X187.662 Y127.675 E.01765
G1 X187.564 Y127.504 E.00618
G1 X187.371 Y126.975 E.01766
G1 X187.337 Y126.782 E.00614
G1 X187.337 Y126.218 E.01768
G1 X187.371 Y126.025 E.00614
G1 X187.564 Y125.496 E.01766
G1 X187.662 Y125.325 E.00618
G1 X188.024 Y124.894 E.01765
G1 X188.175 Y124.768 E.00617
G1 X188.662 Y124.486 E.01764
G1 X188.846 Y124.419 E.00614
G1 X189.387 Y124.322 E.01723
G1 X189.8 Y124.348 E.01297
G1 X189.83 Y124.721 F9000
;TYPE:External perimeter
G1 F1200
G1 X190.149 Y124.813 E.01041
G1 X190.637 Y125.094 E.01766
G1 X191.049 Y125.568 E.01969
G1 X191.274 Y126.154 E.01968
G1 X191.286 Y126.782 E.01969
G1 X191.082 Y127.375 E.01966
G1 X190.687 Y127.864 E.01971
G1 X190.149 Y128.187 E.01968
G1 X189.533 Y128.308 E.01968
G1 X188.913 Y128.21 E.01968
G1 X188.313 Y127.864 E.02172
G1 X187.951 Y127.432 E.01767
G1 X187.726 Y126.846 E.01968
G1 X187.714 Y126.218 E.01969
G1 X187.918 Y125.625 E.01966
G1 X188.313 Y125.136 E.01971
G1 X188.851 Y124.813 E.01968
G1 X189.453 Y124.694 E.01924
G1 X189.77 Y124.716 E.00996
;WIPE_START
G1 F7200
G1 X189.83 Y124.721 E-.0143
G1 X190.149 Y124.813 E-.07885
G1 X190.637 Y125.094 E-.13374
G1 X191.049 Y125.568 E-.14916
G1 X191.274 Y126.154 E-.14908
G1 X191.286 Y126.782 E-.14918
G1 X191.114 Y127.283 E-.12569
;WIPE_END
G1 X144.999 Y123.998 F9000
G1 E.8 F1800
;TYPE:Perimeter
G1 F1200
G1 X145.378 Y124.091 E.01224
G1 X146.014 Y124.441 E.02276
G1 X146.265 Y124.652 E.01028
G1 X146.627 Y125.083 E.01765
G1 X146.79 Y125.367 E.01027
G1 X146.983 Y125.896 E.01766
G1 X147.04 Y126.218 E.01025
G1 X147.04 Y126.782 E.01768
G1 X146.983 Y127.104 E.01025
G1 X146.79 Y127.633 E.01766
G1 X146.627 Y127.917 E.01027
G1 X146.265 Y128.348 E.01765
G1 X146.014 Y128.559 E.01028
G1 X145.526 Y128.841 E.01767
G1 X145.218 Y128.952 E.01027
;WIDTH:0.425707
G1 X144.664 Y129.053 E.01792
G1 X144.336 Y129.053 E.01044
;WIDTH:0.474987
G1 X143.777 Y128.98 E.02025
G1 X143.381 Y128.769 E.01612
;WIDTH:0.447493
G1 X142.986 Y128.559 E.01505
;WIDTH:0.419999
G1 X142.735 Y128.348 E.01028
G1 X142.373 Y127.917 E.01765
G1 X142.21 Y127.633 E.01027
G1 X142.017 Y127.104 E.01766
G1 X141.96 Y126.782 E.01025
G1 X141.96 Y126.218 E.01768
G1 X142.017 Y125.896 E.01025
G1 X142.21 Y125.367 E.01766
G1 X142.373 Y125.083 E.01027
G1 X142.77 Y124.613 E.01929
G1 X142.986 Y124.441 E.00866
G1 X143.474 Y124.159 E.01767
G1 X143.779 Y124.048 E.01018
G1 X144.323 Y123.951 E.01733
G1 X144.856 Y123.963 E.01672
G1 X144.941 Y123.984 E.00275
G1 X144.858 Y124.348 F9000
G1 F1200
G1 X144.903 Y124.35 E.00141
G1 X145.338 Y124.486 E.01429
G1 X145.825 Y124.768 E.01764
G1 X145.976 Y124.894 E.00617
G1 X146.338 Y125.325 E.01765
