; generated by PrusaSlicer 2.7.1+win64 on 2025-04-09 at 15:35:48 UTC

; 

; external perimeters extrusion width = 0.42mm
; perimeters extrusion width = 0.44mm
; infill extrusion width = 0.44mm
; solid infill extrusion width = 0.44mm
; top infill extrusion width = 0.40mm
; first layer extrusion width = 0.42mm

M201 X500 Y500 Z100 E5000 ; sets maximum accelerations, mm/sec^2
M203 X500 Y500 Z10 E60 ; sets maximum feedrates, mm / sec
M204 S500 T1000 ; sets acceleration (S) and retract acceleration (R), mm/sec^2
M205 X8.00 Y8.00 Z0.40 E5.00 ; sets the jerk limits, mm/sec
M205 S0 T0 ; sets the minimum extruding and travel feed rate, mm/sec

; printing object krepejservoprivod.STL id:0 copy 0
; stop printing object krepejservoprivod.STL id:0 copy 0

;TYPE:Custom
G90 ; use absolute coordinates
M83 ; extruder relative mode
M104 S150 ; set temporary nozzle temp to prevent oozing during homing
M140 S60 ; set final bed temp
G4 S30 ; allow partial nozzle warmup
G28 ; home all axis and restore leveling
G1 Z50 F240
G1 X2.0 Y10 F3000
M104 S210 ; set final nozzle temp
M190 S60 ; wait for bed temp to stabilize
M109 S210 ; wait for nozzle temp to stabilize
G1 Z0.28 F240
G92 E0
G1 X2.0 Y140 E10 F1500 ; prime the nozzle
G1 X2.3 Y140 F5000
G92 E0
G1 X2.3 Y10 E10 F1200 ; prime the nozzle
G92 E0
G21 ; set units to millimeters
G90 ; use absolute coordinates
M83 ; use relative distances for extrusion
; Filament gcode
M107
;LAYER_CHANGE
;Z:0.2
;HEIGHT:0.2
;BEFORE_LAYER_CHANGE
G92 E0
;0.2


G1 E-.8 F1800
G1 Z.2 F9000
;AFTER_LAYER_CHANGE
;0.2
G1 X73.641 Y99.212
G1 Z.2
G1 E.8 F1800
M204 S500
;TYPE:Skirt/Brim
;WIDTH:0.42
G1 F1200
G1 X75.039 Y98.371 E.05115
G1 X76.029 Y98.223 E.03139
G1 X143.971 Y98.223 E2.13027
G1 X145.554 Y98.617 E.05115
G1 X146.359 Y99.212 E.03139
G1 X149.288 Y102.141 E.12988
G1 X150.129 Y103.539 E.05115
G1 X150.277 Y104.529 E.03139
G1 X150.277 Y115.471 E.34308
G1 X149.883 Y117.054 E.05115
G1 X149.288 Y117.859 E.03139
G1 X146.359 Y120.788 E.12988
G1 X144.961 Y121.629 E.05115
G1 X143.971 Y121.777 E.03139
G1 X76.029 Y121.777 E2.13027
G1 X74.446 Y121.383 E.05115
G1 X73.641 Y120.788 E.03139
G1 X70.712 Y117.859 E.12988
G1 X69.871 Y116.461 E.05115
G1 X69.723 Y115.471 E.03139
G1 X69.723 Y104.529 E.34308
G1 X70.117 Y102.946 E.05115
G1 X70.712 Y102.141 E.03139
G1 X73.599 Y99.254 E.12801
;WIPE_START
G1 F7200
G1 X73.641 Y99.212 E-.01411
G1 X75.039 Y98.371 E-.38747
G1 X76.029 Y98.223 E-.23774
G1 X76.706 Y98.223 E-.16068
;WIPE_END
G1 X75.763 Y102.511 F9000
G1 E.8 F1800
G1 F1200
G1 X76.061 Y102.313 E.01122
G1 X77.241 Y101.936 E.03884
G1 X142.596 Y101.913 E2.04916
G1 X143.464 Y102.116 E.02795
G1 X144.249 Y102.468 E.02697
G1 X145.452 Y103.48 E.04929
G1 X146.112 Y104.41 E.03576
G1 X146.517 Y105.483 E.03596
G1 X146.614 Y113.898 E.26386
G1 X146.282 Y115.226 E.04292
G1 X145.555 Y116.411 E.04359
G1 X144.951 Y117.015 E.02678
G1 X144.361 Y117.47 E.02336
G1 X142.631 Y118.083 E.05755
G1 X77.59 Y118.113 E2.03932
G1 X76.273 Y117.782 E.04258
G1 X75.089 Y117.055 E.04356
G1 X74.485 Y116.451 E.02678
G1 X74.03 Y115.861 E.02336
G1 X73.427 Y114.191 E.05567
G1 X73.473 Y105.523 E.27178
G1 X73.743 Y104.713 E.02677
G1 X74.159 Y103.959 E.027
G1 X75.036 Y102.994 E.04089
G1 X75.713 Y102.545 E.02547
G1 X75.919 Y102.858 F9000
G1 F1200
G1 X76.246 Y102.643 E.01227
G1 X77.326 Y102.304 E.03549
G1 X142.533 Y102.285 E2.04452
G1 X143.327 Y102.468 E.02555
G1 X144.07 Y102.801 E.02553
G1 X145.189 Y103.751 E.04602
G1 X145.789 Y104.606 E.03275
G1 X146.152 Y105.583 E.03268
G1 X146.237 Y113.877 E.26007
G1 X145.924 Y115.104 E.0397
G1 X145.273 Y116.159 E.03887
G1 X144.155 Y117.153 E.04691
G1 X142.537 Y117.716 E.05371
G1 X77.614 Y117.736 E2.03562
G1 X76.395 Y117.424 E.03945
G1 X75.341 Y116.773 E.03884
G1 X74.348 Y115.656 E.04686
G1 X73.794 Y114.096 E.05191
G1 X73.84 Y105.614 E.26595
G1 X74.095 Y104.849 E.02528
G1 X74.477 Y104.162 E.02465
G1 X75.298 Y103.267 E.03808
G1 X75.869 Y102.891 E.02144
G1 X76.073 Y103.205 F9000
G1 F1200
G1 X76.428 Y102.974 E.01328
G1 X77.409 Y102.673 E.03217
G1 X142.47 Y102.657 E2.03994
G1 X143.19 Y102.82 E.02315
G1 X143.891 Y103.134 E.02408
G1 X144.925 Y104.021 E.04271
G1 X145.444 Y104.76 E.02831
G1 X145.787 Y105.684 E.0309
G1 X145.86 Y113.856 E.25624
G1 X145.587 Y114.932 E.03481
G1 X144.991 Y115.909 E.03588
G1 X143.951 Y116.834 E.04364
G1 X142.445 Y117.349 E.0499
G1 X77.638 Y117.359 E2.03198
G1 X76.567 Y117.087 E.03465
G1 X75.591 Y116.491 E.03586
G1 X74.666 Y115.451 E.04364
G1 X74.16 Y114.002 E.04812
G1 X74.208 Y105.703 E.26021
G1 X74.433 Y105.017 E.02264
G1 X74.796 Y104.365 E.0234
G1 X75.559 Y103.54 E.03523
G1 X76.023 Y103.238 E.01736
G1 X76.226 Y103.548 F9000
G1 F1200
G1 X76.564 Y103.327 E.01266
G1 X77.493 Y103.042 E.03047
G1 X142.408 Y103.03 E2.03536
G1 X143.088 Y103.183 E.02185
G1 X143.709 Y103.465 E.02138
G1 X144.659 Y104.29 E.03945
G1 X145.12 Y104.954 E.02534
G1 X145.422 Y105.782 E.02763
G1 X145.483 Y113.833 E.25244
G1 X145.229 Y114.81 E.03165
G1 X144.709 Y115.658 E.03119
G1 X143.748 Y116.515 E.04037
G1 X142.355 Y116.982 E.04607
G1 X77.662 Y116.982 E2.0284
G1 X76.69 Y116.729 E.03149
G1 X75.842 Y116.209 E.03119
G1 X74.985 Y115.248 E.04037
G1 X74.527 Y113.911 E.04431
G1 X74.575 Y105.793 E.25454
G1 X74.785 Y105.152 E.02115
G1 X75.113 Y104.571 E.02092
G1 X75.818 Y103.814 E.03243
G1 X76.176 Y103.581 E.01339
G1 X76.379 Y103.895 F9000
G1 F1200
G1 X76.745 Y103.658 E.01367
G1 X77.574 Y103.411 E.02712
G1 X142.348 Y103.403 E2.03094
G1 X142.951 Y103.535 E.01935
G1 X143.527 Y103.797 E.01984
G1 X144.392 Y104.557 E.0361
G1 X144.795 Y105.146 E.02238
G1 X145.056 Y105.878 E.02437
G1 X145.105 Y113.81 E.24871
G1 X144.873 Y114.685 E.02838
G1 X144.427 Y115.406 E.02658
G1 X143.545 Y116.196 E.03713
G1 X142.324 Y116.605 E.04037
G1 X77.687 Y116.605 E2.02665
G1 X76.815 Y116.373 E.02829
G1 X76.094 Y115.927 E.02658
G1 X75.304 Y115.045 E.03713
G1 X74.895 Y113.821 E.04046
G1 X74.942 Y105.883 E.24889
G1 X75.138 Y105.288 E.01964
G1 X75.429 Y104.778 E.01841
G1 X76.076 Y104.09 E.02961
G1 X76.328 Y103.928 E.00939
G1 X76.53 Y104.239 F9000
G1 F1200
G1 X76.88 Y104.012 E.01308
G1 X77.656 Y103.78 E.0254
G1 X142.289 Y103.776 E2.02652
G1 X142.814 Y103.887 E.01682
G1 X143.345 Y104.128 E.01828
G1 X144.122 Y104.821 E.03264
G1 X144.467 Y105.335 E.01941
G1 X144.69 Y105.971 E.02113
G1 X144.728 Y113.785 E.24501
G1 X144.517 Y114.558 E.02512
G1 X144.145 Y115.155 E.02206
G1 X143.344 Y115.876 E.03379
G1 X142.294 Y116.228 E.03472
G1 X77.713 Y116.228 E2.02489
G1 X76.942 Y116.017 E.02506
G1 X76.345 Y115.645 E.02206
G1 X75.624 Y114.844 E.03379
G1 X75.272 Y113.792 E.03478
G1 X75.31 Y105.972 E.24519
G1 X75.49 Y105.425 E.01806
G1 X75.743 Y104.987 E.01586
G1 X76.334 Y104.366 E.02688
G1 X76.48 Y104.271 E.00546
G1 X76.684 Y104.582 F9000
G1 F1200
G1 X77.014 Y104.365 E.01238
G1 X77.737 Y104.149 E.02366
G1 X142.268 Y104.153 E2.02332
G1 X142.711 Y104.25 E.01422
G1 X143.159 Y104.458 E.01549
G1 X143.851 Y105.084 E.02926
G1 X144.139 Y105.52 E.01638
G1 X144.323 Y106.063 E.01798
G1 X144.351 Y113.759 E.2413
G1 X144.162 Y114.429 E.02183
G1 X143.864 Y114.903 E.01756
G1 X143.143 Y115.555 E.03048
G1 X142.263 Y115.851 E.02911
G1 X77.74 Y115.851 E2.02307
G1 X77.071 Y115.662 E.0218
G1 X76.597 Y115.364 E.01756
G1 X75.945 Y114.643 E.03048
G1 X75.649 Y113.762 E.02914
G1 X75.677 Y106.062 E.24143
G1 X75.841 Y105.563 E.01647
G1 X76.056 Y105.198 E.01328
G1 X76.591 Y104.643 E.02417
G1 X76.634 Y104.615 E.00161
G1 X76.847 Y104.92 F9000
G1 F1200
G1 X77.153 Y104.717 E.01151
G1 X77.767 Y104.526 E.02016
G1 X142.246 Y104.53 E2.02169
G1 X142.971 Y104.785 E.0241
G1 X143.576 Y105.343 E.02581
G1 X143.808 Y105.703 E.01343
G1 X143.955 Y106.151 E.01478
G1 X143.974 Y113.732 E.2377
G1 X143.808 Y114.296 E.01843
G1 X143.583 Y114.65 E.01315
G1 X142.944 Y115.234 E.02714
G1 X142.232 Y115.474 E.02356
G1 X77.768 Y115.474 E2.02122
G1 X77.204 Y115.308 E.01843
G1 X76.85 Y115.083 E.01315
G1 X76.266 Y114.444 E.02714
G1 X76.026 Y113.732 E.02356
G1 X76.045 Y106.151 E.2377
G1 X76.367 Y105.413 E.02525
G1 X76.805 Y104.963 E.01969
G1 X77.073 Y105.228 F9000
G1 F1200
G1 X77.102 Y105.198 E.00131
G1 X77.798 Y104.903 E.0237
G1 X142.224 Y104.907 E2.02003
G1 X142.782 Y105.113 E.01865
G1 X143.301 Y105.601 E.02234
G1 X143.587 Y106.24 E.02195
G1 X143.597 Y113.702 E.23397
G1 X143.456 Y114.158 E.01497
G1 X142.896 Y114.804 E.02681
G1 X142.201 Y115.097 E.02365
G1 X77.798 Y115.097 E2.01931
G1 X77.342 Y114.956 E.01497
G1 X76.696 Y114.396 E.02681
G1 X76.403 Y113.701 E.02365
G1 X76.413 Y106.24 E.23393
G1 X76.675 Y105.631 E.02079
G1 X77.031 Y105.271 E.01587
G1 X77.297 Y105.537 F9000
G1 F1200
G1 X77.358 Y105.475 E.00273
G1 X77.831 Y105.28 E.01604
G1 X142.202 Y105.284 E2.01831
G1 X142.592 Y105.44 E.01317
G1 X143.023 Y105.857 E.0188
G1 X143.22 Y106.329 E.01604
G1 X143.22 Y113.671 E.2302
G1 X143.022 Y114.144 E.01608
G1 X142.642 Y114.525 E.01687
G1 X142.169 Y114.72 E.01604
G1 X77.829 Y114.72 E2.01734
G1 X77.356 Y114.522 E.01608
G1 X76.975 Y114.142 E.01687
G1 X76.78 Y113.669 E.01604
G1 X76.78 Y106.329 E.23014
G1 X76.978 Y105.856 E.01608
G1 X77.254 Y105.579 E.01226
G1 X77.521 Y105.846 F9000
G1 F1200
G1 X77.61 Y105.757 E.00395
G1 X77.864 Y105.657 E.00856
G1 X142.182 Y105.664 E2.01665
G1 X142.4 Y105.767 E.00756
G1 X142.743 Y106.11 E.01521
G1 X142.843 Y106.364 E.00856
G1 X142.843 Y113.636 E.22801
G1 X142.743 Y113.89 E.00856
G1 X142.39 Y114.243 E.01565
G1 X142.136 Y114.343 E.00856
G1 X77.864 Y114.343 E2.0152
G1 X77.61 Y114.243 E.00856
G1 X77.257 Y113.89 E.01565
G1 X77.157 Y113.636 E.00856
G1 X77.157 Y106.364 E.22801
G1 X77.257 Y106.11 E.00856
G1 X77.479 Y105.888 E.00984
G1 X77.766 Y106.175 F9000
G1 F1200
G1 X77.906 Y106.034 E.00623
G1 X142.094 Y106.034 E2.01257
G1 X142.466 Y106.406 E.0165
G1 X142.466 Y113.594 E.22537
G1 X142.094 Y113.966 E.0165
G1 X77.906 Y113.966 E2.01257
G1 X77.534 Y113.594 E.0165
G1 X77.534 Y106.406 E.22537
G1 X77.723 Y106.218 E.00836
G1 X77.969 Y106.464 F9000
G1 F1200
G1 X78.022 Y106.411 E.00235
G1 X141.978 Y106.411 E2.0053
G1 X142.089 Y106.522 E.00492
G1 X142.089 Y113.478 E.2181
G1 X141.978 Y113.589 E.00492
G1 X78.022 Y113.589 E2.0053
G1 X77.911 Y113.478 E.00492
G1 X77.911 Y106.522 E.2181
G1 X77.927 Y106.506 E.00071
; printing object krepejservoprivod.STL id:0 copy 0
;WIPE_START
G1 F7200
G1 X77.969 Y106.464 E-.01411
G1 X78.022 Y106.411 E-.0178
G1 X81.256 Y106.411 E-.76809
;WIPE_END
G1 X139.718 Y107.655 F9000
G1 E.8 F1800
;TYPE:Perimeter
;WIDTH:0.601644
G1 F1200
G1 X140.845 Y107.655 E.05236
G1 X140.845 Y107.934 E.01296
G1 X140.845 Y108.8 E.04023
G1 X140.638 Y108.441 E.01925
G1 X140.407 Y108.166 E.01669
G1 X139.975 Y107.804 E.02618
G1 X139.77 Y107.685 E.01101
;WIPE_START
G1 F7200
G1 X139.718 Y107.655 E-.01426
G1 X140.845 Y107.655 E-.26766
G1 X140.845 Y107.934 E-.06626
G1 X140.845 Y108.8 E-.20567
G1 X140.638 Y108.441 E-.09842
G1 X140.407 Y108.166 E-.0853
G1 X140.206 Y107.997 E-.06243
;WIPE_END
G1 X137.735 Y107.564 F9000
G1 E.8 F1800
;WIDTH:0.419999
G1 F1200
G1 X137.474 Y107.659 E.00871
G1 X136.986 Y107.941 E.01767
G1 X136.735 Y108.152 E.01028
G1 X136.373 Y108.583 E.01765
G1 X136.21 Y108.867 E.01027
G1 X135.964 Y109.636 E.02532
G1 X135.95 Y110.164 E.01656
G1 X136.048 Y110.718 E.01764
G1 X136.159 Y111.026 E.01027
G1 X136.441 Y111.514 E.01767
G1 X136.652 Y111.765 E.01028
G1 X137.083 Y112.127 E.01765
G1 X137.367 Y112.29 E.01027
G1 X137.766 Y112.436 E.01332
G1 X82.264 Y112.436 E1.74022
G1 X82.526 Y112.341 E.00874
G1 X83.014 Y112.059 E.01767
G1 X83.265 Y111.848 E.01028
G1 X83.627 Y111.417 E.01765
G1 X83.79 Y111.133 E.01027
G1 X83.983 Y110.604 E.01766
G1 X84.04 Y110.282 E.01025
G1 X84.04 Y109.718 E.01768
G1 X83.983 Y109.396 E.01025
G1 X83.79 Y108.867 E.01766
G1 X83.627 Y108.583 E.01027
G1 X83.265 Y108.152 E.01765
G1 X83.014 Y107.941 E.01028
G1 X82.299 Y107.565 E.02533
G1 X137.675 Y107.564 E1.73627
;WIPE_START
G1 F7200
G1 X137.735 Y107.564 E-.01425
G1 X137.474 Y107.659 E-.06597
G1 X136.986 Y107.941 E-.13386
G1 X136.735 Y108.152 E-.07788
G1 X136.373 Y108.583 E-.13368
G1 X136.21 Y108.867 E-.07777
G1 X135.964 Y109.636 E-.19175
G1 X135.952 Y110.077 E-.10484
;WIPE_END
G1 X140.845 Y111.2 F9000
G1 E.8 F1800
;WIDTH:0.601648
G1 F1200
G1 X140.845 Y112.345 E.05319
G1 X139.718 Y112.345 E.05236
G1 X139.975 Y112.196 E.0138
G1 X140.386 Y111.852 E.0249
G1 X140.638 Y111.559 E.01795
G1 X140.815 Y111.252 E.01646
;WIPE_START
G1 F7200
G1 X140.845 Y111.2 E-.01426
G1 X140.845 Y112.345 E-.27194
G1 X139.718 Y112.345 E-.26766
G1 X139.975 Y112.196 E-.07055
G1 X140.386 Y111.852 E-.12729
G1 X140.518 Y111.698 E-.0483
;WIPE_END
G1 X139.599 Y111.875 F9000
G1 E.8 F1800
;WIDTH:0.462892
G1 F1200
G1 X139.332 Y112.004 E.01036
;WIDTH:0.505785
G1 X138.99 Y112.169 E.01461
;WIDTH:0.534502
G1 X138.941 Y112.197 E.00231
;WIDTH:0.563219
G1 X138.892 Y112.225 E.00244
G1 X138.218 Y112.231 E.02916
;WIDTH:0.556469
G1 X137.977 Y112.133 E.01111
;WIDTH:0.510979
G1 X137.737 Y112.034 E.0101
;WIDTH:0.465489
G1 X137.496 Y111.936 E.00914
;WIDTH:0.419999
G1 X137.325 Y111.838 E.00618
G1 X136.894 Y111.476 E.01765
G1 X136.768 Y111.325 E.00617
G1 X136.486 Y110.838 E.01764
G1 X136.419 Y110.653 E.00617
G1 X136.321 Y110.098 E.01767
G1 X136.339 Y109.669 E.01346
G1 X136.564 Y108.996 E.02225
G1 X136.662 Y108.825 E.00618
G1 X137.024 Y108.394 E.01765
G1 X137.175 Y108.268 E.00617
G1 X137.662 Y107.986 E.01764
;WIDTH:0.463499
G1 X137.899 Y107.91 E.0087
;WIDTH:0.506999
G1 X138.135 Y107.834 E.00957
;WIDTH:0.550498
G1 X138.371 Y107.759 E.01045
;WIDTH:0.557776
G1 X138.83 Y107.77 E.01966
G1 X139.055 Y107.868 E.01051
;WIDTH:0.511851
G1 X139.28 Y107.966 E.00957
;WIDTH:0.465925
G1 X139.504 Y108.064 E.0086
;WIDTH:0.419999
G1 X139.675 Y108.162 E.00618
G1 X140.106 Y108.524 E.01765
G1 X140.232 Y108.675 E.00617
G1 X140.514 Y109.162 E.01764
;WIDTH:0.463624
G1 X140.59 Y109.405 E.00891
;WIDTH:0.507248
G1 X140.667 Y109.648 E.00984
;WIDTH:0.550872
G1 X140.743 Y109.89 E.01071
G1 X140.743 Y110.11 E.00929
;WIDTH:0.550546
G1 X140.689 Y110.291 E.00797
;WIDTH:0.507031
G1 X140.635 Y110.472 E.00729
;WIDTH:0.463515
G1 X140.581 Y110.653 E.00661
;WIDTH:0.419999
G1 X140.514 Y110.838 E.00617
G1 X140.232 Y111.325 E.01764
G1 X140.085 Y111.493 E.007
G1 X139.675 Y111.838 E.0168
;WIDTH:0.462892
G1 X139.653 Y111.848 E.00084
G1 X139.432 Y111.549 F9000
;TYPE:External perimeter
;WIDTH:0.419999
G1 F1200
G1 X138.846 Y111.774 E.01968
G1 X138.218 Y111.786 E.01969
G1 X137.625 Y111.582 E.01966
G1 X137.136 Y111.187 E.01971
G1 X136.79 Y110.587 E.02172
G1 X136.692 Y110.033 E.01764
G1 X136.726 Y109.654 E.01193
G1 X136.918 Y109.125 E.01765
G1 X137.313 Y108.636 E.01971
G1 X137.851 Y108.313 E.01968
G1 X138.449 Y108.194 E.01912
G1 X138.846 Y108.226 E.01249
G1 X139.375 Y108.418 E.01765
G1 X139.843 Y108.796 E.01886
G1 X140.187 Y109.351 E.02047
G1 X140.308 Y109.967 E.01968
G1 X140.21 Y110.587 E.01968
G1 X139.906 Y111.137 E.0197
G1 X139.477 Y111.51 E.01782
;WIPE_START
G1 F7200
G1 X139.432 Y111.549 E-.01414
G1 X138.846 Y111.774 E-.14908
G1 X138.218 Y111.786 E-.14918
G1 X137.625 Y111.582 E-.14894
G1 X137.136 Y111.187 E-.14929
G1 X136.79 Y110.587 E-.1645
G1 X136.772 Y110.484 E-.02487
;WIPE_END
G1 X80.3 Y107.655 F9000
G1 E.8 F1800
;TYPE:Perimeter
;WIDTH:0.601643
G1 F1200
G1 X79.941 Y107.862 E.01925
G1 X79.666 Y108.093 E.01669
G1 X79.304 Y108.525 E.02618
G1 X79.155 Y108.782 E.0138
G1 X79.155 Y107.655 E.05236
G1 X80.24 Y107.655 E.05041
;WIPE_START
G1 F7200
G1 X80.3 Y107.655 E-.01425
G1 X79.941 Y107.862 E-.09842
G1 X79.666 Y108.093 E-.0853
G1 X79.304 Y108.525 E-.13386
G1 X79.155 Y108.782 E-.07055
G1 X79.155 Y107.655 E-.26766
G1 X79.702 Y107.655 E-.12996
;WIPE_END
G1 X79.155 Y111.218 F9000
G1 E.8 F1800
G1 F1200
G1 X79.304 Y111.475 E.0138
G1 X79.648 Y111.886 E.0249
G1 X79.941 Y112.138 E.01795
G1 X80.3 Y112.345 E.01925
G1 X79.155 Y112.345 E.05319
G1 X79.155 Y111.278 E.04957
;WIPE_START
G1 F7200
G1 X79.155 Y111.218 E-.01425
G1 X79.304 Y111.475 E-.07055
G1 X79.648 Y111.886 E-.12729
G1 X79.941 Y112.138 E-.09178
G1 X80.3 Y112.345 E-.09842
G1 X79.155 Y112.345 E-.27194
G1 X79.155 Y111.815 E-.12577
;WIPE_END
G1 X81.858 Y107.779 F9000
G1 E.8 F1800
;WIDTH:0.571891
G1 F1200
G1 X81.948 Y107.783 E.00396
G1 X82.167 Y107.904 E.011
;WIDTH:0.533918
G1 X82.386 Y108.025 E.01021
;WIDTH:0.495945
G1 X82.606 Y108.147 E.00948
