; generated by PrusaSlicer 2.7.1+win64 on 2025-04-04 at 14:12:41 UTC

; 

; external perimeters extrusion width = 0.42mm
; perimeters extrusion width = 0.44mm
; infill extrusion width = 0.44mm
; solid infill extrusion width = 0.44mm
; top infill extrusion width = 0.40mm
; first layer extrusion width = 0.42mm

M201 X500 Y500 Z100 E5000 ; sets maximum accelerations, mm/sec^2
M203 X500 Y500 Z10 E60 ; sets maximum feedrates, mm / sec
M204 S500 T1000 ; sets acceleration (S) and retract acceleration (R), mm/sec^2
M205 X8.00 Y8.00 Z0.40 E5.00 ; sets the jerk limits, mm/sec
M205 S0 T0 ; sets the minimum extruding and travel feed rate, mm/sec

; printing object krepejpodshipkoleso.STL id:0 copy 0
; stop printing object krepejpodshipkoleso.STL id:0 copy 0

;TYPE:Custom
G90 ; use absolute coordinates
M83 ; extruder relative mode
M104 S150 ; set temporary nozzle temp to prevent oozing during homing
M140 S60 ; set final bed temp
G4 S30 ; allow partial nozzle warmup
G28 ; home all axis and restore leveling
G1 Z50 F240
G1 X2.0 Y10 F3000
M104 S210 ; set final nozzle temp
M190 S60 ; wait for bed temp to stabilize
M109 S210 ; wait for nozzle temp to stabilize
G1 Z0.28 F240
G92 E0
G1 X2.0 Y140 E10 F1500 ; prime the nozzle
G1 X2.3 Y140 F5000
G92 E0
G1 X2.3 Y10 E10 F1200 ; prime the nozzle
G92 E0
G21 ; set units to millimeters
G90 ; use absolute coordinates
M83 ; use relative distances for extrusion
; Filament gcode
M107
;LAYER_CHANGE
;Z:0.2
;HEIGHT:0.2
;BEFORE_LAYER_CHANGE
G92 E0
;0.2


G1 E-.8 F1800
G1 Z.2 F9000
;AFTER_LAYER_CHANGE
;0.2
G1 X104.206 Y104.668
G1 Z.2
G1 E.8 F1800
M204 S500
;TYPE:Skirt/Brim
;WIDTH:0.42
G1 F900
G1 X105.22 Y103.743 E.04303
G1 X106.379 Y103.008 E.04303
G1 X107.644 Y102.487 E.0429
G1 X108.275 Y102.318 E.02048
G1 X109.631 Y102.135 E.0429
G1 X111.002 Y102.191 E.04302
G1 X112.348 Y102.485 E.0432
G1 X113.617 Y103.006 E.04301
G1 X114.778 Y103.742 E.0431
G1 X115.332 Y104.206 E.02266
G1 X116.257 Y105.22 E.04303
G1 X116.992 Y106.379 E.04303
G1 X117.513 Y107.644 E.0429
G1 X117.683 Y108.277 E.02055
G1 X117.866 Y109.64 E.04312
G1 X117.809 Y111.011 E.04302
G1 X117.683 Y111.72 E.02258
G1 X117.27 Y113.024 E.04289
G1 X116.632 Y114.245 E.04319
G1 X115.794 Y115.332 E.04303
G1 X114.78 Y116.257 E.04303
G1 X113.621 Y116.992 E.04303
G1 X112.356 Y117.513 E.0429
G1 X111.723 Y117.683 E.02055
G1 X110.36 Y117.866 E.04312
G1 X108.989 Y117.809 E.04302
G1 X108.28 Y117.683 E.02258
G1 X106.976 Y117.27 E.04289
G1 X105.759 Y116.634 E.04305
G1 X104.668 Y115.794 E.04317
G1 X103.743 Y114.78 E.04303
G1 X103.008 Y113.621 E.04303
G1 X102.487 Y112.356 E.0429
G1 X102.318 Y111.725 E.02048
G1 X102.135 Y110.362 E.04312
G1 X102.191 Y108.991 E.04302
G1 X102.485 Y107.652 E.04298
G1 X102.73 Y106.976 E.02254
G1 X103.366 Y105.759 E.04305
G1 X104.17 Y104.716 E.04129
G1 X104.466 Y104.943 F9000
G1 F900
G1 X104.473 Y104.935 E.00033
G1 X105.436 Y104.052 E.04097
G1 X106.538 Y103.35 E.04097
G1 X107.742 Y102.851 E.04086
G1 X108.373 Y102.682 E.02048
G1 X109.665 Y102.511 E.04086
G1 X110.97 Y102.566 E.04095
G1 X112.25 Y102.849 E.0411
G1 X113.458 Y103.348 E.04098
G1 X114.562 Y104.051 E.04104
G1 X115.065 Y104.473 E.02059
G1 X115.948 Y105.436 E.04097
G1 X116.65 Y106.538 E.04097
G1 X117.149 Y107.742 E.04086
G1 X117.319 Y108.375 E.02055
G1 X117.49 Y109.673 E.04105
G1 X117.433 Y110.978 E.04096
G1 X117.319 Y111.623 E.02054
G1 X116.928 Y112.865 E.04083
G1 X116.323 Y114.028 E.0411
G1 X115.527 Y115.065 E.04099
G1 X114.564 Y115.948 E.04097
G1 X113.462 Y116.65 E.04097
G1 X112.258 Y117.149 E.04086
G1 X111.625 Y117.319 E.02055
G1 X110.327 Y117.49 E.04105
G1 X109.022 Y117.433 E.04096
G1 X108.377 Y117.319 E.02054
G1 X107.135 Y116.928 E.04083
G1 X105.975 Y116.325 E.04099
G1 X104.935 Y115.527 E.0411
G1 X104.052 Y114.564 E.04097
G1 X103.35 Y113.462 E.04097
G1 X102.851 Y112.258 E.04086
G1 X102.682 Y111.627 E.02048
G1 X102.51 Y110.329 E.04105
G1 X102.567 Y109.024 E.04096
G1 X102.849 Y107.75 E.04091
G1 X103.072 Y107.135 E.02051
G1 X103.675 Y105.975 E.04099
G1 X104.43 Y104.991 E.03889
G1 X104.727 Y105.218 F9000
G1 F900
G1 X104.739 Y105.202 E.00063
G1 X105.653 Y104.361 E.03894
G1 X106.698 Y103.692 E.0389
G1 X107.84 Y103.216 E.03879
G1 X108.471 Y103.046 E.02049
G1 X109.698 Y102.886 E.0388
G1 X110.938 Y102.942 E.03892
G1 X112.153 Y103.213 E.03903
G1 X113.299 Y103.69 E.03892
G1 X114.346 Y104.36 E.03897
G1 X114.798 Y104.739 E.01849
G1 X115.639 Y105.653 E.03894
G1 X116.308 Y106.698 E.0389
G1 X116.784 Y107.84 E.03879
G1 X116.955 Y108.473 E.02056
G1 X117.114 Y109.706 E.03898
G1 X117.057 Y110.946 E.03892
G1 X116.955 Y111.525 E.01843
G1 X116.586 Y112.706 E.03879
G1 X116.014 Y113.812 E.03904
G1 X115.261 Y114.798 E.0389
G1 X114.347 Y115.639 E.03894
G1 X113.302 Y116.308 E.0389
G1 X112.16 Y116.784 E.03879
G1 X111.527 Y116.955 E.02056
G1 X110.294 Y117.114 E.03898
G1 X109.054 Y117.057 E.03892
G1 X108.475 Y116.955 E.01843
G1 X107.294 Y116.586 E.03879
G1 X106.191 Y116.016 E.03893
G1 X105.202 Y115.261 E.03901
G1 X104.361 Y114.347 E.03894
G1 X103.692 Y113.302 E.0389
G1 X103.216 Y112.16 E.03879
G1 X103.046 Y111.529 E.02049
G1 X102.886 Y110.296 E.03898
G1 X102.943 Y109.057 E.03889
G1 X103.213 Y107.847 E.03887
G1 X103.414 Y107.294 E.01845
G1 X103.984 Y106.191 E.03893
G1 X104.691 Y105.266 E.0365
; printing object krepejpodshipkoleso.STL id:0 copy 0
;WIPE_START
G1 F7200
G1 X104.727 Y105.218 E-.01425
G1 X104.739 Y105.202 E-.00475
G1 X105.653 Y104.361 E-.29499
G1 X106.698 Y103.692 E-.29469
G1 X107.441 Y103.382 E-.19132
;WIPE_END
G1 X107.961 Y108.289 F9000
G1 E.8 F1800
;TYPE:Perimeter
;WIDTH:0.419999
G1 F900
G1 X108.111 Y108.111 E.0073
G1 X108.468 Y107.812 E.0146
G1 X108.871 Y107.579 E.0146
G1 X109.309 Y107.419 E.01462
G1 X109.767 Y107.339 E.01458
G1 X110.233 Y107.339 E.01461
G1 X110.691 Y107.419 E.01458
G1 X111.129 Y107.579 E.01462
G1 X111.532 Y107.812 E.0146
G1 X111.889 Y108.111 E.0146
G1 X112.188 Y108.468 E.0146
G1 X112.421 Y108.871 E.0146
G1 X112.581 Y109.309 E.01462
G1 X112.661 Y109.767 E.01458
G1 X112.661 Y110.233 E.01461
G1 X112.581 Y110.691 E.01458
G1 X112.421 Y111.129 E.01462
G1 X112.188 Y111.532 E.0146
G1 X111.889 Y111.889 E.0146
G1 X111.532 Y112.188 E.0146
G1 X111.129 Y112.421 E.0146
G1 X110.691 Y112.581 E.01462
G1 X110.233 Y112.661 E.01458
G1 X109.767 Y112.661 E.01461
G1 X109.309 Y112.581 E.01458
G1 X108.871 Y112.421 E.01462
G1 X108.468 Y112.188 E.0146
G1 X108.111 Y111.889 E.0146
G1 X107.812 Y111.532 E.0146
G1 X107.579 Y111.129 E.0146
G1 X107.419 Y110.691 E.01462
G1 X107.339 Y110.233 E.01458
G1 X107.339 Y109.767 E.01461
G1 X107.419 Y109.309 E.01458
G1 X107.579 Y108.871 E.01462
G1 X107.812 Y108.468 E.0146
G1 X107.923 Y108.335 E.00543
G1 X107.673 Y108.048 F9000
G1 F900
G1 X107.844 Y107.844 E.00835
G1 X108.251 Y107.503 E.01665
G1 X108.712 Y107.237 E.01669
G1 X109.211 Y107.055 E.01665
G1 X109.734 Y106.963 E.01665
G1 X110.266 Y106.963 E.01668
G1 X110.789 Y107.055 E.01665
G1 X111.288 Y107.237 E.01665
G1 X111.749 Y107.503 E.01669
G1 X112.156 Y107.844 E.01665
G1 X112.497 Y108.251 E.01665
G1 X112.763 Y108.712 E.01669
G1 X112.945 Y109.211 E.01665
G1 X113.037 Y109.734 E.01665
G1 X113.037 Y110.266 E.01668
G1 X112.945 Y110.789 E.01665
G1 X112.763 Y111.288 E.01665
G1 X112.497 Y111.749 E.01669
G1 X112.156 Y112.156 E.01665
G1 X111.749 Y112.497 E.01665
G1 X111.288 Y112.763 E.01669
G1 X110.789 Y112.945 E.01665
G1 X110.266 Y113.037 E.01665
G1 X109.734 Y113.037 E.01668
G1 X109.211 Y112.945 E.01665
G1 X108.712 Y112.763 E.01665
G1 X108.251 Y112.497 E.01669
G1 X107.844 Y112.156 E.01665
G1 X107.503 Y111.749 E.01665
G1 X107.237 Y111.288 E.01669
G1 X107.055 Y110.789 E.01665
G1 X106.963 Y110.266 E.01665
G1 X106.963 Y109.734 E.01668
G1 X107.055 Y109.211 E.01665
G1 X107.237 Y108.712 E.01665
G1 X107.503 Y108.251 E.01669
G1 X107.635 Y108.094 E.00643
G1 X107.366 Y107.79 F9000
;TYPE:External perimeter
G1 F900
G1 X107.79 Y107.366 E.0188
G1 X108.281 Y107.022 E.0188
G1 X108.824 Y106.769 E.01878
G1 X109.403 Y106.613 E.0188
G1 X110 Y106.561 E.01879
G1 X110.597 Y106.613 E.01879
G1 X111.176 Y106.769 E.0188
G1 X111.719 Y107.022 E.01878
G1 X112.21 Y107.366 E.0188
G1 X112.634 Y107.79 E.0188
G1 X112.978 Y108.281 E.0188
G1 X113.231 Y108.824 E.01878
G1 X113.387 Y109.403 E.0188
G1 X113.439 Y110 E.01879
G1 X113.413 Y110.299 E.00941
G1 X113.387 Y110.597 E.00938
G1 X113.231 Y111.176 E.0188
G1 X112.978 Y111.719 E.01878
G1 X112.634 Y112.21 E.0188
G1 X112.21 Y112.634 E.0188
G1 X111.719 Y112.978 E.0188
G1 X111.176 Y113.231 E.01878
G1 X110.597 Y113.387 E.0188
G1 X110 Y113.439 E.01879
G1 X109.403 Y113.387 E.01879
G1 X108.824 Y113.231 E.0188
G1 X108.281 Y112.978 E.01878
G1 X107.79 Y112.634 E.0188
G1 X107.366 Y112.21 E.0188
G1 X107.022 Y111.719 E.0188
G1 X106.769 Y111.176 E.01878
G1 X106.613 Y110.597 E.0188
G1 X106.561 Y110 E.01879
G1 X106.613 Y109.403 E.01879
G1 X106.769 Y108.824 E.0188
G1 X107.022 Y108.281 E.01878
G1 X107.331 Y107.839 E.01691
;WIPE_START
G1 F7200
G1 X107.366 Y107.79 E-.0143
G1 X107.79 Y107.366 E-.14241
G1 X108.281 Y107.022 E-.14238
G1 X108.824 Y106.769 E-.14227
G1 X109.403 Y106.613 E-.14242
G1 X110 Y106.561 E-.14232
G1 X110.31 Y106.588 E-.0739
;WIPE_END
G1 X112.343 Y108.988 F9000
G1 E.8 F1800
;TYPE:Solid infill
;WIDTH:0.438267
G1 F900
G1 X111.493 Y108.139 E.03949
G1 X111.195 Y107.93 E.01197
G1 X110.818 Y107.754 E.01368
G1 X110.451 Y107.656 E.01249
G1 X112.344 Y109.549 E.08801
G1 X112.39 Y110 E.0149
G1 X112.378 Y110.142 E.00468
G1 X109.858 Y107.622 E.11715
G1 X109.585 Y107.646 E.00901
G1 X109.379 Y107.701 E.00701
G1 X112.299 Y110.621 E.13575
G1 X112.246 Y110.818 E.00671
G1 X112.147 Y111.029 E.00766
G1 X108.971 Y107.853 E.14765
G1 X108.805 Y107.93 E.00602
G1 X108.619 Y108.06 E.00746
G1 X111.94 Y111.381 E.15439
G1 X111.831 Y111.536 E.00623
G1 X111.684 Y111.684 E.00686
G1 X108.316 Y108.316 E.15658
G1 X108.169 Y108.464 E.00686
G1 X108.06 Y108.619 E.00623
G1 X111.381 Y111.94 E.15439
G1 X111.195 Y112.07 E.00746
G1 X111.029 Y112.147 E.00602
G1 X107.853 Y108.971 E.14765
G1 X107.754 Y109.182 E.00766
G1 X107.701 Y109.379 E.00671
G1 X110.621 Y112.299 E.13575
G1 X110.415 Y112.354 E.00701
G1 X110.141 Y112.378 E.00904
G1 X107.622 Y109.859 E.11711
G1 X107.61 Y110 E.00465
G1 X107.656 Y110.451 E.0149
G1 X109.549 Y112.344 E.08801
G1 X109.182 Y112.246 E.01249
G1 X108.805 Y112.07 E.01368
G1 X108.506 Y111.861 E.01199
G1 X107.657 Y111.012 E.03947
; stop printing object krepejpodshipkoleso.STL id:0 copy 0
M106 S255
;LAYER_CHANGE
;Z:0.4
;HEIGHT:0.2
;BEFORE_LAYER_CHANGE
G92 E0
;0.4


;WIPE_START
G1 F7200
G1 X108.506 Y111.861 E-.28516
G1 X108.805 Y112.07 E-.08664
G1 X109.182 Y112.246 E-.09881
G1 X109.549 Y112.344 E-.09022
G1 X108.837 Y111.632 E-.23917
;WIPE_END
G1 Z.4 F9000
;AFTER_LAYER_CHANGE
;0.4
M104 S205 ; set temperature
G1 X105.273 Y116.26
G1 E.8 F1800
;TYPE:Skirt/Brim
;WIDTH:0.42
G1 F900
G1 X104.668 Y115.794 E.02394
G1 X103.743 Y114.78 E.04303
G1 X103.008 Y113.621 E.04303
G1 X102.487 Y112.356 E.0429
G1 X102.318 Y111.725 E.02048
G1 X102.135 Y110.362 E.04312
G1 X102.191 Y108.991 E.04302
G1 X102.485 Y107.652 E.04298
G1 X102.73 Y106.976 E.02254
G1 X103.366 Y105.759 E.04305
G1 X104.206 Y104.668 E.04317
G1 X105.22 Y103.743 E.04303
G1 X106.379 Y103.008 E.04303
G1 X107.644 Y102.487 E.0429
G1 X108.275 Y102.318 E.02048
G1 X109.631 Y102.135 E.0429
G1 X111.002 Y102.191 E.04302
G1 X112.348 Y102.485 E.0432
G1 X113.617 Y103.006 E.04301
G1 X114.778 Y103.742 E.0431
G1 X115.332 Y104.206 E.02266
G1 X116.257 Y105.22 E.04303
G1 X116.992 Y106.379 E.04303
G1 X117.513 Y107.644 E.0429
G1 X117.683 Y108.277 E.02055
G1 X117.866 Y109.64 E.04312
G1 X117.809 Y111.011 E.04302
G1 X117.683 Y111.72 E.02258
G1 X117.27 Y113.024 E.04289
G1 X116.632 Y114.245 E.04319
G1 X115.794 Y115.332 E.04303
G1 X114.78 Y116.257 E.04303
G1 X113.621 Y116.992 E.04303
G1 X112.356 Y117.513 E.0429
G1 X111.723 Y117.683 E.02055
G1 X110.36 Y117.866 E.04312
G1 X108.989 Y117.809 E.04302
G1 X108.28 Y117.683 E.02258
G1 X106.976 Y117.27 E.04289
G1 X105.759 Y116.634 E.04305
G1 X105.321 Y116.296 E.01735
G1 X105.549 Y115.998 F9000
G1 F900
G1 X104.935 Y115.527 E.02426
G1 X104.052 Y114.564 E.04097
G1 X103.35 Y113.462 E.04097
G1 X102.851 Y112.258 E.04086
G1 X102.682 Y111.627 E.02048
G1 X102.51 Y110.329 E.04105
G1 X102.567 Y109.024 E.04096
G1 X102.849 Y107.75 E.04091
G1 X103.072 Y107.135 E.02051
G1 X103.675 Y105.975 E.04099
G1 X104.473 Y104.935 E.0411
G1 X105.436 Y104.052 E.04097
G1 X106.538 Y103.35 E.04097
G1 X107.742 Y102.851 E.04086
G1 X108.373 Y102.682 E.02048
G1 X109.665 Y102.511 E.04086
G1 X110.97 Y102.566 E.04095
G1 X112.25 Y102.849 E.0411
G1 X113.458 Y103.348 E.04098
G1 X114.562 Y104.051 E.04104
G1 X115.065 Y104.473 E.02059
G1 X115.948 Y105.436 E.04097
G1 X116.65 Y106.538 E.04097
G1 X117.149 Y107.742 E.04086
G1 X117.319 Y108.375 E.02055
G1 X117.49 Y109.673 E.04105
G1 X117.433 Y110.978 E.04096
G1 X117.319 Y111.623 E.02054
G1 X116.928 Y112.865 E.04083
G1 X116.323 Y114.028 E.0411
G1 X115.527 Y115.065 E.04099
G1 X114.564 Y115.948 E.04097
G1 X113.462 Y116.65 E.04097
G1 X112.258 Y117.149 E.04086
G1 X111.625 Y117.319 E.02055
G1 X110.327 Y117.49 E.04105
G1 X109.022 Y117.433 E.04096
G1 X108.377 Y117.319 E.02054
G1 X107.135 Y116.928 E.04083
G1 X105.975 Y116.325 E.04099
G1 X105.597 Y116.035 E.01494
G1 X105.825 Y115.736 F9000
G1 F900
G1 X105.202 Y115.261 E.02456
G1 X104.361 Y114.347 E.03894
G1 X103.692 Y113.302 E.0389
G1 X103.216 Y112.16 E.03879
G1 X103.046 Y111.529 E.02049
G1 X102.886 Y110.296 E.03898
G1 X102.943 Y109.057 E.03889
G1 X103.213 Y107.847 E.03887
G1 X103.414 Y107.294 E.01845
G1 X103.984 Y106.191 E.03893
G1 X104.739 Y105.202 E.03901
G1 X105.653 Y104.361 E.03894
G1 X106.698 Y103.692 E.0389
G1 X107.84 Y103.216 E.03879
G1 X108.471 Y103.046 E.02049
G1 X109.698 Y102.886 E.0388
G1 X110.938 Y102.942 E.03892
G1 X112.153 Y103.213 E.03903
G1 X113.299 Y103.69 E.03892
G1 X114.346 Y104.36 E.03897
G1 X114.798 Y104.739 E.01849
G1 X115.639 Y105.653 E.03894
G1 X116.308 Y106.698 E.0389
G1 X116.784 Y107.84 E.03879
G1 X116.955 Y108.473 E.02056
G1 X117.114 Y109.706 E.03898
G1 X117.057 Y110.946 E.03892
G1 X116.955 Y111.525 E.01843
G1 X116.586 Y112.706 E.03879
G1 X116.014 Y113.812 E.03904
G1 X115.261 Y114.798 E.0389
G1 X114.347 Y115.639 E.03894
G1 X113.302 Y116.308 E.0389
G1 X112.16 Y116.784 E.03879
G1 X111.527 Y116.955 E.02056
G1 X110.294 Y117.114 E.03898
G1 X109.054 Y117.057 E.03892
G1 X108.475 Y116.955 E.01843
G1 X107.294 Y116.586 E.03879
G1 X106.191 Y116.016 E.03893
G1 X105.873 Y115.773 E.01255
; printing object krepejpodshipkoleso.STL id:0 copy 0
;WIPE_START
G1 F7200
G1 X105.825 Y115.736 E-.01439
G1 X105.202 Y115.261 E-.18606
G1 X104.361 Y114.347 E-.29499
G1 X103.692 Y113.302 E-.29469
G1 X103.676 Y113.264 E-.00987
;WIPE_END
G1 X108.244 Y112.092 F9000
G1 E.8 F1800
;TYPE:Perimeter
;WIDTH:0.439999
G1 F900
G1 X108.061 Y111.939 E.00788
G1 X107.754 Y111.573 E.01577
G1 X107.515 Y111.159 E.01578
G1 X107.352 Y110.71 E.01577
G1 X107.269 Y110.239 E.01579
G1 X107.269 Y109.761 E.01578
G1 X107.352 Y109.29 E.01579
G1 X107.515 Y108.841 E.01577
G1 X107.754 Y108.428 E.01575
G1 X108.061 Y108.061 E.0158
G1 X108.427 Y107.754 E.01577
G1 X108.841 Y107.515 E.01578
G1 X109.29 Y107.352 E.01577
G1 X109.761 Y107.269 E.01579
G1 X110.237 Y107.269 E.01572
G1 X110.701 Y107.35 E.01555
G1 X111.16 Y107.516 E.01612
G1 X111.571 Y107.753 E.01566
G1 X111.938 Y108.061 E.01582
G1 X112.246 Y108.427 E.01579
G1 X112.485 Y108.841 E.01578
G1 X112.648 Y109.29 E.01577
G1 X112.731 Y109.761 E.01579
G1 X112.731 Y110.239 E.01578
G1 X112.648 Y110.71 E.01579
G1 X112.485 Y111.159 E.01577
G1 X112.246 Y111.572 E.01575
G1 X111.939 Y111.939 E.0158
G1 X111.573 Y112.246 E.01577
G1 X111.159 Y112.485 E.01578
G1 X110.71 Y112.648 E.01577
G1 X110.239 Y112.731 E.01579
G1 X109.761 Y112.731 E.01578
G1 X109.29 Y112.648 E.01579
G1 X108.841 Y112.485 E.01577
G1 X108.428 Y112.246 E.01575
G1 X108.29 Y112.131 E.00593
G1 X107.99 Y112.395 F9000
G1 F900
G1 X107.781 Y112.219 E.00902
G1 X107.429 Y111.8 E.01807
G1 X107.155 Y111.326 E.01808
G1 X106.968 Y110.812 E.01806
G1 X106.873 Y110.274 E.01804
G1 X106.873 Y109.726 E.01809
G1 X106.968 Y109.188 E.01804
G1 X107.155 Y108.674 E.01806
G1 X107.429 Y108.2 E.01808
G1 X107.781 Y107.781 E.01807
G1 X108.2 Y107.429 E.01807
G1 X108.674 Y107.155 E.01808
