; generated by PrusaSlicer 2.7.1+win64 on 2025-04-04 at 09:33:59 UTC

; 

; external perimeters extrusion width = 0.42mm
; perimeters extrusion width = 0.44mm
; infill extrusion width = 0.44mm
; solid infill extrusion width = 0.44mm
; top infill extrusion width = 0.40mm
; first layer extrusion width = 0.42mm

M201 X500 Y500 Z100 E5000 ; sets maximum accelerations, mm/sec^2
M203 X500 Y500 Z10 E60 ; sets maximum feedrates, mm / sec
M204 S500 T1000 ; sets acceleration (S) and retract acceleration (R), mm/sec^2
M205 X8.00 Y8.00 Z0.40 E5.00 ; sets the jerk limits, mm/sec
M205 S0 T0 ; sets the minimum extruding and travel feed rate, mm/sec

; printing object peredneekoleso.STL id:0 copy 0
; stop printing object peredneekoleso.STL id:0 copy 0

;TYPE:Custom
G90 ; use absolute coordinates
M83 ; extruder relative mode
M104 S150 ; set temporary nozzle temp to prevent oozing during homing
M140 S60 ; set final bed temp
G4 S30 ; allow partial nozzle warmup
G28 ; home all axis and restore leveling
G1 Z50 F240
G1 X2.0 Y10 F3000
M104 S210 ; set final nozzle temp
M190 S60 ; wait for bed temp to stabilize
M109 S210 ; wait for nozzle temp to stabilize
G1 Z0.28 F240
G92 E0
G1 X2.0 Y140 E10 F1500 ; prime the nozzle
G1 X2.3 Y140 F5000
G92 E0
G1 X2.3 Y10 E10 F1200 ; prime the nozzle
G92 E0
G21 ; set units to millimeters
G90 ; use absolute coordinates
M83 ; use relative distances for extrusion
; Filament gcode
M107
;LAYER_CHANGE
;Z:0.2
;HEIGHT:0.2
;BEFORE_LAYER_CHANGE
G92 E0
;0.2


G1 E-.8 F1800
G1 Z.2 F9000
;AFTER_LAYER_CHANGE
;0.2
G1 X96.036 Y96.147
G1 Z.2
G1 E.8 F1800
M204 S500
;TYPE:Skirt/Brim
;WIDTH:0.42
G1 F1200
G1 X97.911 Y94.484 E.07858
G1 X99.283 Y93.506 E.05283
G1 X101 Y92.51 E.06224
G1 X103.063 Y91.601 E.07068
G1 X104.74 Y91.047 E.05538
G1 X106.516 Y90.641 E.05712
G1 X109.088 Y90.358 E.08113
G1 X111.693 Y90.403 E.08169
G1 X113.25 Y90.607 E.04924
G1 X115.447 Y91.1 E.0706
G1 X117.513 Y91.822 E.06862
G1 X118.862 Y92.44 E.04652
G1 X121.021 Y93.708 E.07851
G1 X122.48 Y94.797 E.05708
G1 X123.853 Y96.036 E.05799
G1 X125.516 Y97.911 E.07858
G1 X126.493 Y99.283 E.05281
G1 X127.491 Y101.003 E.06235
G1 X128.4 Y103.063 E.0706
G1 X128.953 Y104.74 E.05537
G1 X129.359 Y106.516 E.05712
G1 X129.643 Y109.089 E.08116
G1 X129.596 Y111.697 E.08179
G1 X129.393 Y113.25 E.04911
G1 X128.9 Y115.447 E.0706
G1 X128.178 Y117.514 E.06865
G1 X127.56 Y118.863 E.04652
G1 X126.292 Y121.021 E.07848
G1 X125.203 Y122.48 E.05708
G1 X123.962 Y123.855 E.05807
G1 X122.089 Y125.516 E.07849
G1 X120.717 Y126.494 E.05283
G1 X118.998 Y127.491 E.06231
G1 X116.937 Y128.399 E.07061
G1 X115.258 Y128.954 E.05545
G1 X113.484 Y129.359 E.05705
G1 X110.911 Y129.643 E.08116
G1 X108.303 Y129.596 E.08179
G1 X106.75 Y129.393 E.04911
G1 X104.553 Y128.9 E.0706
G1 X102.486 Y128.178 E.06865
G1 X101.138 Y127.56 E.0465
G1 X98.979 Y126.292 E.07851
G1 X97.52 Y125.204 E.05707
G1 X96.147 Y123.964 E.05801
G1 X94.484 Y122.089 E.07858
G1 X93.506 Y120.717 E.05283
G1 X92.509 Y118.997 E.06233
G1 X91.6 Y116.937 E.0706
G1 X91.047 Y115.26 E.05537
G1 X90.641 Y113.484 E.05712
G1 X90.358 Y110.912 E.08113
G1 X90.403 Y108.307 E.08169
G1 X90.607 Y106.75 E.04924
G1 X91.1 Y104.553 E.0706
G1 X91.822 Y102.486 E.06865
G1 X92.44 Y101.138 E.0465
G1 X93.708 Y98.979 E.07851
G1 X94.797 Y97.52 E.05708
G1 X95.996 Y96.192 E.0561
G1 X96.275 Y96.444 F9000
G1 F1200
G1 X96.304 Y96.412 E.00135
G1 X98.142 Y94.782 E.07703
G1 X99.487 Y93.823 E.05179
G1 X101.174 Y92.845 E.06114
G1 X103.214 Y91.946 E.0699
G1 X104.84 Y91.41 E.05368
G1 X106.613 Y91.007 E.05701
G1 X109.125 Y90.733 E.07923
G1 X111.659 Y90.779 E.07946
G1 X113.169 Y90.975 E.04774
G1 X115.342 Y91.462 E.06982
G1 X117.367 Y92.17 E.06726
G1 X118.694 Y92.777 E.04575
G1 X120.809 Y94.02 E.07692
G1 X122.242 Y95.089 E.05606
G1 X123.588 Y96.305 E.05687
G1 X125.218 Y98.142 E.077
G1 X126.177 Y99.487 E.05179
G1 X127.157 Y101.177 E.06125
G1 X128.054 Y103.214 E.06979
G1 X128.59 Y104.84 E.05368
G1 X128.993 Y106.613 E.05701
G1 X129.267 Y109.125 E.07923
G1 X129.221 Y111.663 E.07959
G1 X129.025 Y113.169 E.04762
G1 X128.538 Y115.342 E.06982
G1 X127.83 Y117.368 E.06729
G1 X127.223 Y118.694 E.04572
G1 X125.98 Y120.809 E.07692
G1 X124.911 Y122.242 E.05606
G1 X123.693 Y123.59 E.05696
G1 X121.858 Y125.218 E.07691
G1 X120.513 Y126.177 E.05179
G1 X118.824 Y127.156 E.06121
G1 X116.786 Y128.054 E.06983
G1 X115.159 Y128.59 E.05371
G1 X113.387 Y128.993 E.05698
G1 X110.875 Y129.267 E.07923
G1 X108.337 Y129.221 E.07959
G1 X106.831 Y129.025 E.04762
G1 X104.658 Y128.538 E.06982
G1 X102.632 Y127.83 E.06729
G1 X101.307 Y127.223 E.0457
G1 X99.191 Y125.98 E.07695
G1 X97.736 Y124.893 E.05695
G1 X96.412 Y123.696 E.05596
G1 X94.782 Y121.858 E.07703
G1 X93.823 Y120.513 E.05179
G1 X92.843 Y118.824 E.06123
G1 X91.946 Y116.786 E.06982
G1 X91.41 Y115.16 E.05368
G1 X91.007 Y113.387 E.05701
G1 X90.733 Y110.875 E.07923
G1 X90.779 Y108.341 E.07946
G1 X90.975 Y106.831 E.04774
G1 X91.462 Y104.658 E.06982
G1 X92.17 Y102.632 E.06729
G1 X92.777 Y101.307 E.0457
G1 X94.02 Y99.191 E.07695
G1 X95.089 Y97.758 E.05606
G1 X96.235 Y96.489 E.05361
; printing object peredneekoleso.STL id:0 copy 0
;WIPE_START
G1 F7200
G1 X96.275 Y96.444 E-.0143
G1 X96.304 Y96.412 E-.01026
G1 X98.142 Y94.782 E-.58346
G1 X98.8 Y94.313 E-.19198
;WIPE_END
G1 X101.676 Y97.737 F9000
G1 E.8 F1800
;TYPE:Perimeter
;WIDTH:0.419999
G1 F1200
G1 X101.687 Y97.694 E.00139
G1 X102.329 Y97.287 E.02383
G1 X102.379 Y97.294 E.00158
G1 X102.835 Y97.77 E.02067
G1 X103.249 Y98.072 E.01607
G1 X103.752 Y98.288 E.01716
G1 X104.224 Y98.353 E.01494
G1 X104.765 Y98.259 E.01722
G1 X105.217 Y98.006 E.01624
G1 X105.564 Y97.623 E.0162
G1 X105.762 Y97.224 E.01397
G1 X105.885 Y96.737 E.01575
G1 X105.897 Y96.356 E.01195
G1 X105.863 Y95.74 E.01934
G1 X106.666 Y95.531 E.02602
G1 X106.826 Y95.907 E.01281
G1 X107.081 Y96.338 E.0157
G1 X107.381 Y96.689 E.01448
G1 X107.878 Y97.046 E.01919
G1 X108.284 Y97.179 E.0134
G1 X108.566 Y97.214 E.00891
G1 X109.077 Y97.142 E.01618
G1 X109.503 Y96.934 E.01486
G1 X109.882 Y96.584 E.01618
G1 X110.157 Y96.158 E.0159
G1 X110.382 Y95.576 E.01956
G1 X110.463 Y95.164 E.01317
G1 X111.303 Y95.211 E.02638
G1 X111.409 Y95.958 E.02366
G1 X111.611 Y96.514 E.01855
G1 X111.941 Y96.978 E.01785
G1 X112.335 Y97.285 E.01566
G1 X112.821 Y97.461 E.01621
G1 X113.322 Y97.472 E.01571
G1 X113.815 Y97.326 E.01612
G1 X114.279 Y97.025 E.01734
G1 X114.643 Y96.644 E.01652
G1 X115.021 Y96.06 E.02181
G1 X115.07 Y96.044 E.00162
G1 X115.809 Y96.338 E.02494
G1 X115.679 Y97.038 E.02232
G1 X115.686 Y97.568 E.01662
G1 X115.82 Y98.106 E.01738
G1 X116.078 Y98.546 E.01599
G1 X116.473 Y98.897 E.01657
G1 X116.892 Y99.08 E.01434
G1 X117.347 Y99.135 E.01437
G1 X117.845 Y99.062 E.01578
G1 X118.311 Y98.875 E.01574
G1 X118.701 Y98.601 E.01494
G1 X119.105 Y98.271 E.01636
G1 X119.752 Y98.803 E.02626
G1 X119.381 Y99.499 E.02473
G1 X119.246 Y99.982 E.01572
G1 X119.212 Y100.437 E.01431
G1 X119.266 Y100.79 E.0112
G1 X119.414 Y101.174 E.0129
G1 X119.726 Y101.584 E.01615
G1 X120.083 Y101.833 E.01365
G1 X120.624 Y102.004 E.01779
G1 X121.189 Y102.012 E.01772
G1 X121.706 Y101.901 E.01658
G1 X122.263 Y101.676 E.01884
G1 X122.306 Y101.687 E.00139
G1 X122.712 Y102.329 E.02382
G1 X122.706 Y102.379 E.00158
G1 X122.23 Y102.835 E.02067
G1 X121.928 Y103.249 E.01607
G1 X121.712 Y103.752 E.01716
G1 X121.647 Y104.224 E.01494
G1 X121.741 Y104.765 E.01722
G1 X121.994 Y105.217 E.01624
G1 X122.377 Y105.564 E.0162
G1 X122.776 Y105.762 E.01397
G1 X123.263 Y105.885 E.01575
G1 X123.645 Y105.897 E.01198
G1 X124.26 Y105.863 E.01931
G1 X124.469 Y106.666 E.02602
G1 X124.093 Y106.826 E.01281
G1 X123.662 Y107.081 E.0157
G1 X123.311 Y107.381 E.01448
G1 X122.954 Y107.878 E.01919
G1 X122.821 Y108.284 E.0134
G1 X122.786 Y108.566 E.00891
G1 X122.857 Y109.073 E.01605
G1 X123.067 Y109.503 E.015
G1 X123.416 Y109.882 E.01615
G1 X123.843 Y110.157 E.01592
G1 X124.424 Y110.382 E.01954
G1 X124.836 Y110.463 E.01317
G1 X124.789 Y111.303 E.02638
G1 X124.042 Y111.409 E.02366
G1 X123.486 Y111.611 E.01855
G1 X123.022 Y111.941 E.01785
G1 X122.715 Y112.335 E.01566
G1 X122.542 Y112.805 E.0157
G1 X122.526 Y113.307 E.01575
G1 X122.667 Y113.801 E.01611
G1 X122.975 Y114.279 E.01783
G1 X123.356 Y114.643 E.01652
G1 X123.94 Y115.021 E.02181
G1 X123.956 Y115.07 E.00162
G1 X123.662 Y115.809 E.02494
G1 X122.962 Y115.679 E.02232
G1 X122.432 Y115.686 E.01662
G1 X121.889 Y115.823 E.01756
G1 X121.449 Y116.082 E.01601
G1 X121.103 Y116.473 E.01637
G1 X120.92 Y116.892 E.01434
G1 X120.865 Y117.347 E.01437
G1 X120.938 Y117.845 E.01578
G1 X121.125 Y118.311 E.01574
G1 X121.399 Y118.701 E.01494
G1 X121.729 Y119.105 E.01636
G1 X121.197 Y119.752 E.02626
G1 X120.502 Y119.381 E.0247
G1 X120.018 Y119.246 E.01575
G1 X119.563 Y119.212 E.01431
G1 X119.21 Y119.266 E.0112
G1 X118.826 Y119.414 E.0129
G1 X118.423 Y119.717 E.01581
G1 X118.156 Y120.107 E.01482
G1 X117.993 Y120.65 E.01778
G1 X117.989 Y121.195 E.01709
G1 X118.099 Y121.706 E.01639
G1 X118.324 Y122.263 E.01884
G1 X118.313 Y122.306 E.00139
G1 X117.671 Y122.713 E.02383
G1 X117.621 Y122.706 E.00158
G1 X117.165 Y122.23 E.02067
G1 X116.751 Y121.928 E.01607
G1 X116.264 Y121.716 E.01665
G1 X115.784 Y121.648 E.0152
G1 X115.239 Y121.739 E.01732
G1 X114.783 Y121.994 E.01638
G1 X114.436 Y122.377 E.0162
G1 X114.238 Y122.776 E.01397
G1 X114.115 Y123.263 E.01575
G1 X114.103 Y123.645 E.01198
G1 X114.137 Y124.26 E.01931
G1 X113.334 Y124.469 E.02602
G1 X113.174 Y124.093 E.01281
G1 X112.919 Y123.662 E.0157
G1 X112.619 Y123.311 E.01448
G1 X112.122 Y122.954 E.01919
G1 X111.716 Y122.821 E.0134
G1 X111.445 Y122.786 E.00857
G1 X110.926 Y122.857 E.01642
G1 X110.497 Y123.067 E.01498
G1 X110.118 Y123.416 E.01615
G1 X109.845 Y123.838 E.01576
G1 X109.625 Y124.396 E.01881
G1 X109.539 Y124.836 E.01406
G1 X108.697 Y124.789 E.02644
G1 X108.591 Y124.043 E.02363
G1 X108.389 Y123.486 E.01858
G1 X108.06 Y123.022 E.01783
G1 X107.665 Y122.715 E.01569
G1 X107.194 Y122.542 E.01573
G1 X106.693 Y122.526 E.01572
G1 X106.199 Y122.667 E.01611
G1 X105.721 Y122.975 E.01783
G1 X105.357 Y123.356 E.01652
G1 X104.979 Y123.94 E.02181
G1 X104.93 Y123.956 E.00162
G1 X104.191 Y123.662 E.02494
G1 X104.321 Y122.962 E.02232
G1 X104.316 Y122.437 E.01646
G1 X104.177 Y121.889 E.01773
G1 X103.918 Y121.449 E.01601
G1 X103.527 Y121.103 E.01637
G1 X103.108 Y120.92 E.01434
G1 X102.653 Y120.865 E.01437
G1 X102.155 Y120.938 E.01578
G1 X101.689 Y121.125 E.01574
G1 X101.299 Y121.399 E.01494
G1 X100.895 Y121.729 E.01636
G1 X100.248 Y121.197 E.02626
G1 X100.619 Y120.502 E.0247
G1 X100.754 Y120.018 E.01575
G1 X100.788 Y119.563 E.01431
G1 X100.709 Y119.109 E.01445
G1 X100.584 Y118.822 E.00982
G1 X100.271 Y118.413 E.01615
G1 X99.89 Y118.154 E.01444
G1 X99.35 Y117.993 E.01767
G1 X98.805 Y117.989 E.01709
G1 X98.294 Y118.099 E.01639
G1 X97.737 Y118.324 E.01884
G1 X97.694 Y118.313 E.00139
G1 X97.287 Y117.671 E.02383
G1 X97.294 Y117.621 E.00158
G1 X97.77 Y117.165 E.02067
G1 X98.072 Y116.751 E.01607
G1 X98.284 Y116.264 E.01665
G1 X98.352 Y115.717 E.01728
G1 X98.259 Y115.235 E.01539
G1 X98.006 Y114.783 E.01624
G1 X97.623 Y114.436 E.0162
G1 X97.224 Y114.238 E.01397
G1 X96.737 Y114.115 E.01575
G1 X96.356 Y114.103 E.01195
G1 X95.74 Y114.137 E.01934
G1 X95.531 Y113.334 E.02602
G1 X95.907 Y113.174 E.01281
G1 X96.338 Y112.919 E.0157
G1 X96.689 Y112.619 E.01448
G1 X97.046 Y112.122 E.01919
G1 X97.179 Y111.716 E.0134
G1 X97.214 Y111.434 E.00891
G1 X97.142 Y110.923 E.01618
G1 X96.934 Y110.497 E.01486
G1 X96.584 Y110.118 E.01618
G1 X96.158 Y109.844 E.01588
G1 X95.576 Y109.618 E.01958
G1 X95.164 Y109.537 E.01317
G1 X95.211 Y108.697 E.02638
G1 X95.958 Y108.591 E.02366
G1 X96.514 Y108.389 E.01855
G1 X96.978 Y108.059 E.01785
G1 X97.285 Y107.665 E.01566
G1 X97.46 Y107.183 E.01608
G1 X97.474 Y106.694 E.01534
G1 X97.333 Y106.199 E.01614
G1 X97.025 Y105.721 E.01783
G1 X96.644 Y105.357 E.01652
G1 X96.06 Y104.979 E.02181
G1 X96.044 Y104.93 E.00162
G1 X96.338 Y104.191 E.02494
G1 X97.038 Y104.321 E.02232
G1 X97.563 Y104.316 E.01646
G1 X98.111 Y104.177 E.01773
G1 X98.551 Y103.918 E.01601
G1 X98.897 Y103.527 E.01637
G1 X99.08 Y103.108 E.01434
G1 X99.135 Y102.653 E.01437
G1 X99.062 Y102.155 E.01578
G1 X98.875 Y101.689 E.01574
G1 X98.601 Y101.299 E.01494
G1 X98.271 Y100.895 E.01636
G1 X98.803 Y100.248 E.02626
G1 X99.499 Y100.619 E.02473
G1 X99.982 Y100.754 E.01572
G1 X100.437 Y100.788 E.01431
G1 X100.928 Y100.699 E.01565
G1 X101.365 Y100.465 E.01554
G1 X101.577 Y100.28 E.00882
G1 X101.833 Y99.917 E.01393
G1 X102.004 Y99.376 E.01779
G1 X102.012 Y98.811 E.01772
G1 X101.901 Y98.294 E.01658
G1 X101.698 Y97.793 E.01695
;WIPE_START
G1 F7200
G1 X101.676 Y97.737 E-.01429
G1 X101.687 Y97.694 E-.01054
G1 X102.329 Y97.287 E-.18053
G1 X102.379 Y97.294 E-.01199
G1 X102.835 Y97.77 E-.15655
G1 X103.249 Y98.072 E-.12171
G1 X103.752 Y98.288 E-.13001
G1 X104.224 Y98.353 E-.11316
G1 X104.478 Y98.309 E-.06122
;WIPE_END
G1 X102.475 Y96.767 F9000
G1 E.8 F1800
G1 F1200
G1 X102.652 Y97.033 E.01002
G1 X103.108 Y97.509 E.02067
G1 X103.457 Y97.757 E.01342
G1 X103.8 Y97.907 E.01174
G1 X104.172 Y97.971 E.01184
G1 X104.553 Y97.927 E.01203
G1 X104.918 Y97.754 E.01266
G1 X105.222 Y97.449 E.0135
G1 X105.418 Y97.069 E.01341
G1 X105.526 Y96.525 E.01739
G1 X105.497 Y95.826 E.02194
G1 X105.416 Y95.481 E.01111
G1 X105.635 Y95.413 E.00719
G1 X106.187 Y95.257 E.01799
G1 X106.936 Y95.086 E.02409
G1 X106.967 Y95.214 E.00413
G1 X107.167 Y95.745 E.01779
G1 X107.401 Y96.138 E.01434
G1 X107.659 Y96.434 E.01231
G1 X107.988 Y96.674 E.01277
G1 X108.387 Y96.816 E.01328
G1 X108.811 Y96.816 E.01329
G1 X109.178 Y96.688 E.01219
G1 X109.534 Y96.413 E.0141
G1 X109.805 Y96.021 E.01494
G1 X110.064 Y95.307 E.02381
G1 X110.133 Y94.773 E.01688
G1 X111.171 Y94.817 E.03257
G1 X111.692 Y94.876 E.01644
G1 X111.679 Y95.228 E.01104
G1 X111.781 Y95.901 E.02134
G1 X111.93 Y96.307 E.01356
G1 X112.131 Y96.621 E.01169
G1 X112.413 Y96.886 E.01213
G1 X112.774 Y97.059 E.01255
G1 X113.186 Y97.103 E.01299
G1 X113.591 Y97.009 E.01304
G1 X113.941 Y96.814 E.01256
G1 X114.327 Y96.439 E.01687
G1 X114.705 Y95.855 E.02181
G1 X114.827 Y95.562 E.00995
G1 X115.803 Y95.921 E.03261
G1 X116.281 Y96.138 E.01646
G1 X116.171 Y96.433 E.00987
G1 X116.054 Y97.082 E.02068
G1 X116.061 Y97.524 E.01386
G1 X116.14 Y97.878 E.01137
G1 X116.306 Y98.215 E.01178
G1 X116.566 Y98.498 E.01205
G1 X116.92 Y98.69 E.01263
G1 X117.345 Y98.757 E.01349
G1 X117.768 Y98.693 E.01341
G1 X118.272 Y98.46 E.01741
G1 X118.82 Y98.026 E.02192
G1 X119.052 Y97.757 E.01114
G1 X119.686 Y98.25 E.02518
G1 X120.257 Y98.747 E.02374
G1 X120.123 Y98.914 E.00671
G1 X119.744 Y99.599 E.02455
G1 X119.61 Y100.083 E.01575
G1 X119.589 Y100.437 E.01112
G1 X119.657 Y100.799 E.01155
G1 X119.874 Y101.19 E.01402
G1 X120.21 Y101.468 E.01367
G1 X120.643 Y101.622 E.01441
G1 X121.11 Y101.639 E.01465
G1 X121.592 Y101.541 E.01542
G1 X122.032 Y101.369 E.01481
G1 X122.384 Y101.151 E.01298
G1 X122.834 Y101.815 E.02515
G1 X123.233 Y102.475 E.02418
G1 X122.967 Y102.652 E.01002
G1 X122.491 Y103.108 E.02067
G1 X122.243 Y103.457 E.01342
G1 X122.093 Y103.8 E.01174
G1 X122.029 Y104.172 E.01184
G1 X122.073 Y104.554 E.01206
G1 X122.246 Y104.918 E.01264
G1 X122.551 Y105.222 E.0135
G1 X122.931 Y105.418 E.01341
G1 X123.475 Y105.526 E.01739
G1 X124.174 Y105.497 E.02194
G1 X124.519 Y105.416 E.01111
G1 X124.587 Y105.635 E.00719
G1 X124.743 Y106.187 E.01799
G1 X124.914 Y106.936 E.02409
G1 X124.786 Y106.967 E.00413
G1 X124.255 Y107.167 E.01779
G1 X123.862 Y107.401 E.01434
G1 X123.566 Y107.659 E.01231
G1 X123.326 Y107.988 E.01277
G1 X123.184 Y108.387 E.01328
G1 X123.184 Y108.811 E.01329
G1 X123.312 Y109.178 E.01219
G1 X123.587 Y109.534 E.0141
G1 X123.979 Y109.805 E.01494
G1 X124.693 Y110.064 E.02381
G1 X125.227 Y110.133 E.01688
G1 X125.183 Y111.171 E.03257
G1 X125.124 Y111.692 E.01644
G1 X124.772 Y111.679 E.01104
G1 X124.099 Y111.781 E.02134
G1 X123.693 Y111.93 E.01356
G1 X123.379 Y112.131 E.01169
G1 X123.114 Y112.413 E.01213
G1 X122.943 Y112.766 E.0123
G1 X122.896 Y113.165 E.0126
G1 X122.982 Y113.567 E.01289
G1 X123.186 Y113.941 E.01336
G1 X123.561 Y114.327 E.01687
G1 X124.145 Y114.705 E.02181
G1 X124.438 Y114.827 E.00995
G1 X124.079 Y115.803 E.03261
G1 X123.862 Y116.281 E.01646
