; generated by PrusaSlicer 2.7.1+win64 on 2025-04-04 at 14:03:34 UTC

; 

; external perimeters extrusion width = 0.42mm
; perimeters extrusion width = 0.44mm
; infill extrusion width = 0.44mm
; solid infill extrusion width = 0.44mm
; top infill extrusion width = 0.40mm
; first layer extrusion width = 0.42mm

M201 X500 Y500 Z100 E5000 ; sets maximum accelerations, mm/sec^2
M203 X500 Y500 Z10 E60 ; sets maximum feedrates, mm / sec
M204 S500 T1000 ; sets acceleration (S) and retract acceleration (R), mm/sec^2
M205 X8.00 Y8.00 Z0.40 E5.00 ; sets the jerk limits, mm/sec
M205 S0 T0 ; sets the minimum extruding and travel feed rate, mm/sec

; printing object test2.STL id:0 copy 0
; stop printing object test2.STL id:0 copy 0

;TYPE:Custom
G90 ; use absolute coordinates
M83 ; extruder relative mode
M104 S150 ; set temporary nozzle temp to prevent oozing during homing
M140 S60 ; set final bed temp
G4 S30 ; allow partial nozzle warmup
G28 ; home all axis and restore leveling
G1 Z50 F240
G1 X2.0 Y10 F3000
M104 S210 ; set final nozzle temp
M190 S60 ; wait for bed temp to stabilize
M109 S210 ; wait for nozzle temp to stabilize
G1 Z0.28 F240
G92 E0
G1 X2.0 Y140 E10 F1500 ; prime the nozzle
G1 X2.3 Y140 F5000
G92 E0
G1 X2.3 Y10 E10 F1200 ; prime the nozzle
G92 E0
G21 ; set units to millimeters
G90 ; use absolute coordinates
M83 ; use relative distances for extrusion
; Filament gcode
M107
;LAYER_CHANGE
;Z:0.2
;HEIGHT:0.2
;BEFORE_LAYER_CHANGE
G92 E0
;0.2


G1 E-.8 F1800
G1 Z.2 F9000
;AFTER_LAYER_CHANGE
;0.2
G1 X97.24 Y96.392
G1 Z.2
G1 E.8 F1800
M204 S500
;TYPE:Skirt/Brim
;WIDTH:0.42
G1 F1200
G1 X98.482 Y95.326 E.05132
G1 X100.025 Y94.236 E.05923
G1 X101.671 Y93.308 E.05925
G1 X103.403 Y92.551 E.05927
G1 X105.202 Y91.973 E.05925
G1 X107.05 Y91.58 E.05924
G1 X108.929 Y91.376 E.05926
G1 X110.818 Y91.363 E.05923
G1 X112.671 Y91.539 E.05836
G1 X114.553 Y91.91 E.06014
G1 X116.36 Y92.463 E.05925
G1 X118.101 Y93.197 E.05924
G1 X119.76 Y94.102 E.05925
G1 X121.318 Y95.171 E.05924
G1 X122.76 Y96.392 E.05924
G1 X123.944 Y97.612 E.0533
G1 X125.488 Y99.606 E.07907
G1 X126.372 Y101.058 E.0533
G1 X127.263 Y102.937 E.0652
G1 X127.836 Y104.537 E.05329
G1 X128.298 Y106.369 E.05924
G1 X128.571 Y108.239 E.05925
G1 X128.649 Y110.317 E.0652
G1 X128.546 Y112.013 E.05327
G1 X128.247 Y113.879 E.05925
G1 X127.761 Y115.705 E.05925
G1 X127.092 Y117.473 E.05927
G1 X126.249 Y119.164 E.05924
G1 X125.238 Y120.76 E.05924
G1 X124.071 Y122.247 E.05927
G1 X122.76 Y123.608 E.05925
G1 X121.318 Y124.829 E.05924
G1 X119.76 Y125.898 E.05924
G1 X118.101 Y126.803 E.05925
G1 X116.36 Y127.537 E.05924
G1 X114.798 Y128.027 E.05133
G1 X112.95 Y128.42 E.05924
G1 X111.071 Y128.624 E.05926
G1 X109.182 Y128.637 E.05923
G1 X107.301 Y128.458 E.05924
G1 X105.447 Y128.09 E.05926
G1 X103.64 Y127.537 E.05925
G1 X101.899 Y126.803 E.05924
G1 X100.265 Y125.912 E.05835
G1 X98.682 Y124.829 E.06014
G1 X97.24 Y123.608 E.05924
G1 X96.056 Y122.388 E.0533
G1 X94.762 Y120.76 E.06521
G1 X93.751 Y119.164 E.05924
G1 X92.908 Y117.473 E.05924
G1 X92.301 Y115.885 E.0533
G1 X91.669 Y113.444 E.07906
G1 X91.429 Y111.761 E.0533
G1 X91.351 Y109.683 E.0652
G1 X91.454 Y107.987 E.05327
G1 X91.753 Y106.121 E.05925
G1 X92.239 Y104.295 E.05925
G1 X92.908 Y102.527 E.05927
G1 X93.751 Y100.836 E.05924
G1 X94.762 Y99.24 E.05924
G1 X95.929 Y97.753 E.05927
G1 X97.198 Y96.436 E.05734
G1 X97.469 Y96.697 F9000
G1 F1200
G1 X97.5 Y96.666 E.00137
G1 X98.712 Y95.625 E.05009
G1 X100.225 Y94.556 E.05809
G1 X101.837 Y93.647 E.05803
G1 X103.534 Y92.905 E.05807
G1 X105.296 Y92.338 E.05804
G1 X107.107 Y91.953 E.05805
G1 X108.948 Y91.753 E.05806
G1 X110.799 Y91.74 E.05804
G1 X112.614 Y91.911 E.05716
G1 X114.458 Y92.275 E.05893
G1 X116.229 Y92.817 E.05807
G1 X117.935 Y93.535 E.05803
G1 X119.56 Y94.422 E.05805
G1 X121.087 Y95.469 E.05805
G1 X122.5 Y96.666 E.05806
G1 X123.671 Y97.872 E.05271
G1 X124.827 Y99.317 E.05802
G1 X126.121 Y101.393 E.0767
G1 X126.909 Y103.068 E.05804
G1 X127.477 Y104.649 E.05267
G1 X127.928 Y106.445 E.05806
G1 X128.196 Y108.277 E.05805
G1 X128.273 Y110.298 E.06341
G1 X128.17 Y111.975 E.05268
G1 X127.877 Y113.803 E.05805
G1 X127.401 Y115.592 E.05804
G1 X126.746 Y117.324 E.05806
G1 X125.919 Y118.981 E.05807
G1 X124.929 Y120.545 E.05804
G1 X123.785 Y122.001 E.05806
G1 X122.5 Y123.334 E.05805
G1 X121.087 Y124.531 E.05806
G1 X119.56 Y125.578 E.05805
G1 X117.935 Y126.465 E.05805
G1 X116.229 Y127.183 E.05803
G1 X114.704 Y127.662 E.05012
G1 X112.893 Y128.047 E.05805
G1 X111.052 Y128.247 E.05806
G1 X109.201 Y128.26 E.05804
G1 X107.358 Y128.085 E.05805
G1 X105.541 Y127.725 E.05808
G1 X103.771 Y127.183 E.05804
G1 X102.065 Y126.465 E.05803
G1 X100.464 Y125.592 E.05718
G1 X98.913 Y124.531 E.05892
G1 X97.5 Y123.334 E.05806
G1 X96.329 Y122.128 E.05271
G1 X95.071 Y120.545 E.0634
G1 X94.081 Y118.981 E.05804
G1 X93.254 Y117.324 E.05807
G1 X92.655 Y115.754 E.05269
G1 X92.041 Y113.387 E.07667
G1 X91.804 Y111.723 E.0527
G1 X91.727 Y109.702 E.06341
G1 X91.83 Y108.025 E.05268
G1 X92.123 Y106.197 E.05805
G1 X92.599 Y104.408 E.05804
G1 X93.254 Y102.676 E.05806
G1 X94.081 Y101.019 E.05807
G1 X95.071 Y99.455 E.05804
G1 X96.215 Y97.999 E.05806
G1 X97.428 Y96.74 E.05482
;WIPE_START
G1 F7200
G1 X97.469 Y96.697 E-.01411
G1 X97.5 Y96.666 E-.01041
G1 X98.712 Y95.625 E-.37945
G1 X100.074 Y94.663 E-.39603
;WIPE_END
G1 X100.037 Y99.31 F9000
G1 E.8 F1800
G1 F1200
G1 X101.152 Y98.37 E.04573
G1 X102.355 Y97.546 E.04572
G1 X103.635 Y96.846 E.04574
G1 X104.979 Y96.277 E.04576
G1 X106.373 Y95.844 E.04577
G1 X107.821 Y95.55 E.04633
G1 X109.271 Y95.405 E.04569
G1 X110.73 Y95.405 E.04575
G1 X112.201 Y95.554 E.04636
G1 X113.632 Y95.845 E.04579
G1 X115.026 Y96.278 E.04577
G1 X116.387 Y96.857 E.04637
G1 X117.684 Y97.57 E.04641
G1 X118.885 Y98.398 E.04574
G1 X120.012 Y99.355 E.04636
G1 X121.037 Y100.422 E.04639
G1 X121.949 Y101.587 E.04639
G1 X122.738 Y102.838 E.04637
G1 X123.389 Y104.145 E.04578
G1 X123.912 Y105.529 E.04639
G1 X124.293 Y106.959 E.0464
G1 X124.525 Y108.4 E.04576
G1 X124.612 Y109.855 E.0457
G1 X124.552 Y111.338 E.04654
G1 X124.285 Y113.08 E.05526
G1 X123.898 Y114.514 E.04657
G1 X123.37 Y115.897 E.04642
G1 X122.705 Y117.22 E.04643
G1 X121.91 Y118.468 E.0464
G1 X120.992 Y119.629 E.04641
G1 X119.963 Y120.69 E.04634
G1 X118.849 Y121.629 E.04568
G1 X117.644 Y122.454 E.04579
G1 X116.364 Y123.155 E.04576
G1 X115.022 Y123.723 E.04569
G1 X113.63 Y124.155 E.0457
G1 X112.181 Y124.449 E.04636
G1 X110.73 Y124.595 E.04572
G1 X109.27 Y124.595 E.04578
G1 X107.798 Y124.446 E.04639
G1 X106.367 Y124.154 E.04579
G1 X104.974 Y123.722 E.04573
G1 X103.613 Y123.144 E.04636
G1 X102.317 Y122.431 E.04638
G1 X101.1 Y121.59 E.04638
G1 X99.988 Y120.645 E.04576
G1 X98.964 Y119.578 E.04637
G1 X98.063 Y118.429 E.04578
G1 X97.272 Y117.179 E.04638
G1 X96.611 Y115.855 E.0464
G1 X96.094 Y114.49 E.04577
G1 X95.711 Y113.062 E.04636
G1 X95.475 Y111.601 E.0464
G1 X95.388 Y110.145 E.04573
G1 X95.448 Y108.667 E.04638
G1 X95.657 Y107.202 E.0464
G1 X96.015 Y105.761 E.04656
G1 X96.627 Y104.107 E.0553
G1 X97.295 Y102.78 E.04658
G1 X98.09 Y101.532 E.0464
G1 X99.008 Y100.371 E.04641
G1 X99.995 Y99.353 E.04446
G1 X100.265 Y99.614 F9000
G1 F1200
G1 X100.288 Y99.592 E.001
G1 X101.373 Y98.676 E.04452
G1 X102.545 Y97.872 E.04456
G1 X103.791 Y97.189 E.04455
G1 X105.1 Y96.634 E.04458
G1 X106.457 Y96.212 E.04456
G1 X107.868 Y95.924 E.04515
G1 X109.281 Y95.782 E.04453
G1 X110.702 Y95.781 E.04455
G1 X112.135 Y95.925 E.04516
G1 X113.547 Y96.213 E.04518
G1 X114.905 Y96.635 E.04459
G1 X116.231 Y97.2 E.04519
G1 X117.493 Y97.896 E.04519
G1 X118.663 Y98.703 E.04456
G1 X119.76 Y99.636 E.04515
G1 X120.758 Y100.677 E.04522
G1 X121.645 Y101.812 E.04517
G1 X122.414 Y103.031 E.04519
G1 X123.047 Y104.304 E.04458
G1 X123.556 Y105.653 E.04521
G1 X123.926 Y107.047 E.04522
G1 X124.151 Y108.451 E.04458
G1 X124.236 Y109.868 E.04451
G1 X124.176 Y111.312 E.04531
G1 X123.918 Y112.992 E.05329
G1 X123.543 Y114.389 E.04535
G1 X123.029 Y115.737 E.04523
G1 X122.382 Y117.025 E.04519
G1 X121.608 Y118.242 E.04522
G1 X120.714 Y119.374 E.04523
G1 X119.713 Y120.408 E.04512
G1 X118.628 Y121.324 E.04452
G1 X117.455 Y122.128 E.04459
G1 X116.208 Y122.811 E.04458
G1 X114.901 Y123.366 E.04452
G1 X113.545 Y123.788 E.04453
G1 X112.134 Y124.075 E.04515
G1 X110.72 Y124.218 E.04456
G1 X109.298 Y124.219 E.04459
G1 X107.864 Y124.075 E.04519
G1 X106.452 Y123.787 E.04518
G1 X105.096 Y123.365 E.04453
G1 X103.77 Y122.8 E.04519
G1 X102.508 Y122.105 E.04517
G1 X101.322 Y121.286 E.04519
G1 X100.24 Y120.364 E.04457
G1 X99.242 Y119.324 E.04519
G1 X98.366 Y118.204 E.04458
G1 X97.596 Y116.986 E.04518
G1 X96.953 Y115.696 E.04519
G1 X96.45 Y114.366 E.04458
G1 X96.078 Y112.974 E.04518
G1 X95.849 Y111.551 E.04519
G1 X95.765 Y110.132 E.04457
G1 X95.824 Y108.693 E.04516
G1 X96.029 Y107.265 E.04523
G1 X96.378 Y105.862 E.04533
G1 X96.969 Y104.267 E.05333
G1 X97.618 Y102.975 E.04533
G1 X98.392 Y101.758 E.04522
G1 X99.286 Y100.626 E.04523
G1 X100.224 Y99.657 E.04229
G1 X100.494 Y99.919 F9000
G1 F1200
G1 X100.538 Y99.873 E.002
G1 X101.594 Y98.981 E.04334
G1 X102.75 Y98.188 E.04395
G1 X103.964 Y97.525 E.04337
G1 X105.238 Y96.985 E.04339
G1 X106.56 Y96.575 E.0434
G1 X107.934 Y96.296 E.04396
G1 X109.309 Y96.158 E.04333
G1 X110.692 Y96.158 E.04336
G1 X112.088 Y96.299 E.04399
G1 X113.462 Y96.58 E.04397
G1 X114.783 Y96.993 E.0434
G1 X116.074 Y97.543 E.044
G1 X117.303 Y98.221 E.04401
G1 X118.44 Y99.008 E.04336
G1 X119.508 Y99.917 E.04397
G1 X120.479 Y100.93 E.044
G1 X121.342 Y102.036 E.04399
G1 X122.089 Y103.224 E.044
G1 X122.705 Y104.463 E.04338
G1 X123.2 Y105.777 E.04403
G1 X123.559 Y107.134 E.04401
G1 X123.778 Y108.501 E.04341
G1 X123.859 Y109.881 E.04334
G1 X123.799 Y111.285 E.04406
G1 X123.551 Y112.905 E.05139
G1 X123.187 Y114.264 E.04411
G1 X122.688 Y115.576 E.04401
G1 X122.058 Y116.831 E.04403
G1 X121.305 Y118.016 E.04402
G1 X120.437 Y119.119 E.04401
G1 X119.462 Y120.126 E.04395
G1 X118.406 Y121.018 E.04334
G1 X117.249 Y121.812 E.044
G1 X116.035 Y122.476 E.04339
G1 X114.762 Y123.015 E.04334
G1 X113.442 Y123.425 E.04334
G1 X112.068 Y123.704 E.04396
G1 X110.692 Y123.842 E.04336
G1 X109.308 Y123.842 E.04339
G1 X107.912 Y123.701 E.04399
G1 X106.537 Y123.419 E.04401
G1 X105.217 Y123.008 E.04335
G1 X103.927 Y122.457 E.04398
G1 X102.699 Y121.78 E.04397
G1 X101.545 Y120.981 E.04401
G1 X100.492 Y120.083 E.04339
G1 X99.521 Y119.07 E.044
G1 X98.669 Y117.98 E.04338
G1 X97.92 Y116.793 E.04401
G1 X97.295 Y115.536 E.04402
G1 X96.806 Y114.242 E.04337
G1 X96.445 Y112.886 E.044
G1 X96.222 Y111.5 E.04402
G1 X96.141 Y110.12 E.04334
G1 X96.2 Y108.718 E.044
G1 X96.401 Y107.329 E.044
G1 X96.742 Y105.963 E.04414
G1 X97.311 Y104.427 E.05136
G1 X97.942 Y103.169 E.04413
G1 X98.695 Y101.984 E.04402
G1 X99.563 Y100.881 E.04401
G1 X100.452 Y99.962 E.04009
G1 X100.723 Y100.223 F9000
G1 F1200
G1 X100.789 Y100.155 E.00297
G1 X101.816 Y99.287 E.04216
G1 X102.94 Y98.514 E.04277
G1 X104.12 Y97.868 E.04218
G1 X105.377 Y97.336 E.0428
G1 X106.662 Y96.938 E.04218
G1 X107.999 Y96.667 E.04277
G1 X109.337 Y96.534 E.04216
G1 X110.682 Y96.535 E.04217
G1 X112.04 Y96.673 E.0428
G1 X113.377 Y96.948 E.0428
G1 X114.661 Y97.35 E.04219
G1 X115.917 Y97.886 E.04282
G1 X117.112 Y98.546 E.0428
G1 X118.218 Y99.312 E.04218
G1 X119.256 Y100.198 E.04279
G1 X120.2 Y101.184 E.0428
G1 X121.039 Y102.26 E.04278
G1 X121.765 Y103.416 E.0428
G1 X122.363 Y104.622 E.04221
G1 X122.844 Y105.901 E.04284
G1 X123.192 Y107.221 E.0428
G1 X123.404 Y108.55 E.0422
G1 X123.482 Y109.893 E.04218
G1 X123.423 Y111.259 E.04287
G1 X123.184 Y112.817 E.04942
G1 X122.831 Y114.139 E.0429
G1 X122.346 Y115.416 E.04283
G1 X121.735 Y116.637 E.04281
G1 X121.003 Y117.791 E.04285
G1 X120.159 Y118.864 E.0428
G1 X119.211 Y119.845 E.04277
G1 X118.185 Y120.713 E.04214
G1 X117.06 Y121.486 E.0428
G1 X115.879 Y122.133 E.04222
G1 X114.641 Y122.658 E.04216
G1 X113.358 Y123.057 E.04213
G1 X112.021 Y123.33 E.04279
G1 X110.683 Y123.465 E.04217
G1 X109.318 Y123.465 E.0428
G1 X107.96 Y123.327 E.0428
G1 X106.622 Y123.052 E.04283
G1 X105.339 Y122.65 E.04216
G1 X104.084 Y122.114 E.04279
G1 X102.889 Y121.454 E.0428
G1 X101.768 Y120.677 E.04277
G1 X100.744 Y119.803 E.04221
G1 X99.8 Y118.816 E.04282
G1 X98.972 Y117.755 E.0422
G1 X98.244 Y116.6 E.04281
G1 X97.637 Y115.377 E.04281
G1 X97.162 Y114.118 E.04219
G1 X96.812 Y112.799 E.04279
G1 X96.596 Y111.45 E.04284
G1 X96.518 Y110.107 E.04218
G1 X96.577 Y108.744 E.04278
G1 X96.773 Y107.392 E.04283
G1 X97.105 Y106.065 E.04289
G1 X97.653 Y104.586 E.04945
G1 X98.265 Y103.363 E.04288
G1 X98.997 Y102.209 E.04285
G1 X99.841 Y101.136 E.0428
G1 X100.681 Y100.267 E.0379
G1 X100.952 Y100.528 F9000
G1 F1200
G1 X101.04 Y100.437 E.00397
G1 X102.037 Y99.592 E.04098
G1 X103.13 Y98.84 E.0416
G1 X104.276 Y98.211 E.04099
G1 X105.497 Y97.693 E.04159
G1 X106.747 Y97.305 E.04104
G1 X108.046 Y97.042 E.04156
G1 X109.346 Y96.911 E.04097
G1 X110.672 Y96.912 E.04158
G1 X111.992 Y97.047 E.0416
G1 X113.292 Y97.315 E.04162
G1 X114.539 Y97.707 E.04099
G1 X115.76 Y98.229 E.04164
G1 X116.921 Y98.872 E.04161
G1 X117.995 Y99.616 E.04097
G1 X119.004 Y100.478 E.04161
G1 X119.921 Y101.438 E.04163
G1 X120.725 Y102.469 E.04099
G1 X121.431 Y103.592 E.04159
G1 X122.021 Y104.781 E.04162
G1 X122.487 Y106.024 E.04162
G1 X122.825 Y107.308 E.04163
G1 X123.03 Y108.6 E.04102
G1 X123.105 Y109.905 E.04098
G1 X123.047 Y111.232 E.04165
G1 X122.817 Y112.73 E.04752
G1 X122.475 Y114.015 E.04169
G1 X122.004 Y115.256 E.04162
G1 X121.411 Y116.444 E.04163
G1 X120.701 Y117.565 E.0416
G1 X119.88 Y118.609 E.04164
G1 X118.96 Y119.563 E.04155
G1 X117.963 Y120.408 E.04098
G1 X116.87 Y121.16 E.0416
G1 X115.706 Y121.797 E.0416
G1 X114.503 Y122.307 E.04097
G1 X113.255 Y122.694 E.04097
G1 X111.955 Y122.958 E.04159
G1 X110.655 Y123.088 E.04096
G1 X109.328 Y123.088 E.04161
G1 X108.008 Y122.952 E.04161
G1 X106.708 Y122.685 E.04161
G1 X105.461 Y122.294 E.04098
G1 X104.241 Y121.771 E.04162
G1 X103.096 Y121.139 E.04101
G1 X102.005 Y120.384 E.0416
G1 X101.01 Y119.535 E.04101
G1 X100.092 Y118.577 E.0416
G1 X99.275 Y117.531 E.04162
G1 X98.568 Y116.407 E.04163
G1 X97.979 Y115.218 E.0416
G1 X97.519 Y113.994 E.041
G1 X97.179 Y112.711 E.04162
G1 X96.97 Y111.401 E.04159
G1 X96.895 Y110.095 E.04102
G1 X96.953 Y108.77 E.04158
G1 X97.144 Y107.456 E.04163
G1 X97.468 Y106.167 E.04167
G1 X97.995 Y104.746 E.04752
G1 X98.589 Y103.556 E.0417
G1 X99.299 Y102.435 E.0416
G1 X100.12 Y101.391 E.04164
G1 X100.91 Y100.571 E.0357
G1 X101.182 Y100.832 F9000
G1 F1200
G1 X101.291 Y100.718 E.00495
G1 X102.259 Y99.897 E.0398
G1 X103.32 Y99.166 E.0404
G1 X104.432 Y98.555 E.03978
G1 X105.619 Y98.05 E.04045
G1 X106.831 Y97.673 E.0398
G1 X108.094 Y97.416 E.04041
G1 X109.356 Y97.289 E.03977
G1 X110.644 Y97.289 E.04038
G1 X111.926 Y97.419 E.0404
G1 X113.188 Y97.678 E.04039
G1 X114.4 Y98.057 E.03982
G1 X115.586 Y98.563 E.04043
G1 X116.714 Y99.187 E.04042
G1 X117.758 Y99.91 E.03982
G1 X118.738 Y100.746 E.04039
G1 X119.63 Y101.677 E.04043
G1 X120.411 Y102.678 E.03981
G1 X121.098 Y103.769 E.04042
G1 X121.671 Y104.923 E.0404
G1 X122.125 Y106.13 E.04043
G1 X122.454 Y107.376 E.04041
G1 X122.656 Y108.649 E.04041
G1 X122.727 Y109.917 E.03982
G1 X122.671 Y111.205 E.04042
G1 X122.45 Y112.643 E.04562
G1 X122.119 Y113.891 E.04048
G1 X121.663 Y115.097 E.04043
G1 X121.087 Y116.25 E.04041
G1 X120.398 Y117.34 E.04043
G1 X119.602 Y118.354 E.04042
G1 X118.709 Y119.282 E.04038
G1 X117.742 Y120.103 E.03977
G1 X116.68 Y120.834 E.04042
G1 X115.55 Y121.454 E.04041
G1 X114.382 Y121.95 E.03979
G1 X113.17 Y122.327 E.0398
G1 X111.908 Y122.584 E.04038
G1 X110.645 Y122.711 E.0398
G1 X109.356 Y122.711 E.04042
G1 X108.074 Y122.581 E.0404
G1 X106.811 Y122.322 E.04042
G1 X105.6 Y121.943 E.03979
G1 X104.415 Y121.437 E.0404
G1 X103.287 Y120.813 E.04042
G1 X102.228 Y120.079 E.0404
G1 X101.262 Y119.254 E.03983
G1 X100.371 Y118.323 E.0404
G1 X99.578 Y117.307 E.04041
G1 X98.893 Y116.215 E.04042
G1 X98.321 Y115.06 E.04041
G1 X97.875 Y113.87 E.03985
G1 X97.546 Y112.624 E.04041
G1 X97.344 Y111.351 E.04041
G1 X97.273 Y110.084 E.03979
G1 X97.329 Y108.796 E.04042
G1 X97.516 Y107.521 E.0404
G1 X97.831 Y106.269 E.04048
G1 X98.337 Y104.905 E.04562
G1 X98.913 Y103.75 E.04047
