; generated by PrusaSlicer 2.7.1+win64 on 2025-04-04 at 13:44:10 UTC

; 

; external perimeters extrusion width = 0.42mm
; perimeters extrusion width = 0.44mm
; infill extrusion width = 0.44mm
; solid infill extrusion width = 0.44mm
; top infill extrusion width = 0.40mm
; first layer extrusion width = 0.42mm

M201 X500 Y500 Z100 E5000 ; sets maximum accelerations, mm/sec^2
M203 X500 Y500 Z10 E60 ; sets maximum feedrates, mm / sec
M204 S500 T1000 ; sets acceleration (S) and retract acceleration (R), mm/sec^2
M205 X8.00 Y8.00 Z0.40 E5.00 ; sets the jerk limits, mm/sec
M205 S0 T0 ; sets the minimum extruding and travel feed rate, mm/sec

; printing object test.STL id:0 copy 0
; stop printing object test.STL id:0 copy 0

;TYPE:Custom
G90 ; use absolute coordinates
M83 ; extruder relative mode
M104 S150 ; set temporary nozzle temp to prevent oozing during homing
M140 S60 ; set final bed temp
G4 S30 ; allow partial nozzle warmup
G28 ; home all axis and restore leveling
G1 Z50 F240
G1 X2.0 Y10 F3000
M104 S210 ; set final nozzle temp
M190 S60 ; wait for bed temp to stabilize
M109 S210 ; wait for nozzle temp to stabilize
G1 Z0.28 F240
G92 E0
G1 X2.0 Y140 E10 F1500 ; prime the nozzle
G1 X2.3 Y140 F5000
G92 E0
G1 X2.3 Y10 E10 F1200 ; prime the nozzle
G92 E0
G21 ; set units to millimeters
G90 ; use absolute coordinates
M83 ; use relative distances for extrusion
; Filament gcode
M107
;LAYER_CHANGE
;Z:0.2
;HEIGHT:0.2
;BEFORE_LAYER_CHANGE
G92 E0
;0.2


G1 E-.8 F1800
G1 Z.2 F9000
;AFTER_LAYER_CHANGE
;0.2
G1 X100.389 Y100.166
G1 Z.2
G1 E.8 F1800
M204 S500
;TYPE:Skirt/Brim
;WIDTH:0.42
G1 F1200
G1 X101.387 Y99.283 E.04178
G1 X102.888 Y98.231 E.05747
G1 X104.116 Y97.572 E.0437
G1 X105.403 Y97.04 E.04366
G1 X106.738 Y96.642 E.04368
G1 X108.106 Y96.38 E.04367
G1 X109.494 Y96.259 E.04368
G1 X110.886 Y96.278 E.04365
G1 X111.894 Y96.38 E.03177
G1 X113.262 Y96.642 E.04367
G1 X114.597 Y97.04 E.04368
G1 X115.884 Y97.572 E.04366
G1 X117.112 Y98.231 E.0437
G1 X118.266 Y99.011 E.04367
G1 X119.335 Y99.904 E.04367
G1 X120.309 Y100.9 E.04368
G1 X121.176 Y101.989 E.04364
G1 X121.929 Y103.161 E.04368
G1 X122.56 Y104.403 E.04368
G1 X123.062 Y105.703 E.04369
G1 X123.43 Y107.046 E.04366
G1 X123.66 Y108.42 E.04368
G1 X123.749 Y109.81 E.04367
G1 X123.698 Y111.202 E.04367
G1 X123.43 Y112.954 E.05557
G1 X123.062 Y114.297 E.04366
G1 X122.56 Y115.597 E.04369
G1 X121.929 Y116.839 E.04368
G1 X121.176 Y118.011 E.04368
G1 X120.309 Y119.1 E.04364
G1 X119.335 Y120.096 E.04368
G1 X118.266 Y120.989 E.04367
G1 X117.112 Y121.769 E.04367
G1 X115.884 Y122.428 E.0437
G1 X114.597 Y122.96 E.04366
G1 X113.262 Y123.358 E.04368
G1 X111.894 Y123.62 E.04367
G1 X110.506 Y123.741 E.04368
G1 X109.114 Y123.722 E.04365
G1 X107.73 Y123.562 E.04368
G1 X106.37 Y123.263 E.04366
G1 X105.046 Y122.827 E.04371
G1 X103.774 Y122.26 E.04367
G1 X102.888 Y121.769 E.03176
G1 X101.734 Y120.989 E.04367
G1 X100.665 Y120.096 E.04367
G1 X99.691 Y119.1 E.04368
G1 X98.824 Y118.011 E.04364
G1 X98.071 Y116.839 E.04368
G1 X97.44 Y115.597 E.04368
G1 X96.938 Y114.297 E.04369
G1 X96.57 Y112.954 E.04366
G1 X96.34 Y111.58 E.04368
G1 X96.251 Y110.19 E.04367
G1 X96.302 Y108.798 E.04367
G1 X96.494 Y107.419 E.04365
G1 X96.824 Y106.065 E.0437
G1 X97.29 Y104.753 E.04365
G1 X97.886 Y103.494 E.04367
G1 X98.606 Y102.301 E.04369
G1 X99.444 Y101.188 E.04368
G1 X100.349 Y100.21 E.04178
G1 X100.625 Y100.466 F9000
G1 F1200
G1 X100.663 Y100.425 E.00175
G1 X101.633 Y99.569 E.04056
G1 X103.071 Y98.561 E.05506
G1 X104.264 Y97.919 E.04248
G1 X105.516 Y97.4 E.04249
G1 X106.814 Y97.011 E.04249
G1 X108.144 Y96.756 E.04246
G1 X109.494 Y96.636 E.0425
G1 X110.848 Y96.653 E.04246
G1 X111.856 Y96.756 E.03177
G1 X113.187 Y97.011 E.04249
G1 X114.484 Y97.4 E.04246
G1 X115.736 Y97.919 E.04249
G1 X116.929 Y98.561 E.04248
G1 X118.05 Y99.321 E.04246
G1 X119.089 Y100.19 E.04247
G1 X120.035 Y101.16 E.04248
G1 X120.878 Y102.22 E.04246
G1 X121.609 Y103.361 E.04249
G1 X122.222 Y104.569 E.04247
G1 X122.708 Y105.833 E.04246
G1 X123.065 Y107.141 E.04251
G1 X123.287 Y108.477 E.04246
G1 X123.373 Y109.829 E.04248
G1 X123.321 Y111.183 E.04249
G1 X123.065 Y112.859 E.05316
G1 X122.708 Y114.167 E.04251
G1 X122.222 Y115.431 E.04246
G1 X121.609 Y116.639 E.04247
G1 X120.878 Y117.78 E.04249
G1 X120.035 Y118.84 E.04246
G1 X119.089 Y119.81 E.04248
G1 X118.05 Y120.68 E.04249
G1 X116.929 Y121.439 E.04245
G1 X115.736 Y122.081 E.04248
G1 X114.484 Y122.6 E.04249
G1 X113.186 Y122.989 E.04249
G1 X111.856 Y123.244 E.04246
G1 X110.506 Y123.364 E.0425
G1 X109.152 Y123.347 E.04246
G1 X108.144 Y123.244 E.03177
G1 X106.814 Y122.989 E.04246
G1 X105.516 Y122.6 E.04249
G1 X104.264 Y122.081 E.04249
G1 X103.071 Y121.439 E.04248
G1 X101.95 Y120.68 E.04245
G1 X100.911 Y119.81 E.04249
G1 X99.965 Y118.84 E.04248
G1 X99.122 Y117.78 E.04246
G1 X98.391 Y116.639 E.04249
G1 X97.778 Y115.431 E.04247
G1 X97.292 Y114.166 E.04249
G1 X96.935 Y112.859 E.04248
G1 X96.713 Y111.523 E.04246
G1 X96.627 Y110.171 E.04248
G1 X96.679 Y108.817 E.04249
G1 X96.867 Y107.476 E.04246
G1 X97.189 Y106.16 E.04248
G1 X97.644 Y104.883 E.04251
G1 X98.225 Y103.66 E.04245
G1 X98.926 Y102.501 E.04247
G1 X99.742 Y101.419 E.04249
G1 X100.584 Y100.51 E.03885
; printing object test.STL id:0 copy 0
;WIPE_START
G1 F7200
G1 X100.625 Y100.466 E-.01428
G1 X100.663 Y100.425 E-.01328
G1 X101.633 Y99.569 E-.30725
G1 X103.071 Y98.561 E-.41708
G1 X103.249 Y98.465 E-.04811
;WIPE_END
G1 X103.844 Y103.524 F9000
G1 E.8 F1800
;TYPE:Perimeter
;WIDTH:0.419999
G1 F1200
G1 X104.531 Y102.935 E.02837
G1 X105.274 Y102.418 E.02838
G1 X106.065 Y101.979 E.02836
G1 X106.897 Y101.622 E.02839
G1 X107.761 Y101.351 E.02839
G1 X108.647 Y101.169 E.02836
G1 X109.547 Y101.077 E.02837
G1 X110.453 Y101.077 E.02841
G1 X111.353 Y101.169 E.02837
G1 X112.239 Y101.351 E.02836
G1 X113.103 Y101.622 E.02839
G1 X113.935 Y101.979 E.02839
G1 X114.726 Y102.418 E.02836
G1 X115.469 Y102.935 E.02838
G1 X116.156 Y103.524 E.02837
G1 X116.779 Y104.18 E.02837
G1 X117.333 Y104.896 E.02839
G1 X117.812 Y105.664 E.02838
G1 X118.21 Y106.477 E.02838
G1 X118.525 Y107.325 E.02836
G1 X118.752 Y108.202 E.0284
G1 X118.866 Y108.952 E.02379
G1 X118.907 Y109.455 E.01582
G1 X118.927 Y110.146 E.02167
G1 X118.889 Y110.904 E.0238
G1 X118.752 Y111.798 E.02836
G1 X118.525 Y112.675 E.0284
G1 X118.21 Y113.523 E.02836
G1 X117.812 Y114.336 E.02838
G1 X117.333 Y115.104 E.02838
G1 X116.779 Y115.82 E.02839
G1 X116.156 Y116.476 E.02837
G1 X115.469 Y117.065 E.02837
G1 X114.726 Y117.582 E.02838
G1 X113.935 Y118.021 E.02836
G1 X113.103 Y118.378 E.02839
G1 X112.239 Y118.649 E.02839
G1 X111.353 Y118.831 E.02836
G1 X110.453 Y118.923 E.02837
G1 X109.547 Y118.923 E.02841
G1 X108.647 Y118.831 E.02837
G1 X107.761 Y118.649 E.02836
G1 X106.897 Y118.378 E.02839
G1 X106.065 Y118.021 E.02839
G1 X105.274 Y117.582 E.02836
G1 X104.531 Y117.065 E.02838
G1 X103.844 Y116.476 E.02837
G1 X103.221 Y115.82 E.02837
G1 X102.667 Y115.104 E.02839
G1 X102.188 Y114.336 E.02838
G1 X101.79 Y113.523 E.02838
G1 X101.475 Y112.675 E.02836
G1 X101.248 Y111.798 E.0284
G1 X101.111 Y110.904 E.02836
G1 X101.066 Y110 E.02838
G1 X101.111 Y109.096 E.02838
G1 X101.248 Y108.201 E.02839
G1 X101.475 Y107.325 E.02837
G1 X101.79 Y106.477 E.02836
G1 X102.188 Y105.664 E.02838
G1 X102.667 Y104.896 E.02838
G1 X103.221 Y104.18 E.02839
G1 X103.803 Y103.568 E.02648
G1 X103.584 Y103.251 F9000
G1 F1200
G1 X104.3 Y102.636 E.02959
G1 X105.074 Y102.097 E.02957
G1 X105.899 Y101.64 E.02957
G1 X106.766 Y101.268 E.02958
G1 X107.666 Y100.985 E.02958
G1 X108.59 Y100.795 E.02958
G1 X109.528 Y100.7 E.02956
G1 X110.472 Y100.7 E.0296
G1 X111.41 Y100.795 E.02956
G1 X112.334 Y100.985 E.02958
G1 X113.234 Y101.268 E.02958
G1 X114.101 Y101.64 E.02958
G1 X114.926 Y102.097 E.02957
G1 X115.7 Y102.636 E.02957
G1 X116.416 Y103.251 E.02959
G1 X117.066 Y103.934 E.02956
G1 X117.643 Y104.68 E.02957
G1 X118.142 Y105.481 E.02959
G1 X118.557 Y106.328 E.02957
G1 X118.885 Y107.212 E.02956
G1 X119.121 Y108.125 E.02957
G1 X119.239 Y108.894 E.02439
G1 X119.283 Y109.436 E.01705
G1 X119.304 Y110.165 E.02287
G1 X119.264 Y110.942 E.02439
G1 X119.121 Y111.875 E.0296
G1 X118.885 Y112.788 E.02957
G1 X118.557 Y113.672 E.02956
G1 X118.142 Y114.519 E.02957
G1 X117.643 Y115.32 E.02959
G1 X117.066 Y116.066 E.02957
G1 X116.416 Y116.749 E.02956
G1 X115.7 Y117.364 E.02959
G1 X114.926 Y117.903 E.02957
G1 X114.101 Y118.36 E.02957
G1 X113.234 Y118.732 E.02958
G1 X112.334 Y119.015 E.02958
G1 X111.41 Y119.205 E.02958
G1 X110.472 Y119.3 E.02956
G1 X109.528 Y119.3 E.0296
G1 X108.59 Y119.205 E.02956
G1 X107.666 Y119.015 E.02958
G1 X106.766 Y118.732 E.02958
G1 X105.899 Y118.36 E.02958
G1 X105.074 Y117.903 E.02957
G1 X104.3 Y117.364 E.02957
G1 X103.584 Y116.749 E.02959
G1 X102.934 Y116.066 E.02956
G1 X102.357 Y115.32 E.02957
G1 X101.858 Y114.519 E.02959
G1 X101.443 Y113.672 E.02957
G1 X101.115 Y112.788 E.02956
G1 X100.879 Y111.875 E.02957
G1 X100.736 Y110.942 E.0296
G1 X100.688 Y110 E.02957
G1 X100.736 Y109.058 E.02957
G1 X100.879 Y108.125 E.0296
G1 X101.115 Y107.212 E.02957
G1 X101.443 Y106.328 E.02956
G1 X101.858 Y105.481 E.02957
G1 X102.357 Y104.68 E.02959
G1 X102.934 Y103.934 E.02957
G1 X103.543 Y103.294 E.0277
G1 X103.324 Y102.977 F9000
;TYPE:External perimeter
G1 F1200
G1 X104.069 Y102.338 E.03077
G1 X104.875 Y101.777 E.03079
G1 X105.733 Y101.301 E.03076
G1 X106.635 Y100.914 E.03077
G1 X107.571 Y100.62 E.03076
G1 X108.533 Y100.422 E.0308
G1 X109.509 Y100.323 E.03076
G1 X110.491 Y100.323 E.03079
G1 X111.467 Y100.422 E.03076
G1 X112.429 Y100.62 E.0308
G1 X113.365 Y100.914 E.03076
G1 X114.267 Y101.301 E.03077
G1 X115.125 Y101.777 E.03076
G1 X115.931 Y102.338 E.03079
G1 X116.676 Y102.977 E.03077
G1 X117.352 Y103.688 E.03076
G1 X117.953 Y104.465 E.0308
G1 X118.472 Y105.298 E.03077
G1 X118.904 Y106.179 E.03077
G1 X119.245 Y107.099 E.03076
G1 X119.491 Y108.049 E.03077
G1 X119.612 Y108.837 E.025
G1 X119.66 Y109.417 E.01825
G1 X119.68 Y110.184 E.02406
G1 X119.64 Y110.98 E.02499
G1 X119.491 Y111.951 E.0308
G1 X119.245 Y112.901 E.03077
G1 X118.904 Y113.821 E.03076
G1 X118.472 Y114.702 E.03077
G1 X117.953 Y115.535 E.03077
G1 X117.352 Y116.312 E.0308
G1 X116.676 Y117.023 E.03076
G1 X115.931 Y117.662 E.03077
G1 X115.125 Y118.223 E.03079
G1 X114.267 Y118.699 E.03076
G1 X113.365 Y119.086 E.03077
G1 X112.429 Y119.38 E.03076
G1 X111.467 Y119.578 E.0308
G1 X110.491 Y119.677 E.03076
G1 X109.509 Y119.677 E.03079
G1 X108.533 Y119.578 E.03076
G1 X107.571 Y119.38 E.0308
G1 X106.635 Y119.086 E.03076
G1 X105.733 Y118.699 E.03077
G1 X104.875 Y118.223 E.03076
G1 X104.069 Y117.662 E.03079
G1 X103.324 Y117.023 E.03077
G1 X102.648 Y116.312 E.03076
G1 X102.047 Y115.535 E.0308
G1 X101.528 Y114.702 E.03077
G1 X101.096 Y113.821 E.03077
G1 X100.755 Y112.901 E.03076
G1 X100.509 Y111.951 E.03077
G1 X100.36 Y110.98 E.0308
G1 X100.31 Y110 E.03077
G1 X100.36 Y109.02 E.03077
G1 X100.509 Y108.049 E.0308
G1 X100.755 Y107.099 E.03077
G1 X101.096 Y106.179 E.03076
G1 X101.528 Y105.298 E.03077
G1 X102.047 Y104.465 E.03077
G1 X102.648 Y103.688 E.0308
G1 X103.283 Y103.021 E.02888
;WIPE_START
G1 F7200
G1 X103.324 Y102.977 E-.01428
G1 X104.069 Y102.338 E-.23311
G1 X104.875 Y101.777 E-.23323
G1 X105.733 Y101.301 E-.23303
G1 X106.067 Y101.157 E-.08635
;WIPE_END
G1 X108.167 Y107.498 F9000
G1 E.8 F1800
;TYPE:Perimeter
G1 F1200
G1 X108.349 Y107.444 E.00595
G1 X111.525 Y107.436 E.09958
G1 X111.792 Y107.474 E.00846
G1 X112.139 Y107.663 E.01239
G1 X112.514 Y108.082 E.01763
G1 X112.801 Y108.532 E.01673
G1 X113.008 Y109.024 E.01674
G1 X113.129 Y109.544 E.01674
G1 X113.161 Y110.077 E.01674
G1 X113.103 Y110.608 E.01675
G1 X112.957 Y111.121 E.01672
G1 X112.726 Y111.603 E.01676
G1 X112.418 Y112.038 E.01671
G1 X112.04 Y112.416 E.01676
G1 X111.605 Y112.725 E.01673
G1 X111.124 Y112.956 E.01673
G1 X110.61 Y113.103 E.01676
G1 X110.08 Y113.161 E.01672
G1 X109.547 Y113.13 E.01674
G1 X109.027 Y113.009 E.01674
G1 X108.534 Y112.802 E.01676
G1 X108.084 Y112.516 E.01672
G1 X107.688 Y112.157 E.01676
G1 X107.358 Y111.738 E.01672
G1 X107.103 Y111.269 E.01674
G1 X106.931 Y110.763 E.01676
G1 X106.847 Y110.236 E.01673
G1 X106.852 Y109.702 E.01674
G1 X106.947 Y109.177 E.01673
G1 X107.129 Y108.675 E.01674
G1 X107.393 Y108.211 E.01674
G1 X107.76 Y107.763 E.01816
G1 X108.07 Y107.527 E.01222
G1 X108.109 Y107.515 E.00128
G1 X108.286 Y107.862 F9000
G1 F1200
G1 X108.399 Y107.818 E.0038
G1 X111.525 Y107.813 E.09801
G1 X111.768 Y107.868 E.00781
G1 X111.954 Y108.009 E.00732
G1 X112.28 Y108.398 E.01591
G1 X112.52 Y108.812 E.015
G1 X112.684 Y109.253 E.01475
G1 X112.771 Y109.715 E.01474
G1 X112.78 Y110.186 E.01477
G1 X112.709 Y110.651 E.01475
G1 X112.561 Y111.097 E.01473
G1 X112.34 Y111.512 E.01474
G1 X112.052 Y111.884 E.01475
G1 X111.706 Y112.203 E.01476
G1 X111.311 Y112.458 E.01474
G1 X110.879 Y112.644 E.01475
G1 X110.422 Y112.754 E.01474
G1 X109.952 Y112.785 E.01477
G1 X109.484 Y112.738 E.01475
G1 X109.031 Y112.612 E.01474
G1 X108.606 Y112.412 E.01473
G1 X108.22 Y112.143 E.01475
G1 X107.885 Y111.813 E.01474
G1 X107.61 Y111.431 E.01476
G1 X107.349 Y110.835 E.0204
G1 X107.27 Y110.557 E.00906
G1 X107.22 Y110.186 E.01174
G1 X107.231 Y109.684 E.01574
G1 X107.332 Y109.194 E.01569
G1 X107.52 Y108.73 E.0157
G1 X107.887 Y108.194 E.02037
G1 X108.154 Y107.913 E.01215
G1 X108.23 Y107.883 E.00256
G1 X108.421 Y108.198 F9000
;TYPE:External perimeter
G1 F1200
G1 X109.125 Y108.19 E.02207
G1 X111.525 Y108.19 E.07525
G1 X111.668 Y108.255 E.00493
G1 X111.961 Y108.6 E.01419
G1 X112.169 Y108.95 E.01277
G1 X112.354 Y109.521 E.01882
G1 X112.408 Y110.103 E.01833
G1 X112.349 Y110.538 E.01376
G1 X112.225 Y110.926 E.01277
G1 X112.038 Y111.287 E.01275
G1 X111.654 Y111.743 E.01869
G1 X111.184 Y112.099 E.01849
G1 X110.784 Y112.279 E.01375
G1 X110.39 Y112.378 E.01274
G1 X109.984 Y112.41 E.01277
G1 X109.398 Y112.326 E.01856
G1 X108.844 Y112.114 E.0186
G1 X108.48 Y111.87 E.01374
G1 X108.187 Y111.587 E.01277
G1 X107.946 Y111.26 E.01274
G1 X107.709 Y110.723 E.0184
G1 X107.594 Y110.135 E.01879
G1 X107.609 Y109.697 E.01374
G1 X107.694 Y109.299 E.01276
G1 X107.845 Y108.921 E.01276
G1 X108.173 Y108.44 E.01825
G1 X108.378 Y108.24 E.00898
;WIPE_START
G1 F7200
G1 X108.421 Y108.198 E-.01428
G1 X109.125 Y108.19 E-.16721
G1 X111.525 Y108.19 E-.57
G1 X111.668 Y108.255 E-.03731
G1 X111.699 Y108.291 E-.0112
;WIPE_END
G1 X114.905 Y102.689 F9000
G1 E.8 F1800
;TYPE:Solid infill
;WIDTH:0.426819
G1 F1200
G1 X116.044 Y103.829 E.05144
G1 X116.559 Y104.37 E.02384
G1 X117.094 Y105.062 E.02792
G1 X117.558 Y105.805 E.02796
G1 X117.634 Y105.962 E.00557
G1 X114.044 Y102.371 E.16209
G1 X113.807 Y102.24 E.00864
G1 X113.041 Y101.911 E.02661
G1 X118.074 Y106.944 E.22721
G1 X118.247 Y107.412 E.01593
G1 X118.334 Y107.747 E.01105
G1 X112.243 Y101.656 E.27497
G1 X111.549 Y101.505 E.02267
G1 X118.496 Y108.452 E.31361
G1 X118.595 Y109.094 E.02074
G1 X110.917 Y101.416 E.34661
G1 X110.325 Y101.367 E.01896
G1 X118.627 Y109.669 E.37478
G1 X118.644 Y110 E.01058
G1 X118.633 Y110.218 E.00697
G1 X109.782 Y101.367 E.39957
G1 X109.562 Y101.367 E.00702
G1 X109.269 Y101.397 E.0094
G1 X118.607 Y110.734 E.42153
G1 X118.547 Y111.218 E.01557
G1 X108.777 Y101.447 E.44108
G1 X108.319 Y101.532 E.01487
G1 X118.475 Y111.688 E.45848
G1 X118.367 Y112.124 E.01434
G1 X107.868 Y101.625 E.47396
G1 X107.452 Y101.752 E.01388
G1 X118.256 Y112.555 E.48771
G1 X118.112 Y112.954 E.01354
G1 X107.039 Y101.881 E.49987
G1 X106.656 Y102.041 E.01325
G1 X111.793 Y107.178 E.2319
G1 X112.055 Y107.265 E.00881
G1 X112.226 Y107.363 E.00629
G1 X112.417 Y107.527 E.00804
G1 X112.777 Y107.944 E.01759
G1 X113.091 Y108.476 E.01972
G1 X117.965 Y113.35 E.22003
G1 X117.791 Y113.719 E.01302
G1 X113.371 Y109.299 E.19953
G1 X113.426 Y109.551 E.00823
G1 X113.44 Y109.911 E.0115
G1 X117.612 Y114.083 E.18834
G1 X117.413 Y114.427 E.01269
G1 X113.415 Y110.429 E.18048
G1 X113.364 Y110.788 E.01157
G1 X113.331 Y110.888 E.00336
G1 X117.204 Y114.761 E.17484
G1 X116.983 Y115.082 E.01244
G1 X113.198 Y111.298 E.17085
G1 X113.014 Y111.656 E.01285
G1 X116.746 Y115.388 E.16848
G1 X116.503 Y115.689 E.01235
G1 X112.811 Y111.996 E.16669
G1 X112.573 Y112.301 E.01235
G1 X116.238 Y115.967 E.16547
G1 X115.974 Y116.245 E.01224
