; generated by PrusaSlicer 2.7.1+win64 on 2025-04-04 at 12:42:04 UTC

; 

; external perimeters extrusion width = 0.42mm
; perimeters extrusion width = 0.44mm
; infill extrusion width = 0.44mm
; solid infill extrusion width = 0.44mm
; top infill extrusion width = 0.40mm
; support material extrusion width = 0.36mm
; first layer extrusion width = 0.42mm

M201 X500 Y500 Z100 E5000 ; sets maximum accelerations, mm/sec^2
M203 X500 Y500 Z10 E60 ; sets maximum feedrates, mm / sec
M204 S500 T1000 ; sets acceleration (S) and retract acceleration (R), mm/sec^2
M205 X8.00 Y8.00 Z0.40 E5.00 ; sets the jerk limits, mm/sec
M205 S0 T0 ; sets the minimum extruding and travel feed rate, mm/sec

; printing object v2_derjatelperedneekoleso.STL id:0 copy 0
; stop printing object v2_derjatelperedneekoleso.STL id:0 copy 0

;TYPE:Custom
G90 ; use absolute coordinates
M83 ; extruder relative mode
M104 S150 ; set temporary nozzle temp to prevent oozing during homing
M140 S60 ; set final bed temp
G4 S30 ; allow partial nozzle warmup
G28 ; home all axis and restore leveling
G1 Z50 F240
G1 X2.0 Y10 F3000
M104 S210 ; set final nozzle temp
M190 S60 ; wait for bed temp to stabilize
M109 S210 ; wait for nozzle temp to stabilize
G1 Z0.28 F240
G92 E0
G1 X2.0 Y140 E10 F1500 ; prime the nozzle
G1 X2.3 Y140 F5000
G92 E0
G1 X2.3 Y10 E10 F1200 ; prime the nozzle
G92 E0
G21 ; set units to millimeters
G90 ; use absolute coordinates
M83 ; use relative distances for extrusion
; Filament gcode
M107
;LAYER_CHANGE
;Z:0.2
;HEIGHT:0.2
;BEFORE_LAYER_CHANGE
G92 E0
;0.2


G1 E-.8 F1800
G1 Z.2 F9000
;AFTER_LAYER_CHANGE
;0.2
G1 X78.141 Y80.962
G1 Z.2
G1 E.8 F1800
M204 S500
;TYPE:Skirt/Brim
;WIDTH:0.42
G1 F1200
G1 X79.539 Y80.121 E.05115
G1 X80.529 Y79.973 E.03139
G1 X139.471 Y79.973 E1.84809
G1 X141.054 Y80.367 E.05115
G1 X141.859 Y80.962 E.03139
G1 X144.788 Y83.891 E.12988
G1 X145.629 Y85.289 E.05115
G1 X145.777 Y86.279 E.03139
G1 X145.777 Y95.221 E.28037
G1 X145.669 Y96.07 E.02683
G1 X135.669 Y134.57 E1.2472
G1 X134.788 Y136.109 E.0556
G1 X131.859 Y139.038 E.12988
G1 X130.461 Y139.879 E.05115
G1 X129.471 Y140.027 E.03139
G1 X90.529 Y140.027 E1.221
G1 X88.946 Y139.633 E.05115
G1 X88.141 Y139.038 E.03139
G1 X85.212 Y136.109 E.12988
G1 X84.331 Y134.57 E.0556
G1 X74.331 Y96.07 E1.2472
G1 X74.223 Y95.221 E.02683
G1 X74.223 Y86.279 E.28037
G1 X74.617 Y84.696 E.05115
G1 X75.212 Y83.891 E.03139
G1 X78.099 Y81.004 E.12801
;WIPE_START
G1 F7200
G1 X78.141 Y80.962 E-.01411
G1 X79.539 Y80.121 E-.38747
G1 X80.529 Y79.973 E-.23774
G1 X81.206 Y79.973 E-.16068
;WIPE_END
G1 X80.252 Y84.216 F9000
G1 E.8 F1800
G1 F1200
G1 X82.065 Y83.636 E.05968
G1 X137.886 Y83.64 E1.75023
G1 X138.959 Y83.864 E.03437
G1 X139.886 Y84.306 E.0322
G1 X140.959 Y85.236 E.04452
G1 X141.702 Y86.342 E.04178
G1 X142.069 Y87.524 E.03881
G1 X142.107 Y93.719 E.19424
G1 X141.718 Y95.12 E.04559
G1 X141.178 Y96.006 E.03253
G1 X140.385 Y96.824 E.03572
G1 X139.471 Y97.421 E.03423
G1 X138.052 Y97.845 E.04644
G1 X132.113 Y97.861 E.18621
G1 X132.113 Y132.171 E1.07577
G1 X131.766 Y133.511 E.0434
G1 X131.045 Y134.671 E.04282
G1 X130.436 Y135.28 E.027
G1 X129.748 Y135.784 E.02674
G1 X127.935 Y136.363 E.05967
G1 X92.079 Y136.363 E1.12424
G1 X90.739 Y136.016 E.0434
G1 X89.579 Y135.295 E.04282
G1 X88.97 Y134.686 E.027
G1 X88.466 Y133.998 E.02674
G1 X87.887 Y132.185 E.05967
G1 X87.887 Y97.861 E1.0762
G1 X81.835 Y97.829 E.18976
G1 X80.779 Y97.534 E.03438
G1 X79.799 Y96.971 E.03544
G1 X78.699 Y95.848 E.04929
G1 X78.186 Y94.888 E.03413
G1 X77.887 Y93.66 E.03963
G1 X77.887 Y87.829 E.18283
G1 X78.234 Y86.489 E.0434
G1 X78.955 Y85.329 E.04282
G1 X79.564 Y84.72 E.027
G1 X80.203 Y84.252 E.02483
G1 X80.425 Y84.556 F9000
G1 F1200
G1 X80.449 Y84.539 E.00092
G1 X82.094 Y84.014 E.05414
G1 X137.867 Y84.017 E1.74872
G1 X138.82 Y84.215 E.03052
G1 X139.66 Y84.608 E.02908
G1 X140.693 Y85.504 E.04288
G1 X141.351 Y86.483 E.03698
G1 X141.692 Y87.555 E.03527
G1 X141.73 Y93.694 E.19249
G1 X141.363 Y94.991 E.04226
G1 X140.869 Y95.789 E.02943
G1 X140.129 Y96.545 E.03317
G1 X139.335 Y97.069 E.02983
G1 X138.023 Y97.468 E.043
G1 X131.736 Y97.484 E.19713
G1 X131.736 Y132.146 E1.0868
G1 X131.409 Y133.387 E.04024
G1 X130.763 Y134.419 E.03817
G1 X130.18 Y135.003 E.02587
G1 X129.551 Y135.461 E.0244
G1 X127.906 Y135.986 E.05414
G1 X92.104 Y135.986 E1.12255
G1 X90.863 Y135.659 E.04024
G1 X89.831 Y135.013 E.03817
G1 X89.247 Y134.43 E.02587
G1 X88.789 Y133.801 E.0244
G1 X88.264 Y132.156 E.05414
G1 X88.264 Y97.485 E1.08708
G1 X81.913 Y97.459 E.19913
G1 X80.904 Y97.177 E.03285
G1 X80.011 Y96.658 E.03238
G1 X79.018 Y95.645 E.04448
G1 X78.546 Y94.773 E.03109
G1 X78.264 Y93.636 E.03673
G1 X78.264 Y87.854 E.18129
G1 X78.591 Y86.613 E.04024
G1 X79.237 Y85.581 E.03817
G1 X79.82 Y84.997 E.02587
G1 X80.377 Y84.591 E.02161
G1 X80.598 Y84.896 F9000
G1 F1200
G1 X80.646 Y84.862 E.00184
G1 X82.123 Y84.391 E.04861
G1 X137.848 Y84.394 E1.74722
G1 X138.683 Y84.567 E.02674
G1 X139.434 Y84.911 E.0259
G1 X140.427 Y85.773 E.04123
G1 X141.002 Y86.625 E.03223
G1 X141.315 Y87.587 E.03172
G1 X141.352 Y93.669 E.1907
G1 X141.009 Y94.86 E.03886
G1 X140.561 Y95.57 E.02632
G1 X139.874 Y96.267 E.03069
G1 X139.196 Y96.717 E.02551
G1 X137.993 Y97.091 E.0395
G1 X131.359 Y97.108 E.20801
G1 X131.359 Y132.121 E1.09781
G1 X131.053 Y133.261 E.03701
G1 X130.482 Y134.167 E.03358
G1 X129.924 Y134.726 E.02476
G1 X129.354 Y135.138 E.02205
G1 X127.877 Y135.609 E.04861
G1 X92.129 Y135.609 E1.12085
G1 X90.989 Y135.303 E.03701
G1 X90.083 Y134.732 E.03358
G1 X89.524 Y134.174 E.02476
G1 X89.112 Y133.604 E.02205
G1 X88.641 Y132.127 E.04861
G1 X88.641 Y97.109 E1.09796
G1 X81.987 Y97.089 E.20863
G1 X81.072 Y96.838 E.02975
G1 X80.222 Y96.345 E.03081
G1 X79.336 Y95.441 E.03969
G1 X78.905 Y94.656 E.02808
G1 X78.641 Y93.612 E.03376
G1 X78.641 Y87.879 E.17975
G1 X78.947 Y86.739 E.03701
G1 X79.518 Y85.833 E.03358
G1 X80.076 Y85.274 E.02476
G1 X80.549 Y84.932 E.0183
G1 X80.769 Y85.237 F9000
G1 F1200
G1 X80.841 Y85.185 E.00278
G1 X82.152 Y84.768 E.04313
G1 X137.829 Y84.771 E1.74571
G1 X138.548 Y84.92 E.02302
G1 X139.208 Y85.215 E.02267
G1 X140.161 Y86.042 E.03956
G1 X140.653 Y86.77 E.02755
G1 X140.938 Y87.621 E.02814
G1 X140.982 Y93.591 E.18719
G1 X140.654 Y94.728 E.0371
G1 X140.255 Y95.349 E.02314
G1 X139.62 Y95.988 E.02825
G1 X139.056 Y96.366 E.02129
G1 X137.963 Y96.714 E.03597
G1 X130.982 Y96.732 E.21889
G1 X130.982 Y132.095 E1.10878
G1 X130.697 Y133.133 E.03375
G1 X130.201 Y133.915 E.02904
G1 X129.668 Y134.448 E.02363
G1 X129.159 Y134.815 E.01968
G1 X127.848 Y135.232 E.04313
G1 X92.155 Y135.232 E1.11913
G1 X91.117 Y134.947 E.03375
G1 X90.335 Y134.451 E.02904
G1 X89.802 Y133.918 E.02363
G1 X89.435 Y133.409 E.01968
G1 X89.018 Y132.098 E.04313
G1 X89.018 Y96.732 E1.10888
G1 X82.063 Y96.719 E.21807
G1 X81.196 Y96.481 E.02819
G1 X80.436 Y96.034 E.02765
G1 X79.624 Y95.197 E.03656
G1 X79.264 Y94.539 E.02352
G1 X79.018 Y93.588 E.0308
G1 X79.018 Y87.905 E.17819
G1 X79.303 Y86.867 E.03375
G1 X79.799 Y86.085 E.02904
G1 X80.332 Y85.552 E.02363
G1 X80.72 Y85.272 E.015
G1 X80.939 Y85.579 F9000
G1 F1200
G1 X81.036 Y85.51 E.00373
G1 X82.182 Y85.145 E.03771
G1 X137.81 Y85.148 E1.74418
G1 X138.413 Y85.273 E.01931
G1 X139.028 Y85.547 E.02111
G1 X139.893 Y86.308 E.03612
G1 X140.324 Y86.956 E.0244
G1 X140.571 Y87.71 E.02488
G1 X140.605 Y93.566 E.18361
G1 X140.321 Y94.549 E.03208
G1 X139.972 Y95.099 E.02042
G1 X139.391 Y95.688 E.02594
G1 X138.914 Y96.016 E.01815
G1 X137.876 Y96.346 E.03415
G1 X130.605 Y96.355 E.22798
G1 X130.605 Y132.068 E1.11976
G1 X130.342 Y133.004 E.03048
G1 X129.92 Y133.663 E.02454
G1 X129.413 Y134.17 E.02248
G1 X128.964 Y134.49 E.01729
G1 X127.819 Y134.855 E.03768
G1 X92.182 Y134.855 E1.11737
G1 X91.246 Y134.592 E.03048
G1 X90.587 Y134.17 E.02454
G1 X90.08 Y133.663 E.02248
G1 X89.76 Y133.214 E.01729
G1 X89.395 Y132.069 E.03768
G1 X89.395 Y96.355 E1.11979
G1 X82.138 Y96.348 E.22754
G1 X81.321 Y96.125 E.02655
G1 X80.652 Y95.724 E.02446
G1 X79.914 Y94.954 E.03344
G1 X79.623 Y94.42 E.01907
G1 X79.395 Y93.563 E.02781
G1 X79.395 Y87.932 E.17656
G1 X79.658 Y86.996 E.03048
G1 X80.08 Y86.337 E.02454
G1 X80.587 Y85.83 E.02248
G1 X80.89 Y85.614 E.01167
G1 X81.107 Y85.921 F9000
G1 F1200
G1 X81.23 Y85.834 E.00472
G1 X82.211 Y85.522 E.03228
G1 X137.789 Y85.526 E1.74261
G1 X138.314 Y85.637 E.01682
G1 X138.845 Y85.878 E.01828
G1 X139.623 Y86.571 E.03267
G1 X139.994 Y87.14 E.0213
G1 X140.203 Y87.796 E.02159
G1 X140.228 Y93.54 E.1801
G1 X139.988 Y94.372 E.02715
G1 X139.688 Y94.85 E.01769
G1 X139.158 Y95.391 E.02375
G1 X138.77 Y95.666 E.01491
G1 X137.789 Y95.978 E.03228
G1 X130.228 Y95.978 E.23707
G1 X130.228 Y132.041 E1.13073
G1 X129.988 Y132.871 E.02709
G1 X129.64 Y133.41 E.02012
G1 X129.158 Y133.892 E.02137
G1 X128.77 Y134.166 E.01489
G1 X127.789 Y134.478 E.03228
G1 X92.209 Y134.478 E1.11559
G1 X91.379 Y134.238 E.02709
G1 X90.84 Y133.89 E.02012
G1 X90.358 Y133.408 E.02137
G1 X90.084 Y133.02 E.01489
G1 X89.772 Y132.039 E.03228
G1 X89.772 Y95.978 E1.13067
G1 X82.213 Y95.978 E.23701
G1 X81.447 Y95.768 E.0249
G1 X80.871 Y95.416 E.02117
G1 X80.205 Y94.714 E.03034
G1 X79.98 Y94.299 E.0148
G1 X79.772 Y93.537 E.02477
G1 X79.772 Y87.959 E.17489
G1 X80.012 Y87.129 E.02709
G1 X80.36 Y86.59 E.02012
G1 X80.842 Y86.108 E.02137
G1 X81.058 Y85.955 E.0083
G1 X81.317 Y86.251 F9000
G1 F1200
G1 X81.422 Y86.16 E.00436
G1 X82.24 Y85.899 E.02692
G1 X137.768 Y85.903 E1.74104
G1 X138.211 Y86 E.01422
G1 X138.659 Y86.208 E.01549
G1 X139.35 Y86.833 E.02921
G1 X139.661 Y87.32 E.01812
G1 X139.834 Y87.879 E.01835
G1 X139.851 Y93.513 E.17665
G1 X139.635 Y94.237 E.02369
G1 X139.383 Y94.629 E.01461
G1 X138.578 Y95.34 E.03368
G1 X137.76 Y95.601 E.02692
G1 X129.851 Y95.601 E.24798
G1 X129.851 Y132.013 E1.14167
G1 X129.635 Y132.736 E.02366
G1 X129.36 Y133.157 E.01577
G1 X128.578 Y133.84 E.03255
G1 X127.76 Y134.101 E.02692
G1 X92.237 Y134.101 E1.1138
G1 X91.514 Y133.885 E.02366
G1 X91.093 Y133.61 E.01577
G1 X90.41 Y132.828 E.03255
G1 X90.149 Y132.01 E.02692
G1 X90.149 Y95.601 E1.14158
G1 X82.24 Y95.601 E.24798
G1 X81.576 Y95.413 E.02164
G1 X81.126 Y95.137 E.01655
G1 X80.522 Y94.508 E.02734
G1 X80.337 Y94.174 E.01197
G1 X80.149 Y93.51 E.02164
G1 X80.149 Y87.987 E.17317
G1 X80.365 Y87.264 E.02366
G1 X80.64 Y86.843 E.01577
G1 X81.272 Y86.291 E.02631
G1 X81.473 Y86.582 F9000
G1 F1200
G1 X81.612 Y86.486 E.0053
G1 X82.269 Y86.276 E.02163
G1 X137.746 Y86.28 E1.73944
G1 X138.471 Y86.535 E.0241
G1 X139.076 Y87.093 E.02581
G1 X139.309 Y87.456 E.01352
G1 X139.466 Y87.964 E.01667
G1 X139.474 Y93.483 E.17304
G1 X139.283 Y94.097 E.02016
G1 X138.649 Y94.834 E.03048
G1 X138.388 Y95.014 E.00994
G1 X137.731 Y95.224 E.02163
G1 X129.474 Y95.224 E.25889
G1 X129.474 Y131.983 E1.15255
G1 X129.283 Y132.597 E.02016
G1 X128.649 Y133.334 E.03048
G1 X128.388 Y133.514 E.00994
G1 X127.731 Y133.724 E.02163
G1 X92.267 Y133.724 E1.11195
G1 X91.653 Y133.533 E.02016
G1 X90.916 Y132.899 E.03048
G1 X90.736 Y132.638 E.00994
G1 X90.526 Y131.981 E.02163
G1 X90.526 Y95.224 E1.15249
G1 X82.268 Y95.224 E.25892
G1 X81.707 Y95.059 E.01833
G1 X81.38 Y94.858 E.01203
G1 X80.837 Y94.299 E.02443
G1 X80.526 Y93.482 E.02741
G1 X80.526 Y88.017 E.17135
G1 X80.717 Y87.403 E.02016
G1 X81.351 Y86.666 E.03048
G1 X81.423 Y86.616 E.00275
G1 X81.604 Y86.946 F9000
G1 F1200
G1 X82.299 Y86.653 E.02365
G1 X137.724 Y86.657 E1.73781
G1 X138.282 Y86.863 E.01865
G1 X138.801 Y87.351 E.02234
G1 X139.097 Y88.048 E.02374
G1 X139.097 Y93.452 E.16944
G1 X138.934 Y93.953 E.01652
G1 X138.396 Y94.554 E.02529
G1 X137.701 Y94.847 E.02365
G1 X129.097 Y94.847 E.26977
G1 X129.097 Y131.952 E1.1634
G1 X128.934 Y132.453 E.01652
G1 X128.396 Y133.054 E.02529
G1 X127.701 Y133.347 E.02365
G1 X92.298 Y133.347 E1.11004
G1 X91.797 Y133.184 E.01652
G1 X91.196 Y132.646 E.02529
G1 X90.903 Y131.951 E.02365
G1 X90.903 Y94.847 E1.16337
G1 X82.298 Y94.847 E.2698
G1 X81.632 Y94.576 E.02254
G1 X81.149 Y94.086 E.02157
G1 X80.903 Y93.452 E.02132
G1 X80.903 Y88.048 E.16944
G1 X81.066 Y87.547 E.01652
G1 X81.564 Y86.991 E.0234
G1 X81.828 Y87.255 F9000
G1 F1200
G1 X81.856 Y87.228 E.00122
G1 X82.329 Y87.03 E.01608
G1 X137.702 Y87.034 E1.73618
G1 X138.092 Y87.19 E.01317
G1 X138.523 Y87.607 E.0188
G1 X138.72 Y88.079 E.01604
G1 X138.72 Y93.419 E.16743
G1 X138.588 Y93.802 E.0127
G1 X138.144 Y94.272 E.02027
G1 X137.671 Y94.47 E.01608
G1 X128.72 Y94.47 E.28065
G1 X128.72 Y131.919 E1.17419
G1 X128.525 Y132.392 E.01604
G1 X128.144 Y132.772 E.01687
G1 X127.671 Y132.97 E.01608
G1 X92.331 Y132.97 E1.10806
G1 X91.858 Y132.775 E.01604
G1 X91.478 Y132.394 E.01687
G1 X91.28 Y131.921 E.01608
G1 X91.28 Y94.47 E1.17425
G1 X82.329 Y94.47 E.28065
G1 X81.883 Y94.294 E.01503
G1 X81.456 Y93.867 E.01893
G1 X81.28 Y93.421 E.01503
G1 X81.28 Y88.081 E.16743
G1 X81.475 Y87.608 E.01604
G1 X81.786 Y87.298 E.01377
G1 X82.052 Y87.564 F9000
G1 F1200
G1 X82.11 Y87.507 E.00255
G1 X82.364 Y87.407 E.00856
G1 X137.682 Y87.414 E1.73446
G1 X137.9 Y87.517 E.00756
G1 X138.243 Y87.86 E.01521
G1 X138.343 Y88.114 E.00856
G1 X138.343 Y93.386 E.1653
G1 X138.243 Y93.64 E.00856
G1 X137.89 Y93.993 E.01565
G1 X137.636 Y94.093 E.00856
G1 X128.343 Y94.093 E.29138
G1 X128.343 Y131.886 E1.18497
G1 X128.243 Y132.14 E.00856
G1 X127.89 Y132.493 E.01565
G1 X127.636 Y132.593 E.00856
G1 X92.364 Y132.593 E1.10593
G1 X92.11 Y132.493 E.00856
G1 X91.757 Y132.14 E.01565
G1 X91.657 Y131.886 E.00856
G1 X91.657 Y94.093 E1.18497
G1 X82.364 Y94.093 E.29138
G1 X82.11 Y93.993 E.00856
G1 X81.757 Y93.64 E.01565
G1 X81.657 Y93.386 E.00856
G1 X81.657 Y88.114 E.1653
G1 X81.757 Y87.86 E.00856
G1 X82.01 Y87.607 E.01122
G1 X82.296 Y87.859 F9000
G1 F1200
G1 X82.337 Y87.813 E.00193
G1 X137.594 Y87.784 E1.73254
G1 X137.966 Y88.156 E.0165
G1 X137.966 Y93.344 E.16267
G1 X137.663 Y93.687 E.01435
G1 X127.966 Y93.716 E.30404
G1 X127.966 Y131.844 E1.19548
G1 X127.663 Y132.187 E.01435
G1 X92.406 Y132.216 E1.10546
G1 X92.063 Y131.913 E.01435
G1 X92.034 Y93.716 E1.19764
G1 X82.337 Y93.687 E.30404
G1 X82.034 Y93.344 E.01435
G1 X82.034 Y88.156 E.16267
G1 X82.257 Y87.904 E.01055
G1 X82.518 Y88.166 F9000
G1 F1200
G1 X82.522 Y88.161 E.0002
G1 X137.478 Y88.161 E1.72311
G1 X137.589 Y88.272 E.00492
G1 X137.589 Y93.228 E.15539
G1 X137.478 Y93.339 E.00492
G1 X127.589 Y93.339 E.31006
G1 X127.589 Y131.728 E1.20366
G1 X127.478 Y131.839 E.00492
G1 X92.522 Y131.839 E1.09602
G1 X92.411 Y131.728 E.00492
G1 X92.411 Y93.339 E1.20366
G1 X82.522 Y93.339 E.31006
G1 X82.411 Y93.228 E.00492
G1 X82.411 Y88.272 E.15539
G1 X82.475 Y88.208 E.00284
; printing object v2_derjatelperedneekoleso.STL id:0 copy 0
;WIPE_START
G1 F7200
G1 X82.518 Y88.166 E-.01428
G1 X82.522 Y88.161 E-.00152
G1 X85.824 Y88.161 E-.7842
;WIPE_END
G1 X83.564 Y89.314 F9000
G1 E.8 F1800
;TYPE:Perimeter
;WIDTH:0.419999
G1 F1200
G1 X136.436 Y89.314 E1.65776
G1 X136.436 Y90.75 E.04502
G1 X136.436 Y92.186 E.04502
G1 X127.379 Y92.186 E.28398
G1 X127.216 Y92.2 E.00513
G1 X126.813 Y92.374 E.01376
G1 X126.624 Y92.563 E.00838
G1 X126.508 Y92.766 E.00733
G1 X126.436 Y93.129 E.0116
G1 X126.436 Y130.686 E1.17757
G1 X113.245 Y130.686 E.41359
;WIDTH:0.460424
G1 X112.897 Y130.666 E.0121
;WIDTH:0.500849
G1 X112.549 Y130.645 E.01327
;WIDTH:0.541273
G1 X112.201 Y130.625 E.01444
;WIDTH:0.581698
G1 X111.852 Y130.605 E.01566
;WIDTH:0.622122
G1 X111.504 Y130.585 E.01679
G1 X111.503 Y130.571 E.00068
G1 X111.841 Y130.485 E.0168
;WIDTH:0.581698
G1 X112.179 Y130.399 E.01562
;WIDTH:0.541273
G1 X112.517 Y130.313 E.01445
;WIDTH:0.500849
G1 X112.855 Y130.227 E.01328
;WIDTH:0.460424
G1 X113.193 Y130.141 E.01211
;WIDTH:0.419999
G1 X114.971 Y129.514 E.05911
G1 X116.632 Y128.623 E.0591
G1 X118.137 Y127.489 E.05908
G1 X119.544 Y126.028 E.0636
G1 X120.62 Y124.479 E.05914
G1 X121.446 Y122.785 E.05909
G1 X121.971 Y121.126 E.05456
G1 X122.281 Y119.121 E.06361
G1 X122.27 Y117.236 E.0591
G1 X121.971 Y115.374 E.05913
G1 X121.392 Y113.581 E.05908
G1 X120.62 Y112.021 E.05457
G1 X119.544 Y110.472 E.05914
G1 X118.137 Y109.011 E.0636
G1 X116.632 Y107.877 E.05908
G1 X115.102 Y107.045 E.05461
G1 X113.332 Y106.397 E.0591
G1 X111.484 Y106.028 E.05909
G1 X109.583 Y105.946 E.05966
G1 X107.585 Y106.177 E.06306
G1 X105.771 Y106.687 E.05908
