; generated by PrusaSlicer 2.7.1+win64 on 2025-04-04 at 09:23:30 UTC

; 

; external perimeters extrusion width = 0.42mm
; perimeters extrusion width = 0.44mm
; infill extrusion width = 0.44mm
; solid infill extrusion width = 0.44mm
; top infill extrusion width = 0.40mm
; support material extrusion width = 0.36mm
; first layer extrusion width = 0.42mm

M201 X500 Y500 Z100 E5000 ; sets maximum accelerations, mm/sec^2
M203 X500 Y500 Z10 E60 ; sets maximum feedrates, mm / sec
M204 S500 T1000 ; sets acceleration (S) and retract acceleration (R), mm/sec^2
M205 X8.00 Y8.00 Z0.40 E5.00 ; sets the jerk limits, mm/sec
M205 S0 T0 ; sets the minimum extruding and travel feed rate, mm/sec

; printing object derjateldlyaled.STL id:0 copy 0
; stop printing object derjateldlyaled.STL id:0 copy 0

;TYPE:Custom
G90 ; use absolute coordinates
M83 ; extruder relative mode
M104 S150 ; set temporary nozzle temp to prevent oozing during homing
M140 S60 ; set final bed temp
G4 S30 ; allow partial nozzle warmup
G28 ; home all axis and restore leveling
G1 Z50 F240
G1 X2.0 Y10 F3000
M104 S210 ; set final nozzle temp
M190 S60 ; wait for bed temp to stabilize
M109 S210 ; wait for nozzle temp to stabilize
G1 Z0.28 F240
G92 E0
G1 X2.0 Y140 E10 F1500 ; prime the nozzle
G1 X2.3 Y140 F5000
G92 E0
G1 X2.3 Y10 E10 F1200 ; prime the nozzle
G92 E0
G21 ; set units to millimeters
G90 ; use absolute coordinates
M83 ; use relative distances for extrusion
; Filament gcode
M107
;LAYER_CHANGE
;Z:0.2
;HEIGHT:0.2
;BEFORE_LAYER_CHANGE
G92 E0
;0.2


G1 E-.8 F1800
G1 Z.2 F9000
;AFTER_LAYER_CHANGE
;0.2
G1 X80.641 Y97.712
G1 Z.2
G1 E.8 F1800
M204 S500
;TYPE:Skirt/Brim
;WIDTH:0.42
G1 F1200
G1 X82.039 Y96.871 E.05115
G1 X83.029 Y96.723 E.03139
G1 X136.971 Y96.723 E1.69131
G1 X138.554 Y97.117 E.05115
G1 X139.359 Y97.712 E.03139
G1 X142.288 Y100.641 E.12988
G1 X143.129 Y102.039 E.05115
G1 X143.277 Y103.029 E.03139
G1 X143.277 Y116.971 E.43714
G1 X142.883 Y118.554 E.05115
G1 X142.288 Y119.359 E.03139
G1 X139.359 Y122.288 E.12988
G1 X137.961 Y123.129 E.05115
G1 X136.971 Y123.277 E.03139
G1 X83.029 Y123.277 E1.69131
G1 X81.446 Y122.883 E.05115
G1 X80.641 Y122.288 E.03139
G1 X77.712 Y119.359 E.12988
G1 X76.871 Y117.961 E.05115
G1 X76.723 Y116.971 E.03139
G1 X76.723 Y103.029 E.43714
G1 X77.117 Y101.446 E.05115
G1 X77.712 Y100.641 E.03139
G1 X80.599 Y97.754 E.12801
;WIPE_START
G1 F7200
G1 X80.641 Y97.712 E-.01411
G1 X82.039 Y96.871 E-.38747
G1 X83.029 Y96.723 E-.23774
G1 X83.706 Y96.723 E-.16068
;WIPE_END
G1 X82.578 Y101.083 F9000
G1 E.8 F1800
G1 F1200
G1 X83.879 Y100.507 E.04461
G1 X84.703 Y100.387 E.02611
G1 X135.386 Y100.39 E1.58913
G1 X136.335 Y100.574 E.03031
G1 X137.243 Y100.965 E.031
G1 X138.462 Y101.988 E.0499
G1 X139.253 Y103.206 E.04554
G1 X139.614 Y104.592 E.04491
G1 X139.554 Y115.817 E.35196
G1 X139.17 Y116.974 E.03822
G1 X138.499 Y117.971 E.03768
G1 X137.422 Y118.917 E.04495
G1 X136.121 Y119.493 E.04461
G1 X135.297 Y119.613 E.02611
G1 X84.59 Y119.613 E1.58988
G1 X83.216 Y119.257 E.0445
G1 X82.033 Y118.503 E.04399
G1 X81.083 Y117.422 E.04512
G1 X80.507 Y116.121 E.04461
G1 X80.386 Y115.295 E.02618
G1 X80.434 Y104.256 E.34612
G1 X80.824 Y103.037 E.04013
G1 X81.5 Y102.03 E.03803
G1 X82.533 Y101.123 E.0431
G1 X82.758 Y101.416 F9000
G1 F1200
G1 X84.007 Y100.863 E.04283
G1 X84.715 Y100.764 E.02241
G1 X135.368 Y100.767 E1.58819
G1 X136.241 Y100.94 E.0279
G1 X137.066 Y101.299 E.02821
G1 X138.197 Y102.258 E.04649
G1 X138.896 Y103.332 E.04018
G1 X139.237 Y104.616 E.04165
G1 X139.187 Y115.729 E.34844
G1 X138.842 Y116.787 E.03489
G1 X138.23 Y117.706 E.03462
G1 X137.242 Y118.584 E.04144
G1 X135.993 Y119.137 E.04283
G1 X135.285 Y119.236 E.02241
G1 X84.614 Y119.236 E1.58875
G1 X83.391 Y118.922 E.03959
G1 X82.296 Y118.232 E.04058
G1 X81.416 Y117.242 E.04153
G1 X80.863 Y115.993 E.04283
G1 X80.764 Y115.283 E.02248
G1 X80.802 Y104.341 E.34308
G1 X81.153 Y103.223 E.03674
G1 X81.769 Y102.295 E.03492
G1 X82.713 Y101.456 E.0396
G1 X82.964 Y101.738 F9000
G1 F1200
G1 X82.986 Y101.718 E.00093
G1 X84.132 Y101.22 E.03918
G1 X84.727 Y101.141 E.01882
G1 X135.348 Y101.144 E1.58719
G1 X136.146 Y101.305 E.02552
G1 X136.888 Y101.633 E.02544
G1 X137.93 Y102.526 E.04303
G1 X138.563 Y103.51 E.03669
G1 X138.859 Y104.639 E.0366
G1 X138.819 Y115.642 E.34499
G1 X138.512 Y116.603 E.03163
G1 X137.961 Y117.441 E.03145
G1 X137.014 Y118.282 E.03971
G1 X135.868 Y118.78 E.03918
G1 X135.273 Y118.859 E.01882
G1 X84.638 Y118.859 E1.58762
G1 X83.516 Y118.565 E.03637
G1 X82.56 Y117.962 E.03544
G1 X81.718 Y117.014 E.03976
G1 X81.22 Y115.868 E.03918
G1 X81.141 Y115.272 E.01885
G1 X81.171 Y104.425 E.3401
G1 X81.484 Y103.406 E.03342
G1 X82.039 Y102.56 E.03172
G1 X82.919 Y101.778 E.03691
G1 X83.167 Y102.05 F9000
G1 F1200
G1 X84.21 Y101.59 E.03574
G1 X84.74 Y101.518 E.01677
G1 X135.329 Y101.521 E1.58618
G1 X136.048 Y101.67 E.02302
G1 X136.708 Y101.965 E.02267
G1 X137.662 Y102.792 E.03959
G1 X138.206 Y103.637 E.03151
G1 X138.482 Y104.664 E.03334
G1 X138.45 Y115.558 E.34158
G1 X138.181 Y116.42 E.02831
G1 X137.689 Y117.179 E.02836
G1 X136.833 Y117.95 E.03612
G1 X135.79 Y118.41 E.03574
G1 X135.26 Y118.482 E.01677
G1 X84.662 Y118.482 E1.58646
G1 X83.69 Y118.229 E.03149
G1 X82.822 Y117.689 E.03205
G1 X82.05 Y116.833 E.03614
G1 X81.59 Y115.79 E.03574
G1 X81.518 Y115.26 E.01677
G1 X81.54 Y104.506 E.33718
G1 X81.816 Y103.588 E.03006
G1 X82.31 Y102.822 E.02858
G1 X83.122 Y102.09 E.03428
G1 X83.35 Y102.381 F9000
G1 F1200
G1 X84.289 Y101.959 E.03228
G1 X84.753 Y101.895 E.01469
G1 X135.31 Y101.898 E1.58518
G1 X135.913 Y102.023 E.01931
G1 X136.528 Y102.297 E.02111
G1 X137.392 Y103.057 E.03608
G1 X137.872 Y103.814 E.0281
G1 X138.105 Y104.688 E.02836
G1 X138.082 Y115.475 E.33822
G1 X137.849 Y116.24 E.02507
G1 X137.415 Y116.918 E.02524
G1 X136.65 Y117.619 E.03253
G1 X135.711 Y118.041 E.03228
G1 X135.247 Y118.105 E.01469
G1 X84.687 Y118.105 E1.58527
G1 X83.815 Y117.873 E.02829
G1 X83.082 Y117.415 E.0271
G1 X82.381 Y116.65 E.03253
G1 X81.959 Y115.711 E.03228
G1 X81.895 Y115.247 E.01469
G1 X81.909 Y104.586 E.33427
G1 X82.149 Y103.766 E.02679
G1 X82.584 Y103.082 E.02542
G1 X83.305 Y102.422 E.03065
G1 X83.536 Y102.711 F9000
G1 F1200
G1 X84.371 Y102.329 E.02879
G1 X84.767 Y102.272 E.01254
G1 X135.289 Y102.276 E1.58408
G1 X135.814 Y102.387 E.01682
G1 X136.345 Y102.628 E.01828
G1 X137.122 Y103.321 E.03264
G1 X137.516 Y103.941 E.02303
G1 X137.728 Y104.713 E.0251
G1 X137.713 Y115.392 E.33483
G1 X137.496 Y116.105 E.02337
G1 X137.14 Y116.659 E.02065
G1 X136.464 Y117.289 E.02897
G1 X135.629 Y117.671 E.02879
G1 X135.233 Y117.728 E.01254
G1 X84.713 Y117.728 E1.58402
G1 X83.942 Y117.517 E.02506
G1 X83.34 Y117.14 E.02227
G1 X82.711 Y116.464 E.02895
G1 X82.329 Y115.629 E.02879
G1 X82.272 Y115.233 E.01254
G1 X82.279 Y104.662 E.33145
G1 X82.483 Y103.942 E.02346
G1 X82.86 Y103.34 E.02227
G1 X83.492 Y102.752 E.02707
G1 X83.724 Y103.038 F9000
G1 F1200
G1 X84.454 Y102.697 E.02526
G1 X135.268 Y102.653 E1.59324
G1 X135.711 Y102.75 E.01422
G1 X136.159 Y102.958 E.01549
G1 X136.85 Y103.583 E.02921
G1 X137.162 Y104.071 E.01816
G1 X137.351 Y104.74 E.0218
G1 X137.343 Y115.312 E.33148
G1 X137.162 Y115.928 E.02013
G1 X136.862 Y116.403 E.01762
G1 X136.276 Y116.962 E.02539
G1 X135.546 Y117.303 E.02526
G1 X84.74 Y117.351 E1.59299
G1 X84.071 Y117.162 E.0218
G1 X83.597 Y116.862 E.01759
G1 X83.038 Y116.276 E.02539
G1 X82.697 Y115.546 E.02526
G1 X82.649 Y104.74 E.33882
G1 X82.838 Y104.071 E.0218
G1 X83.138 Y103.597 E.01759
G1 X83.681 Y103.08 E.02351
G1 X83.917 Y103.364 F9000
G1 F1200
G1 X84.54 Y103.065 E.02167
G1 X84.796 Y103.026 E.00812
G1 X135.246 Y103.03 E1.58182
G1 X135.605 Y103.113 E.01155
G1 X135.971 Y103.285 E.01268
G1 X136.576 Y103.843 E.02581
G1 X136.808 Y104.205 E.01348
G1 X136.974 Y104.768 E.0184
G1 X136.974 Y115.232 E.32809
G1 X136.808 Y115.796 E.01843
G1 X136.583 Y116.149 E.01313
G1 X136.083 Y116.636 E.02188
G1 X135.46 Y116.935 E.02167
G1 X135.204 Y116.974 E.00812
G1 X84.768 Y116.974 E1.58139
G1 X84.204 Y116.808 E.01843
G1 X83.851 Y116.583 E.01313
G1 X83.364 Y116.083 E.02188
G1 X83.065 Y115.46 E.02167
G1 X83.026 Y115.204 E.00812
G1 X83.026 Y104.768 E.32721
G1 X83.192 Y104.204 E.01843
G1 X83.417 Y103.851 E.01313
G1 X83.874 Y103.406 E.02
G1 X84.113 Y103.687 F9000
G1 F1200
G1 X84.63 Y103.433 E.01806
G1 X135.224 Y103.407 E1.58634
G1 X135.782 Y103.613 E.01865
G1 X136.301 Y104.101 E.02234
G1 X136.597 Y104.798 E.02374
G1 X136.597 Y115.202 E.32621
G1 X136.302 Y115.898 E.0237
G1 X135.887 Y116.313 E.0184
G1 X135.37 Y116.567 E.01806
G1 X84.798 Y116.597 E1.58565
G1 X84.102 Y116.302 E.0237
G1 X83.687 Y115.887 E.0184
G1 X83.433 Y115.37 E.01806
G1 X83.403 Y104.798 E.33148
G1 X83.698 Y104.102 E.0237
G1 X84.071 Y103.73 E.01652
G1 X84.337 Y103.996 F9000
G1 F1200
G1 X84.357 Y103.976 E.00089
G1 X84.829 Y103.78 E.01602
G1 X135.202 Y103.784 E1.57941
G1 X135.592 Y103.94 E.01317
G1 X136.023 Y104.357 E.0188
G1 X136.22 Y104.829 E.01604
G1 X136.22 Y115.171 E.32427
G1 X136.022 Y115.644 E.01608
G1 X135.643 Y116.024 E.01683
G1 X135.171 Y116.22 E.01602
G1 X84.829 Y116.22 E1.57844
G1 X84.356 Y116.022 E.01608
G1 X83.976 Y115.643 E.01683
G1 X83.78 Y115.171 E.01602
G1 X83.78 Y104.829 E.32427
G1 X83.978 Y104.356 E.01608
G1 X84.295 Y104.039 E.01406
G1 X84.561 Y104.305 F9000
G1 F1200
G1 X84.6 Y104.267 E.00171
G1 X84.818 Y104.164 E.00756
G1 X135.182 Y104.164 E1.57913
G1 X135.4 Y104.267 E.00756
G1 X135.743 Y104.61 E.01521
G1 X135.843 Y104.864 E.00856
G1 X135.843 Y115.136 E.32207
G1 X135.743 Y115.39 E.00856
G1 X135.4 Y115.733 E.01521
G1 X135.182 Y115.836 E.00756
G1 X84.864 Y115.843 E1.57769
G1 X84.61 Y115.743 E.00856
G1 X84.267 Y115.4 E.01521
G1 X84.164 Y115.182 E.00756
G1 X84.157 Y104.864 E.32351
G1 X84.257 Y104.61 E.00856
G1 X84.519 Y104.348 E.01162
G1 X84.806 Y104.635 F9000
G1 F1200
G1 X84.906 Y104.534 E.00446
G1 X135.094 Y104.534 E1.57361
G1 X135.466 Y104.906 E.0165
G1 X135.466 Y115.094 E.31944
G1 X135.094 Y115.466 E.0165
G1 X84.906 Y115.466 E1.57361
G1 X84.534 Y115.094 E.0165
G1 X84.534 Y104.906 E.31944
G1 X84.764 Y104.677 E.01018
G1 X85.01 Y104.923 F9000
G1 F1200
G1 X85.022 Y104.911 E.00053
G1 X134.978 Y104.911 E1.56634
G1 X135.089 Y105.022 E.00492
G1 X135.089 Y114.978 E.31216
G1 X134.978 Y115.089 E.00492
G1 X85.022 Y115.089 E1.56634
G1 X84.911 Y114.978 E.00492
G1 X84.911 Y105.022 E.31216
G1 X84.967 Y104.966 E.00248
; printing object derjateldlyaled.STL id:0 copy 0
;WIPE_START
G1 F7200
G1 X85.01 Y104.923 E-.01444
G1 X85.022 Y104.911 E-.00403
G1 X88.313 Y104.911 E-.78153
;WIPE_END
G1 X86.064 Y106.064 F9000
G1 E.8 F1800
;TYPE:Perimeter
;WIDTH:0.419999
G1 F1200
G1 X133.936 Y106.064 E1.50099
G1 X133.936 Y110 E.12341
G1 X133.936 Y113.936 E.12341
G1 X86.064 Y113.936 E1.50099
G1 X86.064 Y106.124 E.24494
G1 X85.687 Y105.687 F9000
G1 F1200
G1 X134.313 Y105.687 E1.52463
G1 X134.313 Y110 E.13523
G1 X134.313 Y114.313 E.13523
G1 X85.687 Y114.313 E1.52463
G1 X85.687 Y105.747 E.26858
G1 X85.31 Y105.31 F9000
;TYPE:External perimeter
G1 F1200
G1 X134.69 Y105.31 E1.54827
G1 X134.69 Y110 E.14705
G1 X134.69 Y114.69 E.14705
G1 X85.31 Y114.69 E1.54827
G1 X85.31 Y105.37 E.29222
;WIPE_START
G1 F7200
G1 X85.31 Y105.31 E-.01425
G1 X88.618 Y105.31 E-.78575
;WIPE_END
G1 X133.047 Y106.185 F9000
G1 E.8 F1800
;TYPE:Solid infill
;WIDTH:0.422808
G1 F1200
G1 X133.645 Y106.783 E.02671
G1 X133.645 Y107.321 E.01699
G1 X132.679 Y106.355 E.04315
G1 X132.142 Y106.355 E.01696
G1 X133.645 Y107.858 E.06714
G1 X133.645 Y108.395 E.01696
G1 X131.605 Y106.355 E.09113
G1 X131.068 Y106.355 E.01696
G1 X133.645 Y108.932 E.11512
G1 X133.645 Y109.47 E.01699
G1 X130.53 Y106.355 E.13915
G1 X129.993 Y106.355 E.01696
G1 X133.645 Y110.007 E.16314
G1 X133.645 Y110.544 E.01696
G1 X129.456 Y106.355 E.18713
G1 X128.919 Y106.355 E.01696
G1 X133.645 Y111.081 E.21112
G1 X133.645 Y111.619 E.01699
G1 X128.381 Y106.355 E.23515
G1 X127.844 Y106.355 E.01696
G1 X133.645 Y112.156 E.25914
G1 X133.645 Y112.693 E.01696
G1 X127.307 Y106.355 E.28313
G1 X126.77 Y106.355 E.01696
G1 X133.645 Y113.23 E.30712
G1 X133.645 Y113.645 E.01311
G1 X133.523 Y113.645 E.00385
G1 X126.232 Y106.355 E.32568
G1 X125.695 Y106.355 E.01696
G1 X132.986 Y113.645 E.32568
G1 X132.449 Y113.645 E.01696
G1 X125.158 Y106.355 E.32568
G1 X124.621 Y106.355 E.01696
G1 X131.912 Y113.645 E.32568
G1 X131.374 Y113.645 E.01699
G1 X124.084 Y106.355 E.32566
G1 X123.546 Y106.355 E.01699
G1 X130.837 Y113.645 E.32568
G1 X130.3 Y113.645 E.01696
G1 X123.009 Y106.355 E.32568
G1 X122.472 Y106.355 E.01696
G1 X129.763 Y113.645 E.32568
G1 X129.226 Y113.645 E.01696
G1 X121.935 Y106.355 E.32568
G1 X121.397 Y106.355 E.01699
G1 X128.688 Y113.645 E.32568
G1 X128.151 Y113.645 E.01696
G1 X120.86 Y106.355 E.32568
G1 X120.323 Y106.355 E.01696
G1 X127.614 Y113.645 E.32568
G1 X127.077 Y113.645 E.01696
G1 X119.786 Y106.355 E.32568
G1 X119.248 Y106.355 E.01699
G1 X126.539 Y113.645 E.32568
G1 X126.002 Y113.645 E.01696
G1 X118.711 Y106.355 E.32568
G1 X118.174 Y106.355 E.01696
G1 X125.465 Y113.645 E.32568
G1 X124.928 Y113.645 E.01696
G1 X117.637 Y106.355 E.32568
G1 X117.099 Y106.355 E.01699
G1 X124.39 Y113.645 E.32568
G1 X123.853 Y113.645 E.01696
G1 X116.562 Y106.355 E.32568
G1 X116.025 Y106.355 E.01696
G1 X123.316 Y113.645 E.32568
G1 X122.779 Y113.645 E.01696
G1 X115.488 Y106.355 E.32568
G1 X114.95 Y106.355 E.01699
G1 X122.241 Y113.645 E.32568
G1 X121.704 Y113.645 E.01696
G1 X114.413 Y106.355 E.32568
G1 X113.876 Y106.355 E.01696
G1 X121.167 Y113.645 E.32568
G1 X120.63 Y113.645 E.01696
G1 X113.339 Y106.355 E.32568
G1 X112.801 Y106.355 E.01699
G1 X120.092 Y113.645 E.32568
G1 X119.555 Y113.645 E.01696
G1 X112.264 Y106.355 E.32568
G1 X111.727 Y106.355 E.01696
G1 X119.018 Y113.645 E.32568
G1 X118.481 Y113.645 E.01696
G1 X111.19 Y106.355 E.32568
G1 X110.652 Y106.355 E.01699
G1 X117.943 Y113.645 E.32568
G1 X117.406 Y113.645 E.01696
G1 X110.115 Y106.355 E.32568
G1 X109.578 Y106.355 E.01696
G1 X116.869 Y113.645 E.32568
G1 X116.332 Y113.645 E.01696
G1 X109.041 Y106.355 E.32568
G1 X108.503 Y106.355 E.01699
G1 X115.794 Y113.645 E.32568
G1 X115.257 Y113.645 E.01696
G1 X107.966 Y106.355 E.32568
G1 X107.429 Y106.355 E.01696
G1 X114.72 Y113.645 E.32568
G1 X114.183 Y113.645 E.01696
G1 X106.892 Y106.355 E.32568
G1 X106.355 Y106.355 E.01696
G1 X113.645 Y113.645 E.32566
G1 X113.108 Y113.645 E.01696
G1 X105.817 Y106.355 E.32568
G1 X105.28 Y106.355 E.01696
G1 X112.571 Y113.645 E.32568
G1 X112.034 Y113.645 E.01696
G1 X104.743 Y106.355 E.32568
G1 X104.206 Y106.355 E.01696
G1 X111.497 Y113.645 E.32568
G1 X110.959 Y113.645 E.01699
G1 X103.668 Y106.355 E.32568
G1 X103.131 Y106.355 E.01696
G1 X110.422 Y113.645 E.32568
G1 X109.885 Y113.645 E.01696
G1 X102.594 Y106.355 E.32568
G1 X102.057 Y106.355 E.01696
G1 X109.348 Y113.645 E.32568
G1 X108.81 Y113.645 E.01699
G1 X101.519 Y106.355 E.32568
G1 X100.982 Y106.355 E.01696
G1 X108.273 Y113.645 E.32568
G1 X107.736 Y113.645 E.01696
G1 X100.445 Y106.355 E.32568
G1 X99.908 Y106.355 E.01696
G1 X107.199 Y113.645 E.32568
G1 X106.661 Y113.645 E.01699
G1 X99.37 Y106.355 E.32568
G1 X98.833 Y106.355 E.01696
G1 X106.124 Y113.645 E.32568
G1 X105.587 Y113.645 E.01696
G1 X98.296 Y106.355 E.32568
G1 X97.759 Y106.355 E.01696
G1 X105.05 Y113.645 E.32568
G1 X104.512 Y113.645 E.01699
G1 X97.221 Y106.355 E.32568
G1 X96.684 Y106.355 E.01696
G1 X103.975 Y113.645 E.32568
G1 X103.438 Y113.645 E.01696
G1 X96.147 Y106.355 E.32568
G1 X95.61 Y106.355 E.01696
G1 X102.901 Y113.645 E.32568
G1 X102.363 Y113.645 E.01699
G1 X95.072 Y106.355 E.32568
G1 X94.535 Y106.355 E.01696
G1 X101.826 Y113.645 E.32568
G1 X101.289 Y113.645 E.01696
G1 X93.998 Y106.355 E.32568
G1 X93.461 Y106.355 E.01696
G1 X100.752 Y113.645 E.32568
G1 X100.214 Y113.645 E.01699
G1 X92.923 Y106.355 E.32568
G1 X92.386 Y106.355 E.01696
G1 X99.677 Y113.645 E.32568
G1 X99.14 Y113.645 E.01696
G1 X91.849 Y106.355 E.32568
G1 X91.312 Y106.355 E.01696
G1 X98.603 Y113.645 E.32568
G1 X98.065 Y113.645 E.01699
G1 X90.774 Y106.355 E.32568
G1 X90.237 Y106.355 E.01696
G1 X97.528 Y113.645 E.32568
G1 X96.991 Y113.645 E.01696
G1 X89.7 Y106.355 E.32568
G1 X89.163 Y106.355 E.01696
G1 X96.454 Y113.645 E.32568
G1 X95.916 Y113.645 E.01699
G1 X88.625 Y106.355 E.32568
