; generated by PrusaSlicer 2.7.1+win64 on 2025-04-04 at 14:12:56 UTC

; 

; external perimeters extrusion width = 0.42mm
; perimeters extrusion width = 0.44mm
; infill extrusion width = 0.44mm
; solid infill extrusion width = 0.44mm
; top infill extrusion width = 0.40mm
; first layer extrusion width = 0.42mm

M201 X500 Y500 Z100 E5000 ; sets maximum accelerations, mm/sec^2
M203 X500 Y500 Z10 E60 ; sets maximum feedrates, mm / sec
M204 S500 T1000 ; sets acceleration (S) and retract acceleration (R), mm/sec^2
M205 X8.00 Y8.00 Z0.40 E5.00 ; sets the jerk limits, mm/sec
M205 S0 T0 ; sets the minimum extruding and travel feed rate, mm/sec

; printing object krepejpodshipkoleso.STL id:0 copy 0
; stop printing object krepejpodshipkoleso.STL id:0 copy 0

;TYPE:Custom
G90 ; use absolute coordinates
M83 ; extruder relative mode
M104 S150 ; set temporary nozzle temp to prevent oozing during homing
M140 S60 ; set final bed temp
G4 S30 ; allow partial nozzle warmup
G28 ; home all axis and restore leveling
G1 Z50 F240
G1 X2.0 Y10 F3000
M104 S210 ; set final nozzle temp
M190 S60 ; wait for bed temp to stabilize
M109 S210 ; wait for nozzle temp to stabilize
G1 Z0.28 F240
G92 E0
G1 X2.0 Y140 E10 F1500 ; prime the nozzle
G1 X2.3 Y140 F5000
G92 E0
G1 X2.3 Y10 E10 F1200 ; prime the nozzle
G92 E0
G21 ; set units to millimeters
G90 ; use absolute coordinates
M83 ; use relative distances for extrusion
; Filament gcode
M107
;LAYER_CHANGE
;Z:0.2
;HEIGHT:0.2
;BEFORE_LAYER_CHANGE
G92 E0
;0.2


G1 E-.8 F1800
G1 Z.2 F9000
;AFTER_LAYER_CHANGE
;0.2
G1 X101.618 Y100.86
G1 Z.2
G1 E.8 F1800
M204 S500
;TYPE:Skirt/Brim
;WIDTH:0.42
G1 F1200
G1 X102.454 Y100.158 E.03423
G1 X103.609 Y99.367 E.04389
G1 X105.553 Y98.419 E.06781
G1 X106.793 Y98.032 E.04073
G1 X108.061 Y97.747 E.04075
G1 X109.455 Y97.611 E.04392
G1 X110.545 Y97.611 E.03418
G1 X112.689 Y97.893 E.0678
G1 X114.037 Y98.27 E.04389
G1 X115.236 Y98.771 E.04074
G1 X116.391 Y99.367 E.04075
G1 X117.546 Y100.158 E.04389
G1 X119.14 Y101.618 E.06777
G1 X119.842 Y102.454 E.03423
G1 X120.633 Y103.609 E.04389
G1 X121.581 Y105.553 E.06781
G1 X122.177 Y107.631 E.06778
G1 X122.296 Y108.386 E.02396
G1 X122.404 Y110.218 E.05754
G1 X122.177 Y112.369 E.06782
G1 X121.829 Y113.725 E.04389
G1 X121.456 Y114.75 E.0342
G1 X120.457 Y116.667 E.06778
G1 X119.362 Y118.14 E.05755
G1 X118.382 Y119.14 E.0439
G1 X117.546 Y119.842 E.03423
G1 X116.391 Y120.633 E.04389
G1 X114.447 Y121.581 E.06781
G1 X113.207 Y121.968 E.04073
G1 X111.939 Y122.253 E.04075
G1 X109.782 Y122.404 E.0678
G1 X107.631 Y122.177 E.06782
G1 X106.275 Y121.829 E.04389
G1 X105.25 Y121.456 E.0342
G1 X103.333 Y120.457 E.06778
G1 X102.194 Y119.642 E.04391
G1 X100.86 Y118.382 E.05753
G1 X100.158 Y117.546 E.03423
G1 X99.367 Y116.391 E.04389
G1 X98.419 Y114.447 E.06781
G1 X97.823 Y112.369 E.06778
G1 X97.704 Y111.614 E.02396
G1 X97.596 Y109.782 E.05754
G1 X97.823 Y107.631 E.06782
G1 X98.171 Y106.275 E.04389
G1 X98.544 Y105.25 E.0342
G1 X99.543 Y103.333 E.06778
G1 X100.638 Y101.86 E.05755
G1 X101.576 Y100.903 E.04202
G1 X101.851 Y101.162 F9000
G1 F1200
G1 X101.885 Y101.126 E.00155
G1 X102.67 Y100.467 E.03214
G1 X103.798 Y99.694 E.04288
G1 X105.681 Y98.773 E.06572
G1 X107.409 Y98.258 E.05654
G1 X108.127 Y98.118 E.02294
G1 X109.487 Y97.986 E.04284
G1 X110.513 Y97.986 E.03217
G1 X112.591 Y98.258 E.06571
G1 X113.908 Y98.624 E.04286
G1 X115.077 Y99.113 E.03973
G1 X116.202 Y99.694 E.0397
G1 X117.33 Y100.467 E.04288
G1 X118.874 Y101.885 E.06573
G1 X119.533 Y102.67 E.03214
G1 X120.306 Y103.798 E.04288
G1 X121.227 Y105.681 E.06572
G1 X121.806 Y107.697 E.06577
G1 X121.967 Y108.952 E.03967
G1 X122.027 Y110.218 E.03974
G1 X121.806 Y112.303 E.06574
G1 X121.465 Y113.627 E.04287
G1 X121.114 Y114.591 E.03217
G1 X120.148 Y116.451 E.06572
G1 X119.073 Y117.898 E.05652
G1 X118.115 Y118.874 E.04288
G1 X117.33 Y119.533 E.03214
G1 X116.202 Y120.306 E.04288
G1 X114.319 Y121.227 E.06572
G1 X112.303 Y121.806 E.06577
G1 X111.048 Y121.967 E.03967
G1 X109.782 Y122.027 E.03974
G1 X107.697 Y121.806 E.06574
G1 X106.373 Y121.465 E.04287
G1 X105.409 Y121.114 E.03217
G1 X103.549 Y120.148 E.06572
G1 X102.437 Y119.353 E.04286
G1 X101.126 Y118.115 E.05654
G1 X100.467 Y117.33 E.03214
G1 X99.694 Y116.202 E.04288
G1 X98.773 Y114.319 E.06572
G1 X98.194 Y112.303 E.06577
G1 X98.033 Y111.048 E.03967
G1 X97.973 Y109.782 E.03974
G1 X98.194 Y107.697 E.06574
G1 X98.535 Y106.373 E.04287
G1 X98.886 Y105.409 E.03217
G1 X99.852 Y103.549 E.06572
G1 X100.647 Y102.437 E.04286
G1 X101.81 Y101.206 E.0531
;WIPE_START
G1 F7200
G1 X101.851 Y101.162 E-.01428
G1 X101.885 Y101.126 E-.01176
G1 X102.67 Y100.467 E-.24342
G1 X103.798 Y99.694 E-.32477
G1 X104.576 Y99.313 E-.20577
;WIPE_END
G1 X104.405 Y103.784 F9000
G1 E.8 F1800
G1 F1200
G1 X105.801 Y102.769 E.05412
G1 X107.407 Y102.049 E.05518
G1 X108.777 Y101.726 E.04413
G1 X109.756 Y101.64 E.03081
G1 X110.656 Y101.677 E.02824
G1 X111.665 Y101.804 E.03189
G1 X112.642 Y102.064 E.0317
G1 X113.925 Y102.615 E.04378
G1 X115.142 Y103.405 E.04549
G1 X116.213 Y104.402 E.04588
G1 X117.159 Y105.679 E.04983
G1 X117.852 Y107.123 E.05022
G1 X118.256 Y108.673 E.05022
G1 X118.358 Y110.294 E.05093
G1 X118.179 Y111.743 E.04578
G1 X117.765 Y113.107 E.04469
G1 X117.236 Y114.192 E.03785
G1 X116.574 Y115.17 E.03703
G1 X115.596 Y116.215 E.04488
G1 X114.291 Y117.178 E.05085
G1 X112.843 Y117.864 E.05024
G1 X111.292 Y118.262 E.05021
G1 X109.706 Y118.358 E.04982
G1 X108.253 Y118.178 E.04591
G1 X106.863 Y117.752 E.04558
G1 X105.59 Y117.107 E.04475
G1 X104.612 Y116.396 E.03791
G1 X103.761 Y115.57 E.03718
G1 X102.82 Y114.286 E.04991
G1 X102.135 Y112.842 E.05011
G1 X101.738 Y111.292 E.05017
G1 X101.642 Y109.71 E.04969
G1 X101.814 Y108.288 E.04491
G1 X102.137 Y107.153 E.037
G1 X102.628 Y106.049 E.03788
G1 X103.407 Y104.855 E.0447
G1 X104.364 Y103.827 E.04404
G1 X104.64 Y104.085 F9000
G1 F1200
G1 X104.668 Y104.055 E.00129
G1 X106.006 Y103.085 E.05182
G1 X107.511 Y102.411 E.0517
G1 X108.823 Y102.1 E.04228
G1 X109.777 Y102.017 E.03002
G1 X111.604 Y102.177 E.0575
G1 X112.531 Y102.425 E.03009
G1 X113.76 Y102.955 E.04196
G1 X114.922 Y103.712 E.04348
G1 X115.943 Y104.665 E.04379
G1 X116.845 Y105.888 E.04765
G1 X117.504 Y107.269 E.04798
G1 X117.887 Y108.75 E.04796
G1 X117.982 Y110.266 E.04763
G1 X117.813 Y111.65 E.04372
G1 X117.419 Y112.956 E.04277
G1 X116.916 Y113.992 E.03611
G1 X116.27 Y114.946 E.03612
G1 X115.333 Y115.945 E.04294
G1 X114.112 Y116.845 E.04756
G1 X112.731 Y117.504 E.04798
G1 X111.25 Y117.887 E.04796
G1 X109.734 Y117.982 E.04763
G1 X108.347 Y117.813 E.04381
G1 X107.018 Y117.408 E.04356
G1 X105.799 Y116.792 E.04282
G1 X104.865 Y116.116 E.03615
G1 X104.035 Y115.311 E.03625
G1 X103.135 Y114.078 E.04786
G1 X102.496 Y112.73 E.04677
G1 X102.113 Y111.25 E.04793
G1 X102.018 Y109.737 E.04753
G1 X102.18 Y108.377 E.04294
G1 X102.496 Y107.269 E.03613
G1 X102.966 Y106.217 E.03613
G1 X103.713 Y105.076 E.04276
G1 X104.599 Y104.129 E.04066
G1 X104.873 Y104.387 F9000
G1 F1200
G1 X104.93 Y104.326 E.00262
G1 X106.178 Y103.421 E.04834
G1 X107.616 Y102.774 E.04944
G1 X108.87 Y102.475 E.04042
G1 X109.797 Y102.394 E.02918
G1 X110.608 Y102.429 E.02545
G1 X111.519 Y102.544 E.02879
G1 X112.42 Y102.785 E.02924
G1 X113.595 Y103.294 E.04015
G1 X114.702 Y104.018 E.04147
G1 X115.672 Y104.928 E.0417
G1 X116.531 Y106.097 E.04548
G1 X117.144 Y107.382 E.04464
G1 X117.512 Y108.792 E.04569
G1 X117.605 Y110.239 E.04546
G1 X117.447 Y111.558 E.04165
G1 X117.073 Y112.805 E.04082
G1 X116.596 Y113.792 E.03437
G1 X115.967 Y114.722 E.0352
G1 X115.07 Y115.674 E.04101
G1 X113.904 Y116.531 E.04537
G1 X112.586 Y117.156 E.04574
G1 X111.208 Y117.512 E.04462
G1 X109.761 Y117.605 E.04546
G1 X108.44 Y117.447 E.04171
G1 X107.173 Y117.064 E.0415
G1 X106.008 Y116.478 E.04089
G1 X105.098 Y115.819 E.03523
G1 X104.31 Y115.052 E.03448
G1 X103.45 Y113.871 E.04581
G1 X102.844 Y112.585 E.04457
G1 X102.488 Y111.208 E.04459
G1 X102.395 Y109.764 E.04537
G1 X102.547 Y108.465 E.04101
G1 X102.846 Y107.41 E.03438
G1 X103.304 Y106.385 E.0352
G1 X104.019 Y105.296 E.04085
G1 X104.832 Y104.43 E.03724
G1 X105.106 Y104.689 F9000
G1 F1200
G1 X105.192 Y104.598 E.00393
G1 X106.383 Y103.738 E.04606
G1 X107.721 Y103.136 E.046
G1 X108.917 Y102.849 E.03856
G1 X109.817 Y102.77 E.02833
G1 X111.434 Y102.912 E.0509
G1 X112.308 Y103.146 E.02837
G1 X113.43 Y103.634 E.03836
G1 X114.481 Y104.324 E.03942
G1 X115.401 Y105.191 E.03964
G1 X116.216 Y106.305 E.04328
G1 X116.795 Y107.527 E.0424
G1 X117.137 Y108.835 E.04239
G1 X117.229 Y110.212 E.04327
G1 X117.081 Y111.466 E.03959
G1 X116.727 Y112.655 E.0389
G1 X116.263 Y113.615 E.03343
G1 X115.663 Y114.497 E.03345
G1 X114.808 Y115.402 E.03904
G1 X113.695 Y116.216 E.04323
G1 X112.473 Y116.795 E.0424
G1 X111.165 Y117.137 E.04239
G1 X109.788 Y117.229 E.04327
G1 X108.532 Y117.081 E.03965
G1 X107.326 Y116.719 E.03948
G1 X106.216 Y116.163 E.03893
G1 X105.35 Y115.539 E.03347
G1 X104.584 Y114.793 E.03353
G1 X103.783 Y113.694 E.04264
G1 X103.205 Y112.473 E.04236
G1 X102.863 Y111.165 E.04239
G1 X102.771 Y109.789 E.04324
G1 X102.914 Y108.553 E.03901
G1 X103.205 Y107.526 E.03347
G1 X103.642 Y106.554 E.03341
G1 X104.325 Y105.518 E.03891
G1 X105.065 Y104.732 E.03385
G1 X105.339 Y104.991 F9000
G1 F1200
G1 X105.454 Y104.87 E.00523
G1 X106.556 Y104.074 E.04262
G1 X107.828 Y103.499 E.04377
G1 X108.964 Y103.224 E.03665
G1 X109.837 Y103.147 E.02748
G1 X110.558 Y103.182 E.02263
G1 X111.35 Y103.279 E.02502
G1 X112.197 Y103.506 E.02749
G1 X113.264 Y103.973 E.03652
G1 X114.259 Y104.63 E.03738
G1 X115.129 Y105.452 E.03753
G1 X115.9 Y106.512 E.0411
G1 X116.446 Y107.671 E.04017
G1 X116.767 Y108.912 E.04019
G1 X116.852 Y110.186 E.04003
G1 X116.715 Y111.375 E.03753
G1 X116.38 Y112.506 E.03698
G1 X115.943 Y113.415 E.03162
G1 X115.36 Y114.273 E.03252
G1 X114.547 Y115.129 E.03702
G1 X113.488 Y115.9 E.04107
G1 X112.329 Y116.446 E.04017
G1 X111.088 Y116.767 E.04019
G1 X109.814 Y116.852 E.04003
G1 X108.624 Y116.715 E.03756
G1 X107.48 Y116.374 E.03743
G1 X106.424 Y115.848 E.03699
G1 X105.583 Y115.241 E.03252
G1 X104.859 Y114.535 E.03171
G1 X104.099 Y113.487 E.04059
G1 X103.553 Y112.328 E.04017
G1 X103.233 Y111.088 E.04015
G1 X103.148 Y109.815 E.04
G1 X103.281 Y108.64 E.03708
G1 X103.564 Y107.643 E.0325
G1 X103.979 Y106.723 E.03164
G1 X104.63 Y105.74 E.03697
G1 X105.298 Y105.035 E.03045
G1 X105.571 Y105.294 F9000
G1 F1200
G1 X105.715 Y105.143 E.00654
G1 X106.761 Y104.391 E.04039
G1 X107.934 Y103.861 E.04036
G1 X109.011 Y103.598 E.03476
G1 X109.857 Y103.524 E.02663
G1 X111.265 Y103.647 E.04431
G1 X112.085 Y103.867 E.02662
G1 X113.097 Y104.311 E.03465
G1 X114.037 Y104.934 E.03536
G1 X114.856 Y105.714 E.03546
G1 X115.567 Y106.689 E.03784
G1 X116.086 Y107.784 E.03799
G1 X116.392 Y108.956 E.03798
G1 X116.475 Y110.161 E.03787
G1 X116.348 Y111.285 E.03547
G1 X116.034 Y112.356 E.03499
G1 X115.61 Y113.238 E.03068
G1 X115.058 Y114.047 E.03071
G1 X114.286 Y114.857 E.03508
G1 X113.311 Y115.567 E.03782
G1 X112.216 Y116.086 E.03799
G1 X111.044 Y116.392 E.03798
G1 X109.839 Y116.475 E.03787
G1 X108.714 Y116.348 E.0355
G1 X107.632 Y116.029 E.03537
G1 X106.631 Y115.533 E.03503
G1 X105.836 Y114.961 E.03071
G1 X105.134 Y114.276 E.03075
G1 X104.432 Y113.309 E.03747
G1 X103.914 Y112.215 E.03795
G1 X103.608 Y111.044 E.03795
G1 X103.525 Y109.84 E.03784
G1 X103.649 Y108.727 E.03511
G1 X103.913 Y107.785 E.03067
G1 X104.316 Y106.893 E.03069
G1 X104.935 Y105.963 E.03503
G1 X105.529 Y105.338 E.02703
G1 X105.801 Y105.598 F9000
G1 F1200
G1 X105.975 Y105.416 E.00789
G1 X106.934 Y104.727 E.03702
G1 X108.042 Y104.223 E.03817
G1 X109.059 Y103.972 E.03284
G1 X109.876 Y103.901 E.02571
G1 X110.506 Y103.934 E.01978
G1 X111.181 Y104.015 E.02132
G1 X111.973 Y104.227 E.02571
G1 X112.93 Y104.649 E.03279
G1 X113.813 Y105.239 E.0333
G1 X114.583 Y105.974 E.03338
G1 X115.251 Y106.896 E.0357
G1 X115.738 Y107.929 E.03581
G1 X116.018 Y109.001 E.03474
G1 X116.099 Y110.137 E.03571
G1 X115.982 Y111.196 E.03341
G1 X115.687 Y112.208 E.03305
G1 X115.29 Y113.038 E.02885
G1 X114.755 Y113.821 E.02973
G1 X114.026 Y114.583 E.03306
G1 X113.104 Y115.251 E.0357
G1 X112.071 Y115.738 E.03581
G1 X110.999 Y116.018 E.03474
G1 X109.863 Y116.099 E.03571
G1 X108.804 Y115.982 E.03341
G1 X107.784 Y115.683 E.03333
G1 X106.838 Y115.217 E.03306
G1 X106.068 Y114.663 E.02974
G1 X105.41 Y114.018 E.02889
G1 X104.748 Y113.103 E.03541
G1 X104.262 Y112.071 E.03577
G1 X103.983 Y110.999 E.03473
G1 X103.901 Y109.863 E.03571
G1 X104.016 Y108.813 E.03312
G1 X104.263 Y107.927 E.02884
G1 X104.653 Y107.062 E.02975
G1 X105.239 Y106.186 E.03305
G1 X105.76 Y105.641 E.02364
G1 X106.031 Y105.902 F9000
G1 F1200
G1 X106.234 Y105.69 E.0092
G1 X107.138 Y105.044 E.03484
G1 X108.149 Y104.584 E.03483
G1 X109.107 Y104.347 E.03094
G1 X109.895 Y104.278 E.0248
G1 X111.097 Y104.383 E.03783
G1 X111.861 Y104.588 E.0248
G1 X112.761 Y104.987 E.03087
G1 X113.589 Y105.542 E.03125
G1 X114.309 Y106.234 E.03131
G1 X114.935 Y107.102 E.03355
G1 X115.378 Y108.042 E.03258
G1 X115.643 Y109.046 E.03256
G1 X115.722 Y110.114 E.03358
G1 X115.615 Y111.107 E.03132
G1 X115.34 Y112.059 E.03107
G1 X114.956 Y112.862 E.02791
G1 X114.453 Y113.595 E.02787
G1 X113.766 Y114.309 E.03107
G1 X112.898 Y114.935 E.03355
G1 X111.958 Y115.378 E.03258
G1 X110.954 Y115.643 E.03256
G1 X109.886 Y115.722 E.03358
G1 X108.892 Y115.615 E.03135
G1 X107.935 Y115.337 E.03125
G1 X107.045 Y114.901 E.03107
G1 X106.321 Y114.384 E.02789
G1 X105.686 Y113.761 E.02789
G1 X105.065 Y112.897 E.03336
G1 X104.622 Y111.958 E.03255
G1 X104.357 Y110.954 E.03256
G1 X104.278 Y109.886 E.03358
G1 X104.384 Y108.899 E.03112
G1 X104.622 Y108.042 E.02789
G1 X104.99 Y107.233 E.02787
G1 X105.543 Y106.411 E.03106
G1 X105.99 Y105.945 E.02025
G1 X106.26 Y106.206 F9000
G1 F1200
G1 X106.494 Y105.965 E.01053
G1 X107.312 Y105.379 E.03155
G1 X108.258 Y104.946 E.03262
G1 X109.155 Y104.721 E.029
G1 X110.451 Y104.687 E.04065
G1 X111.749 Y104.948 E.04151
G1 X112.592 Y105.325 E.02895
G1 X113.364 Y105.846 E.0292
G1 X114.035 Y106.493 E.02923
G1 X114.618 Y107.307 E.03139
G1 X115.028 Y108.185 E.03038
G1 X115.274 Y109.125 E.03047
G1 X115.345 Y110.092 E.0304
G1 X115.248 Y111.02 E.02926
G1 X114.993 Y111.911 E.02906
G1 X114.622 Y112.686 E.02694
G1 X114.152 Y113.368 E.02597
G1 X113.507 Y114.035 E.02909
G1 X112.693 Y114.618 E.03139
G1 X111.815 Y115.028 E.03038
G1 X110.875 Y115.274 E.03047
G1 X109.908 Y115.345 E.0304
G1 X108.98 Y115.248 E.02926
G1 X108.084 Y114.991 E.02923
G1 X107.251 Y114.585 E.02906
G1 X106.553 Y114.086 E.0269
G1 X105.962 Y113.504 E.02601
G1 X105.382 Y112.692 E.03129
G1 X104.971 Y111.814 E.0304
G1 X104.726 Y110.875 E.03043
G1 X104.655 Y109.908 E.0304
G1 X104.751 Y108.985 E.0291
G1 X104.981 Y108.158 E.02691
G1 X105.326 Y107.404 E.026
G1 X105.846 Y106.636 E.02908
G1 X106.218 Y106.249 E.01683
G1 X106.488 Y106.511 F9000
G1 F1200
G1 X106.752 Y106.24 E.01186
G1 X107.516 Y105.697 E.02939
G1 X108.368 Y105.307 E.02938
G1 X109.203 Y105.095 E.02701
G1 X109.933 Y105.031 E.02298
G1 X110.929 Y105.119 E.03135
G1 X111.637 Y105.308 E.02298
G1 X112.422 Y105.661 E.02699
G1 X113.138 Y106.148 E.02715
G1 X113.76 Y106.751 E.02716
G1 X114.284 Y107.484 E.02825
G1 X114.668 Y108.299 E.02825
G1 X114.899 Y109.171 E.02828
G1 X114.968 Y110.071 E.0283
G1 X114.88 Y110.933 E.02717
G1 X114.645 Y111.764 E.02708
G1 X114.303 Y112.484 E.02499
G1 X113.851 Y113.14 E.02498
G1 X113.249 Y113.76 E.0271
G1 X112.516 Y114.284 E.02825
G1 X111.701 Y114.668 E.02825
G1 X110.829 Y114.899 E.02828
G1 X109.929 Y114.968 E.0283
G1 X109.067 Y114.88 E.02717
G1 X108.233 Y114.644 E.02718
G1 X107.456 Y114.268 E.02706
G1 X106.806 Y113.807 E.02499
G1 X106.238 Y113.247 E.02501
G1 X105.715 Y112.516 E.02818
G1 X105.331 Y111.701 E.02825
G1 X105.101 Y110.829 E.02828
G1 X105.032 Y109.929 E.0283
G1 X105.119 Y109.069 E.0271
G1 X105.331 Y108.301 E.02498
G1 X105.662 Y107.576 E.02499
G1 X106.148 Y106.861 E.02711
G1 X106.446 Y106.554 E.01341
G1 X106.715 Y106.817 F9000
G1 F1200
G1 X107.009 Y106.516 E.01319
G1 X107.718 Y106.015 E.02722
G1 X108.478 Y105.668 E.0262
G1 X109.251 Y105.47 E.02502
G1 X110.394 Y105.439 E.03585
G1 X111.524 Y105.668 E.03615
G1 X112.251 Y105.998 E.02503
G1 X112.912 Y106.45 E.02511
