; generated by PrusaSlicer 2.8.1+win64 on 2025-04-04 at 15:03:55 UTC

; 

; external perimeters extrusion width = 0.42mm
; perimeters extrusion width = 0.44mm
; infill extrusion width = 0.44mm
; solid infill extrusion width = 0.44mm
; top infill extrusion width = 0.40mm
; first layer extrusion width = 0.42mm

M201 X500 Y500 Z100 E5000 ; sets maximum accelerations, mm/sec^2
M203 X500 Y500 Z10 E60 ; sets maximum feedrates, mm / sec
M204 S500 T1000 ; sets acceleration (S) and retract acceleration (R), mm/sec^2
M205 X8.00 Y8.00 Z0.40 E5.00 ; sets the jerk limits, mm/sec
M205 S0 T0 ; sets the minimum extruding and travel feed rate, mm/sec

; printing object v2_peredneekoleso.STL id:0 copy 0
; stop printing object v2_peredneekoleso.STL id:0 copy 0

;TYPE:Custom
G90 ; use absolute coordinates
M83 ; extruder relative mode
M104 S150 ; set temporary nozzle temp to prevent oozing during homing
M140 S60 ; set final bed temp
G4 S30 ; allow partial nozzle warmup
G28 ; home all axis and restore leveling
G1 Z50 F240
G1 X2.0 Y10 F3000
M104 S210 ; set final nozzle temp
M190 S60 ; wait for bed temp to stabilize
M109 S210 ; wait for nozzle temp to stabilize
G1 Z0.28 F240
G92 E0
G1 X2.0 Y140 E10 F1500 ; prime the nozzle
G1 X2.3 Y140 F5000
G92 E0
G1 X2.3 Y10 E10 F1200 ; prime the nozzle
G92 E0
G21 ; set units to millimeters
G90 ; use absolute coordinates
M83 ; use relative distances for extrusion
; Filament gcode
M107
;LAYER_CHANGE
;Z:0.2
;HEIGHT:0.2
G1 E-.8 F1800
G1 Z.2 F9000
G1 X94.016 Y91.894
G1 Z.2
G1 E.8 F1800
M204 S500
;TYPE:Skirt/Brim
;WIDTH:0.42
G1 F1200
G1 X95.085 Y91.033 E.04304
G1 X98.484 Y88.94 E.12516
G1 X100.743 Y87.712 E.08062
G1 X102.062 Y87.195 E.04442
G1 X106.481 Y86.255 E.14165
G1 X108.924 Y85.89 E.07745
G1 X110.767 Y85.883 E.05779
G1 X114.814 Y86.483 E.12828
G1 X117.235 Y86.976 E.07747
G1 X118.578 Y87.428 E.04443
G1 X122.567 Y89.548 E.14164
G1 X124.673 Y90.839 E.07745
G1 X126.089 Y92.018 E.05777
G1 X127.858 Y93.962 E.08241
G1 X130.342 Y97.013 E.12336
G1 X131.269 Y98.606 E.05779
G1 X132.74 Y102.316 E.12513
G1 X133.672 Y105.21 E.09533
G1 X133.883 Y106.567 E.04306
G1 X133.995 Y110.657 E.12829
G1 X133.93 Y113.127 E.07747
G1 X133.617 Y114.943 E.05778
G1 X132.818 Y117.447 E.08241
G1 X131.418 Y121.123 E.12333
G1 X130.502 Y122.722 E.05778
G1 X128.966 Y124.713 E.07884
G1 X125.984 Y128.106 E.14163
G1 X124.915 Y128.967 E.04304
G1 X122.79 Y130.313 E.07887
G1 X118.828 Y132.481 E.14161
G1 X117.528 Y132.924 E.04306
G1 X113.619 Y133.728 E.12513
G1 X111.076 Y134.11 E.08063
G1 X109.659 Y134.145 E.04444
G1 X105.186 Y133.517 E.14162
G1 X102.765 Y133.024 E.07747
G1 X101.422 Y132.572 E.04443
G1 X97.433 Y130.452 E.14164
G1 X95.327 Y129.161 E.07745
G1 X93.911 Y127.982 E.05777
G1 X92.142 Y126.038 E.08241
G1 X89.658 Y122.987 E.12336
G1 X88.731 Y121.394 E.05779
G1 X87.26 Y117.684 E.12513
G1 X86.328 Y114.79 E.09533
G1 X86.117 Y113.433 E.04306
G1 X86.005 Y109.343 E.12829
G1 X86.07 Y106.873 E.07747
G1 X86.383 Y105.057 E.05778
G1 X87.182 Y102.553 E.08241
G1 X88.582 Y98.877 E.12333
G1 X89.498 Y97.278 E.05778
G1 X91.034 Y95.287 E.07884
G1 X93.976 Y91.939 E.13974
;WIPE_START
G1 F7200
G1 X94.016 Y91.894 E-.0143
G1 X95.085 Y91.033 E-.326
G1 X96.733 Y90.018 E-.4597
;WIPE_END
G1 X95.928 Y95.034 F9000
G1 E.8 F1800
G1 F1200
G1 X96.831 Y94.476 E.03328
G1 X97.389 Y93.803 E.02741
G1 X99.042 Y92.64 E.06337
G1 X100.397 Y91.855 E.0491
G1 X101.871 Y91.14 E.05137
G1 X102.922 Y90.88 E.03395
G1 X103.941 Y90.375 E.03566
G1 X105.551 Y89.959 E.05214
G1 X107.182 Y89.665 E.05196
G1 X108.814 Y89.499 E.05143
G1 X109.92 Y89.629 E.03492
G1 X110.663 Y89.491 E.02369
G1 X111.678 Y89.55 E.03188
G1 X114.119 Y89.889 E.07727
G1 X115.836 Y90.308 E.05542
G1 X116.87 Y90.808 E.03601
G1 X117.799 Y91.009 E.0298
G1 X119.408 Y91.754 E.05559
G1 X120.845 Y92.569 E.0518
G1 X122.225 Y93.496 E.05212
G1 X123.021 Y94.315 E.03581
G1 X123.86 Y94.851 E.03122
G1 X125.219 Y96.222 E.06053
G1 X126.202 Y97.393 E.04794
G1 X127.161 Y98.719 E.05131
G1 X127.6 Y99.706 E.03387
G1 X128.228 Y100.542 E.03278
G1 X128.937 Y102.074 E.05293
G1 X129.475 Y103.506 E.04796
G1 X129.999 Y105.352 E.06017
G1 X130.057 Y106.346 E.03122
G1 X130.379 Y107.438 E.0357
G1 X130.509 Y109.095 E.05211
G1 X130.515 Y110.76 E.05221
G1 X130.381 Y112.479 E.05406
G1 X130.097 Y113.427 E.03103
G1 X130.025 Y114.568 E.03585
G1 X129.545 Y116.278 E.05569
G1 X129.021 Y117.722 E.04816
G1 X128.376 Y119.174 E.04982
G1 X127.731 Y120.076 E.03477
G1 X127.337 Y120.999 E.03147
G1 X126.299 Y122.48 E.05671
G1 X125.262 Y123.73 E.05092
G1 X124.13 Y124.906 E.05118
G1 X123.185 Y125.547 E.0358
G1 X122.512 Y126.28 E.0312
G1 X120.926 Y127.38 E.06052
G1 X119.602 Y128.145 E.04794
G1 X118.129 Y128.86 E.05134
G1 X117.081 Y129.12 E.03386
G1 X116.181 Y129.582 E.03172
G1 X114.484 Y130.033 E.05506
G1 X112.808 Y130.336 E.0534
G1 X111.082 Y130.503 E.05437
G1 X110.091 Y130.394 E.03126
G1 X108.98 Y130.514 E.03504
G1 X107.325 Y130.354 E.05213
G1 X105.683 Y130.07 E.05225
G1 X104.005 Y129.636 E.05434
G1 X103.11 Y129.195 E.03128
G1 X102.024 Y128.927 E.03507
G1 X100.423 Y128.158 E.05569
G1 X99.093 Y127.392 E.04812
G1 X97.774 Y126.503 E.04987
G1 X96.979 Y125.685 E.03577
G1 X96.145 Y125.153 E.03102
G1 X94.865 Y123.869 E.05685
G1 X93.821 Y122.636 E.05066
G1 X92.867 Y121.327 E.05079
G1 X92.4 Y120.285 E.0358
G1 X91.795 Y119.495 E.0312
G1 X90.987 Y117.742 E.06052
G1 X90.463 Y116.305 E.04796
G1 X90.015 Y114.731 E.05131
G1 X89.941 Y113.651 E.03394
G1 X89.634 Y112.633 E.03334
G1 X89.492 Y110.933 E.05349
G1 X89.485 Y109.24 E.05308
G1 X89.619 Y107.521 E.05406
G1 X89.903 Y106.573 E.03103
G1 X89.975 Y105.432 E.03585
G1 X90.455 Y103.722 E.05569
G1 X90.979 Y102.278 E.04816
G1 X91.624 Y100.826 E.04982
G1 X92.269 Y99.924 E.03477
G1 X92.663 Y99.001 E.03147
G1 X93.701 Y97.52 E.05671
G1 X94.766 Y96.239 E.05223
G1 X95.887 Y95.077 E.05062
G1 X95.887 Y95.077 F9000
G1 X96.158 Y95.339
G1 F1200
G1 X96.183 Y95.314 E.00111
G1 X97.083 Y94.765 E.03305
G1 X97.628 Y94.096 E.02706
G1 X99.238 Y92.962 E.06175
G1 X100.568 Y92.192 E.04819
G1 X102.019 Y91.487 E.05058
G1 X103.058 Y91.247 E.03343
G1 X104.053 Y90.735 E.03509
G1 X105.625 Y90.329 E.05091
G1 X107.227 Y90.04 E.05104
G1 X108.836 Y89.876 E.05071
G1 X109.905 Y90.016 E.0338
G1 X110.665 Y89.869 E.02427
G1 X112.741 Y90.035 E.0653
G1 X114.049 Y90.259 E.04161
G1 X115.73 Y90.67 E.05426
G1 X116.742 Y91.179 E.03552
G1 X117.656 Y91.358 E.0292
G1 X119.242 Y92.093 E.05481
G1 X120.652 Y92.894 E.05085
G1 X122 Y93.799 E.05091
G1 X122.773 Y94.62 E.03536
G1 X123.604 Y95.129 E.03055
G1 X124.935 Y96.471 E.05926
G1 X125.9 Y97.62 E.04705
G1 X126.845 Y98.926 E.05054
G1 X127.262 Y99.904 E.03334
G1 X127.894 Y100.717 E.03229
G1 X128.592 Y102.226 E.05213
G1 X129.119 Y103.631 E.04705
G1 X129.631 Y105.437 E.05886
G1 X129.67 Y106.414 E.03066
G1 X130.004 Y107.485 E.03518
G1 X130.132 Y109.104 E.05092
G1 X130.138 Y110.739 E.05126
G1 X130.007 Y112.432 E.05324
G1 X129.711 Y113.358 E.03048
G1 X129.657 Y114.484 E.03535
G1 X129.188 Y116.157 E.05448
G1 X128.674 Y117.575 E.04729
G1 X128.038 Y119.005 E.04907
G1 X127.381 Y119.893 E.03463
G1 X127.018 Y120.798 E.03057
G1 X125.995 Y122.258 E.0559
G1 X124.985 Y123.473 E.04954
G1 X123.87 Y124.632 E.05043
G1 X122.928 Y125.249 E.03531
G1 X122.282 Y125.98 E.03059
G1 X120.73 Y127.057 E.05923
G1 X119.431 Y127.809 E.04706
G1 X117.981 Y128.513 E.05054
G1 X116.945 Y128.752 E.03334
G1 X116.033 Y129.234 E.03234
G1 X114.396 Y129.666 E.05308
G1 X112.764 Y129.961 E.052
G1 X111.065 Y130.126 E.05352
G1 X110.102 Y129.999 E.03046
G1 X108.999 Y130.137 E.03485
G1 X107.368 Y129.979 E.05138
G1 X105.77 Y129.703 E.05085
G1 X104.117 Y129.276 E.05353
G1 X103.256 Y128.828 E.03043
G1 X102.171 Y128.58 E.0349
G1 X100.605 Y127.828 E.05447
G1 X99.298 Y127.075 E.04729
G1 X97.999 Y126.2 E.04911
G1 X97.227 Y125.38 E.03531
G1 X96.4 Y124.874 E.0304
G1 X95.148 Y123.62 E.05556
G1 X94.113 Y122.398 E.05021
G1 X93.182 Y121.119 E.0496
G1 X92.737 Y120.084 E.03532
G1 X92.13 Y119.321 E.03057
G1 X91.338 Y117.605 E.05926
G1 X90.824 Y116.195 E.04706
G1 X90.383 Y114.645 E.05053
G1 X90.327 Y113.581 E.03341
G1 X90.002 Y112.551 E.03386
G1 X89.869 Y110.91 E.05162
G1 X89.862 Y109.261 E.0517
G1 X89.993 Y107.568 E.05324
G1 X90.289 Y106.642 E.03048
G1 X90.343 Y105.516 E.03535
G1 X90.812 Y103.843 E.05448
G1 X91.326 Y102.425 E.04729
G1 X91.962 Y100.995 E.04907
G1 X92.619 Y100.107 E.03463
G1 X92.982 Y99.202 E.03057
G1 X94.005 Y97.742 E.0559
G1 X95.043 Y96.496 E.05085
G1 X96.116 Y95.382 E.0485
G1 X96.116 Y95.382 F9000
G1 X96.388 Y95.644
G1 F1200
G1 X96.436 Y95.594 E.00217
G1 X97.335 Y95.053 E.0329
G1 X97.868 Y94.389 E.0267
G1 X99.434 Y93.284 E.06009
G1 X100.739 Y92.528 E.04729
G1 X102.167 Y91.835 E.04977
G1 X103.194 Y91.617 E.03292
G1 X104.164 Y91.096 E.03452
G1 X105.713 Y90.696 E.05016
G1 X107.273 Y90.414 E.04971
G1 X108.858 Y90.253 E.04995
G1 X109.525 Y90.299 E.02096
G1 X109.888 Y90.405 E.01186
G1 X110.668 Y90.246 E.02496
G1 X111.626 Y90.302 E.03009
G1 X113.978 Y90.63 E.07446
G1 X115.623 Y91.032 E.0531
G1 X116.613 Y91.552 E.03506
G1 X117.514 Y91.708 E.02867
G1 X119.077 Y92.432 E.05401
G1 X120.448 Y93.211 E.04944
G1 X121.775 Y94.102 E.05012
G1 X122.524 Y94.927 E.03494
G1 X123.349 Y95.408 E.02994
G1 X124.651 Y96.719 E.05793
G1 X125.599 Y97.846 E.04618
G1 X126.529 Y99.132 E.04976
G1 X126.922 Y100.104 E.03287
G1 X127.577 Y100.923 E.03288
G1 X128.246 Y102.377 E.05018
G1 X128.763 Y103.756 E.04618
G1 X129.263 Y105.522 E.05755
G1 X129.282 Y106.482 E.03011
G1 X129.63 Y107.533 E.03471
G1 X129.755 Y109.127 E.05013
G1 X129.762 Y110.717 E.04985
G1 X129.632 Y112.385 E.05246
G1 X129.322 Y113.289 E.02996
G1 X129.289 Y114.399 E.03482
G1 X128.831 Y116.035 E.05327
G1 X128.327 Y117.428 E.04645
G1 X127.701 Y118.836 E.04831
G1 X127.037 Y119.701 E.03419
G1 X126.697 Y120.598 E.03008
G1 X125.691 Y122.035 E.055
G1 X124.7 Y123.227 E.0486
G1 X123.611 Y124.357 E.04921
G1 X122.669 Y124.951 E.03492
G1 X122.052 Y125.681 E.02997
G1 X120.535 Y126.735 E.05792
G1 X119.26 Y127.472 E.04617
G1 X117.833 Y128.165 E.04974
G1 X116.807 Y128.383 E.03289
G1 X115.886 Y128.887 E.03292
G1 X114.307 Y129.3 E.05117
G1 X112.72 Y129.587 E.05057
G1 X111.048 Y129.748 E.05267
G1 X110.101 Y129.605 E.03003
G1 X109.017 Y129.76 E.03433
G1 X107.411 Y129.605 E.05059
G1 X105.856 Y129.336 E.04948
G1 X104.23 Y128.916 E.05266
G1 X103.39 Y128.457 E.03001
G1 X102.318 Y128.232 E.03434
G1 X100.787 Y127.497 E.05325
G1 X99.503 Y126.759 E.04644
G1 X98.224 Y125.897 E.04836
G1 X97.476 Y125.073 E.03489
G1 X96.654 Y124.595 E.02981
G1 X95.43 Y123.37 E.0543
G1 X94.414 Y122.17 E.0493
G1 X93.498 Y120.911 E.04882
G1 X93.076 Y119.881 E.0349
G1 X92.465 Y119.146 E.02997
G1 X91.69 Y117.469 E.05792
G1 X91.185 Y116.085 E.04619
G1 X90.751 Y114.559 E.04974
G1 X90.714 Y113.51 E.03291
G1 X90.376 Y112.502 E.03333
G1 X90.245 Y110.887 E.0508
G1 X90.238 Y109.283 E.05029
G1 X90.368 Y107.615 E.05246
G1 X90.678 Y106.711 E.02996
G1 X90.711 Y105.601 E.03482
G1 X91.169 Y103.965 E.05327
G1 X91.673 Y102.572 E.04645
G1 X92.299 Y101.164 E.04831
G1 X92.963 Y100.299 E.03419
G1 X93.303 Y99.402 E.03008
G1 X94.309 Y97.965 E.055
G1 X95.319 Y96.752 E.04949
G1 X96.346 Y95.687 E.04639
G1 X96.346 Y95.687 F9000
G1 X96.618 Y95.949
G1 F1200
G1 X96.69 Y95.874 E.00326
G1 X97.589 Y95.342 E.03275
G1 X98.108 Y94.68 E.02638
G1 X99.631 Y93.606 E.05843
G1 X100.91 Y92.864 E.04636
G1 X102.315 Y92.182 E.04897
G1 X103.332 Y91.987 E.03247
G1 X103.615 Y91.77 E.01118
G1 X104.277 Y91.456 E.02297
G1 X105.8 Y91.062 E.04932
G1 X107.318 Y90.789 E.04836
G1 X108.88 Y90.629 E.04923
G1 X109.474 Y90.673 E.01868
G1 X109.871 Y90.794 E.01301
G1 X110.672 Y90.624 E.02567
G1 X112.627 Y90.781 E.06149
G1 X113.908 Y91 E.04075
G1 X115.515 Y91.394 E.05188
G1 X116.172 Y91.695 E.02266
G1 X116.484 Y91.927 E.01219
G1 X117.373 Y92.058 E.02817
G1 X118.911 Y92.77 E.05314
G1 X120.255 Y93.535 E.04849
G1 X121.55 Y94.405 E.04892
G1 X122.061 Y94.91 E.02253
G1 X122.274 Y95.235 E.01218
G1 X122.644 Y95.38 E.01246
G1 X123.095 Y95.687 E.01711
G1 X124.368 Y96.968 E.05662
G1 X125.298 Y98.073 E.04528
G1 X126.213 Y99.338 E.04895
G1 X126.581 Y100.304 E.03241
G1 X127.242 Y101.098 E.03239
G1 X127.901 Y102.529 E.0494
G1 X128.407 Y103.881 E.04526
G1 X128.895 Y105.606 E.05621
G1 X128.891 Y106.551 E.02963
G1 X129.061 Y106.877 E.01153
G1 X129.255 Y107.581 E.0229
G1 X129.378 Y109.135 E.04888
G1 X129.385 Y110.696 E.04894
G1 X129.258 Y112.337 E.05161
G1 X128.932 Y113.22 E.02951
G1 X128.98 Y113.585 E.01154
G1 X128.921 Y114.316 E.02299
G1 X128.474 Y115.913 E.052
G1 X127.979 Y117.281 E.04561
G1 X127.363 Y118.667 E.04756
G1 X126.691 Y119.508 E.03375
G1 X126.376 Y120.399 E.02963
G1 X125.386 Y121.812 E.0541
G1 X124.414 Y122.981 E.04767
G1 X123.352 Y124.083 E.04799
G1 X122.766 Y124.498 E.02251
G1 X122.409 Y124.652 E.01219
G1 X122.203 Y124.99 E.01241
G1 X121.822 Y125.382 E.01714
G1 X120.339 Y126.413 E.05663
G1 X119.089 Y127.136 E.04528
G1 X117.685 Y127.818 E.04894
G1 X116.669 Y128.013 E.03244
G1 X115.772 Y128.527 E.03242
G1 X114.219 Y128.933 E.05033
G1 X112.676 Y129.212 E.04916
G1 X111.032 Y129.371 E.05179
G1 X110.101 Y129.209 E.02963
G1 X109.035 Y129.383 E.03387
G1 X107.455 Y129.23 E.04977
G1 X105.943 Y128.969 E.04811
G1 X104.345 Y128.556 E.05175
G1 X103.525 Y128.085 E.02965
G1 X102.464 Y127.884 E.03386
G1 X100.969 Y127.167 E.05199
G1 X99.708 Y126.442 E.04561
G1 X98.45 Y125.595 E.04755
G1 X97.939 Y125.09 E.02253
G1 X97.726 Y124.765 E.01218
G1 X97.358 Y124.621 E.01239
G1 X96.908 Y124.316 E.01704
G1 X95.713 Y123.12 E.05301
G1 X94.715 Y121.943 E.04838
G1 X93.813 Y120.704 E.04805
G1 X93.505 Y120.054 E.02255
G1 X93.416 Y119.676 E.01218
G1 X93.118 Y119.414 E.01244
G1 X92.799 Y118.971 E.01712
G1 X92.041 Y117.332 E.05662
G1 X91.546 Y115.976 E.04526
G1 X91.118 Y114.474 E.04897
G1 X91.103 Y113.439 E.03246
G1 X90.745 Y112.419 E.03389
G1 X90.622 Y110.865 E.04888
G1 X90.615 Y109.304 E.04894
G1 X90.742 Y107.663 E.05161
G1 X91.068 Y106.78 E.02951
G1 X91.02 Y106.415 E.01154
G1 X91.079 Y105.684 E.02299
G1 X91.526 Y104.087 E.052
G1 X92.021 Y102.719 E.04561
G1 X92.637 Y101.333 E.04756
G1 X93.309 Y100.492 E.03375
G1 X93.624 Y99.601 E.02963
G1 X94.614 Y98.188 E.0541
G1 X95.595 Y97.009 E.04809
G1 X96.576 Y95.992 E.0443
G1 X96.576 Y95.992 F9000
G1 X96.847 Y96.254
G1 F1200
G1 X96.943 Y96.155 E.00432
G1 X97.843 Y95.63 E.03267
G1 X98.35 Y94.972 E.02605
G1 X99.827 Y93.928 E.05671
G1 X101.081 Y93.2 E.04546
G1 X102.462 Y92.53 E.04813
G1 X103.053 Y92.378 E.01913
G1 X103.47 Y92.359 E.01309
G1 X103.799 Y92.101 E.01311
G1 X104.389 Y91.817 E.02053
G1 X105.888 Y91.429 E.04855
G1 X107.364 Y91.163 E.04702
G1 X108.9 Y91.006 E.04841
G1 X109.421 Y91.047 E.01639
G1 X109.853 Y91.185 E.01422
G1 X110.677 Y91.002 E.02647
G1 X111.575 Y91.055 E.02821
G1 X113.838 Y91.371 E.07164
G1 X115.407 Y91.756 E.05065
G1 X115.993 Y92.027 E.02024
G1 X116.354 Y92.304 E.01427
G1 X116.812 Y92.308 E.01436
G1 X117.264 Y92.42 E.0146
G1 X118.745 Y93.109 E.05121
G1 X120.062 Y93.859 E.04752
G1 X121.324 Y94.708 E.04769
G1 X121.779 Y95.162 E.02015
G1 X122.023 Y95.545 E.01424
G1 X122.453 Y95.706 E.0144
G1 X122.841 Y95.966 E.01464
G1 X124.084 Y97.217 E.05529
G1 X124.996 Y98.3 E.04439
G1 X125.896 Y99.543 E.04812
G1 X126.148 Y100.099 E.01914
G1 X126.239 Y100.506 E.01308
G1 X126.54 Y100.773 E.01262
G1 X126.908 Y101.273 E.01947
G1 X127.555 Y102.68 E.04856
G1 X128.051 Y104.006 E.04439
G1 X128.527 Y105.689 E.05484
G1 X128.563 Y106.186 E.01562
G1 X128.499 Y106.62 E.01375
G1 X128.704 Y107 E.01354
G1 X128.881 Y107.63 E.02052
G1 X129.001 Y109.144 E.04762
G1 X129.009 Y110.674 E.04797
G1 X128.883 Y112.288 E.05076
G1 X128.747 Y112.766 E.01558
G1 X128.54 Y113.151 E.01371
G1 X128.602 Y113.579 E.01356
G1 X128.552 Y114.233 E.02057
G1 X128.117 Y115.792 E.05075
G1 X127.632 Y117.134 E.04474
G1 X127.026 Y118.497 E.04677
G1 X126.659 Y119.023 E.02011
G1 X126.344 Y119.314 E.01345
G1 X126.055 Y120.2 E.02922
G1 X125.082 Y121.589 E.05317
G1 X124.129 Y122.734 E.04671
G1 X123.093 Y123.808 E.04679
G1 X122.568 Y124.177 E.02012
G1 X122.148 Y124.351 E.01425
G1 X121.914 Y124.746 E.0144
G1 X121.591 Y125.083 E.01464
G1 X120.143 Y126.09 E.0553
G1 X118.918 Y126.8 E.04439
G1 X117.538 Y127.47 E.0481
G1 X116.947 Y127.622 E.01913
G1 X116.53 Y127.641 E.01309
G1 X116.214 Y127.891 E.01263
