; generated by PrusaSlicer 2.8.1+win64 on 2025-04-04 at 14:58:12 UTC

; 

; external perimeters extrusion width = 0.42mm
; perimeters extrusion width = 0.44mm
; infill extrusion width = 0.44mm
; solid infill extrusion width = 0.44mm
; top infill extrusion width = 0.40mm
; first layer extrusion width = 0.42mm

M201 X500 Y500 Z100 E5000 ; sets maximum accelerations, mm/sec^2
M203 X500 Y500 Z10 E60 ; sets maximum feedrates, mm / sec
M204 S500 T1000 ; sets acceleration (S) and retract acceleration (R), mm/sec^2
M205 X8.00 Y8.00 Z0.40 E5.00 ; sets the jerk limits, mm/sec
M205 S0 T0 ; sets the minimum extruding and travel feed rate, mm/sec

; printing object v2_zadneekoleso.STL id:0 copy 0
; stop printing object v2_zadneekoleso.STL id:0 copy 0

;TYPE:Custom
G90 ; use absolute coordinates
M83 ; extruder relative mode
M104 S150 ; set temporary nozzle temp to prevent oozing during homing
M140 S60 ; set final bed temp
G4 S30 ; allow partial nozzle warmup
G28 ; home all axis and restore leveling
G1 Z50 F240
G1 X2.0 Y10 F3000
M104 S210 ; set final nozzle temp
M190 S60 ; wait for bed temp to stabilize
M109 S210 ; wait for nozzle temp to stabilize
G1 Z0.28 F240
G92 E0
G1 X2.0 Y140 E10 F1500 ; prime the nozzle
G1 X2.3 Y140 F5000
G92 E0
G1 X2.3 Y10 E10 F1200 ; prime the nozzle
G92 E0
G21 ; set units to millimeters
G90 ; use absolute coordinates
M83 ; use relative distances for extrusion
; Filament gcode
M107
;LAYER_CHANGE
;Z:0.2
;HEIGHT:0.2
G1 E-.8 F1800
G1 Z.2 F9000
G1 X93.969 Y91.936
G1 Z.2
G1 E.8 F1800
M204 S500
;TYPE:Skirt/Brim
;WIDTH:0.42
G1 F1200
G1 X95.041 Y91.066 E.04329
G1 X98.427 Y88.972 E.12483
G1 X100.693 Y87.734 E.08096
G1 X102.002 Y87.215 E.04415
G1 X106.419 Y86.264 E.14167
G1 X108.869 Y85.894 E.07769
G1 X110.711 Y85.881 E.05776
G1 X114.753 Y86.471 E.12808
G1 X117.182 Y86.961 E.07769
G1 X118.52 Y87.405 E.0442
G1 X122.513 Y89.515 E.1416
G1 X124.629 Y90.807 E.07774
G1 X126.048 Y91.981 E.05775
G1 X127.815 Y93.914 E.08211
G1 X130.311 Y96.968 E.12367
G1 X131.243 Y98.556 E.05773
G1 X132.719 Y102.254 E.12484
G1 X133.659 Y105.149 E.09544
G1 X133.876 Y106.512 E.04327
G1 X133.997 Y110.595 E.12808
G1 X133.936 Y113.072 E.07769
G1 X133.629 Y114.889 E.05778
G1 X132.838 Y117.385 E.0821
G1 X131.442 Y121.074 E.12367
G1 X130.532 Y122.676 E.05777
G1 X129.005 Y124.663 E.07857
G1 X126.031 Y128.064 E.14166
G1 X124.959 Y128.934 E.04329
G1 X122.844 Y130.279 E.07859
G1 X118.886 Y132.457 E.14165
G1 X117.581 Y132.908 E.04329
G1 X113.683 Y133.718 E.12483
G1 X111.131 Y134.106 E.08094
G1 X109.722 Y134.147 E.0442
G1 X105.247 Y133.529 E.14164
G1 X102.818 Y133.039 E.07769
G1 X101.48 Y132.595 E.0442
G1 X97.487 Y130.485 E.1416
G1 X95.371 Y129.193 E.07774
G1 X93.952 Y128.019 E.05775
G1 X92.185 Y126.086 E.08211
G1 X89.689 Y123.032 E.12367
G1 X88.757 Y121.444 E.05773
G1 X87.281 Y117.746 E.12484
G1 X86.341 Y114.851 E.09544
G1 X86.124 Y113.488 E.04327
G1 X86.003 Y109.411 E.12789
G1 X86.064 Y106.928 E.07788
G1 X86.371 Y105.111 E.05778
G1 X87.162 Y102.615 E.0821
G1 X88.558 Y98.926 E.12367
G1 X89.468 Y97.324 E.05777
G1 X90.995 Y95.337 E.07857
G1 X93.93 Y91.981 E.13979
;WIPE_START
G1 F7200
G1 X93.969 Y91.936 E-.01414
G1 X95.041 Y91.066 E-.32789
G1 X96.681 Y90.052 E-.45797
;WIPE_END
G1 X95.967 Y95.017 F9000
G1 E.8 F1800
G1 F1200
G1 X96.78 Y94.471 E.03071
G1 X97.552 Y93.663 E.03504
G1 X98.919 Y92.718 E.05211
G1 X100.356 Y91.878 E.05219
G1 X101.934 Y91.115 E.05496
G1 X102.871 Y90.935 E.02992
G1 X103.809 Y90.412 E.03367
G1 X105.595 Y89.949 E.05785
G1 X107.121 Y89.674 E.04862
G1 X108.786 Y89.493 E.05251
G1 X109.834 Y89.644 E.0332
G1 X110.677 Y89.485 E.0269
G1 X112.04 Y89.583 E.04285
G1 X114.079 Y89.881 E.06461
G1 X115.867 Y90.313 E.05767
G1 X116.753 Y90.788 E.03152
G1 X117.793 Y91.004 E.0333
G1 X119.539 Y91.822 E.06045
G1 X120.866 Y92.583 E.04796
G1 X122.225 Y93.498 E.05137
G1 X122.976 Y94.273 E.03384
G1 X123.854 Y94.841 E.03279
G1 X125.046 Y96.034 E.05288
G1 X126.045 Y97.194 E.048
G1 X127.173 Y98.747 E.06018
G1 X127.57 Y99.66 E.03122
G1 X128.251 Y100.579 E.03586
G1 X128.987 Y102.195 E.05568
G1 X129.517 Y103.636 E.04814
G1 X129.961 Y105.163 E.04986
G1 X130.05 Y106.269 E.03479
G1 X130.344 Y107.228 E.03145
G1 X130.506 Y109.028 E.05667
G1 X130.518 Y110.652 E.05092
G1 X130.411 Y112.282 E.05122
G1 X130.075 Y113.437 E.03772
G1 X130.083 Y114.247 E.0254
G1 X129.57 Y116.201 E.06334
G1 X129.04 Y117.676 E.04914
G1 X128.375 Y119.173 E.05136
G1 X127.741 Y120.048 E.03388
G1 X127.35 Y120.983 E.03178
G1 X126.327 Y122.444 E.05592
G1 X125.261 Y123.731 E.0524
G1 X124.038 Y124.988 E.05499
G1 X123.275 Y125.444 E.02787
G1 X122.448 Y126.337 E.03816
G1 X121.081 Y127.282 E.05211
G1 X119.642 Y128.123 E.05226
G1 X118.079 Y128.875 E.05438
G1 X117.111 Y129.114 E.03126
G1 X116.108 Y129.61 E.03508
G1 X114.39 Y130.054 E.05564
G1 X112.879 Y130.326 E.04814
G1 X111.214 Y130.507 E.05251
G1 X110.225 Y130.364 E.03133
G1 X109.221 Y130.515 E.03183
G1 X107.455 Y130.37 E.05556
G1 X105.825 Y130.1 E.0518
G1 X104.21 Y129.705 E.05213
G1 X103.18 Y129.21 E.03583
G1 X102.207 Y128.996 E.03124
G1 X100.461 Y128.178 E.06045
G1 X99.134 Y127.417 E.04796
G1 X97.775 Y126.502 E.05137
G1 X97.023 Y125.725 E.0339
G1 X96.16 Y125.169 E.03219
G1 X94.939 Y123.95 E.0541
G1 X93.879 Y122.71 E.05115
G1 X92.824 Y121.248 E.05653
G1 X92.429 Y120.34 E.03105
G1 X91.749 Y119.421 E.03584
G1 X91.013 Y117.805 E.05568
G1 X90.483 Y116.364 E.04814
G1 X90.039 Y114.837 E.04986
G1 X89.95 Y113.731 E.03479
G1 X89.656 Y112.772 E.03145
G1 X89.494 Y110.972 E.05667
G1 X89.482 Y109.348 E.05092
G1 X89.589 Y107.718 E.05122
G1 X89.925 Y106.563 E.03772
G1 X89.917 Y105.753 E.0254
G1 X90.43 Y103.799 E.06334
G1 X90.96 Y102.324 E.04914
G1 X91.625 Y100.827 E.05136
G1 X92.259 Y99.952 E.03388
G1 X92.65 Y99.017 E.03178
G1 X93.673 Y97.556 E.05592
G1 X94.741 Y96.268 E.05246
G1 X95.923 Y95.057 E.05306
G1 X95.923 Y95.057 F9000
G1 X96.193 Y95.321
G1 F1200
G1 X96.209 Y95.304 E.00073
G1 X97.027 Y94.78 E.03046
G1 X97.781 Y93.963 E.03486
G1 X99.128 Y93.033 E.05132
G1 X100.527 Y92.214 E.05083
G1 X102.075 Y91.466 E.05391
G1 X103.001 Y91.294 E.02953
G1 X103.928 Y90.771 E.03337
G1 X105.669 Y90.319 E.0564
G1 X107.168 Y90.048 E.04776
G1 X108.802 Y89.871 E.05153
G1 X109.843 Y90.027 E.033
G1 X110.676 Y89.863 E.02662
G1 X112.69 Y90.029 E.06336
G1 X114.01 Y90.251 E.04197
G1 X115.754 Y90.673 E.05626
G1 X116.649 Y91.16 E.03195
G1 X117.649 Y91.353 E.03193
G1 X119.359 Y92.153 E.05919
G1 X120.661 Y92.899 E.04705
G1 X121.999 Y93.8 E.05058
G1 X122.727 Y94.575 E.03334
G1 X123.6 Y95.121 E.03228
G1 X124.775 Y96.296 E.0521
G1 X125.754 Y97.434 E.04707
G1 X126.857 Y98.953 E.05886
G1 X127.231 Y99.857 E.03067
G1 X127.915 Y100.752 E.03532
G1 X128.636 Y102.332 E.05445
G1 X129.157 Y103.747 E.04728
G1 X129.594 Y105.252 E.04914
G1 X129.664 Y106.354 E.03462
G1 X129.97 Y107.28 E.03058
G1 X130.129 Y109.054 E.05585
G1 X130.141 Y110.648 E.04998
G1 X130.036 Y112.239 E.04999
G1 X129.696 Y113.356 E.03661
G1 X129.712 Y114.178 E.02578
G1 X129.212 Y116.082 E.06172
G1 X128.693 Y117.529 E.0482
G1 X128.037 Y119.004 E.05062
G1 X127.4 Y119.855 E.03333
G1 X127.013 Y120.812 E.03237
G1 X126.023 Y122.221 E.05399
G1 X124.985 Y123.473 E.05099
G1 X123.786 Y124.707 E.05395
G1 X123.01 Y125.162 E.0282
G1 X122.219 Y126.037 E.03698
G1 X120.872 Y126.967 E.05132
G1 X119.472 Y127.787 E.05087
G1 X117.933 Y128.527 E.05354
G1 X116.986 Y128.739 E.03043
G1 X115.997 Y129.249 E.03489
G1 X114.316 Y129.684 E.05444
G1 X112.831 Y129.952 E.04731
G1 X111.198 Y130.129 E.0515
G1 X110.195 Y129.978 E.0318
G1 X109.234 Y130.138 E.03055
G1 X107.494 Y129.995 E.05474
G1 X105.894 Y129.729 E.05086
G1 X104.316 Y129.343 E.05094
G1 X103.308 Y128.839 E.03534
G1 X102.351 Y128.647 E.0306
G1 X100.641 Y127.847 E.05919
G1 X99.339 Y127.101 E.04705
G1 X98.001 Y126.2 E.05058
G1 X97.272 Y125.423 E.03341
G1 X96.388 Y124.868 E.03273
G1 X95.211 Y123.689 E.05223
G1 X94.17 Y122.471 E.05024
G1 X93.14 Y121.042 E.05523
G1 X92.769 Y120.143 E.03049
G1 X92.085 Y119.248 E.03532
G1 X91.364 Y117.668 E.05445
G1 X90.843 Y116.253 E.04728
G1 X90.406 Y114.748 E.04914
G1 X90.336 Y113.646 E.03462
G1 X90.03 Y112.72 E.03058
G1 X89.871 Y110.946 E.05585
G1 X89.859 Y109.352 E.04998
G1 X89.964 Y107.761 E.04999
G1 X90.304 Y106.644 E.03661
G1 X90.288 Y105.822 E.02578
G1 X90.788 Y103.918 E.06172
G1 X91.307 Y102.471 E.0482
G1 X91.963 Y100.996 E.05062
G1 X92.6 Y100.145 E.03333
G1 X92.987 Y99.188 E.03237
G1 X93.977 Y97.779 E.05399
G1 X95.016 Y96.526 E.05104
G1 X96.151 Y95.364 E.05093
G1 X96.151 Y95.364 F9000
G1 X96.42 Y95.627
G1 F1200
G1 X96.465 Y95.581 E.00202
G1 X97.281 Y95.081 E.03001
G1 X98.01 Y94.263 E.03435
G1 X99.336 Y93.347 E.05053
G1 X100.698 Y92.55 E.04948
G1 X102.215 Y91.817 E.05283
G1 X103.132 Y91.654 E.0292
G1 X104.048 Y91.129 E.0331
G1 X105.743 Y90.689 E.05491
G1 X107.216 Y90.422 E.04694
G1 X108.817 Y90.249 E.05049
G1 X109.852 Y90.41 E.03284
G1 X110.675 Y90.241 E.02634
G1 X111.98 Y90.335 E.04102
G1 X113.941 Y90.622 E.06214
G1 X115.64 Y91.034 E.05481
G1 X116.546 Y91.534 E.03245
G1 X117.505 Y91.702 E.03053
G1 X119.178 Y92.484 E.0579
G1 X120.456 Y93.216 E.04618
G1 X121.773 Y94.103 E.04979
G1 X122.476 Y94.879 E.03283
G1 X123.374 Y95.423 E.03292
G1 X124.502 Y96.557 E.05015
G1 X125.463 Y97.673 E.04618
G1 X126.541 Y99.16 E.05759
G1 X126.889 Y100.054 E.03008
G1 X127.58 Y100.925 E.03486
G1 X128.284 Y102.469 E.05321
G1 X128.797 Y103.859 E.04646
G1 X129.227 Y105.34 E.04835
G1 X129.277 Y106.428 E.03415
G1 X129.596 Y107.334 E.03012
G1 X129.753 Y109.08 E.05497
G1 X129.764 Y110.644 E.04904
G1 X129.661 Y112.197 E.0488
G1 X129.317 Y113.274 E.03545
G1 X129.34 Y114.109 E.02619
G1 X128.855 Y115.962 E.06006
G1 X128.345 Y117.382 E.04731
G1 X127.7 Y118.834 E.04982
G1 X127.057 Y119.661 E.03285
G1 X126.694 Y120.611 E.03189
G1 X125.719 Y121.998 E.05316
G1 X124.71 Y123.216 E.04959
G1 X123.534 Y124.425 E.05288
G1 X122.743 Y124.88 E.02861
G1 X121.99 Y125.737 E.03577
G1 X120.664 Y126.653 E.05053
G1 X119.302 Y127.45 E.04948
G1 X117.787 Y128.178 E.0527
G1 X116.85 Y128.369 E.02998
G1 X115.885 Y128.889 E.03437
G1 X114.242 Y129.314 E.05321
G1 X112.784 Y129.578 E.04646
G1 X111.182 Y129.751 E.05052
G1 X110.164 Y129.591 E.03231
G1 X109.247 Y129.761 E.02924
G1 X107.532 Y129.62 E.05395
G1 X105.977 Y129.361 E.04943
G1 X104.423 Y128.981 E.05016
G1 X103.436 Y128.465 E.03492
G1 X102.495 Y128.298 E.02997
G1 X100.822 Y127.516 E.0579
G1 X99.544 Y126.784 E.04618
G1 X98.227 Y125.897 E.04979
G1 X97.523 Y125.119 E.0329
G1 X96.616 Y124.567 E.03329
G1 X95.484 Y123.428 E.05035
G1 X94.462 Y122.232 E.04933
G1 X93.457 Y120.836 E.05393
G1 X93.111 Y119.946 E.02994
G1 X92.42 Y119.075 E.03486
G1 X91.716 Y117.531 E.05321
G1 X91.203 Y116.141 E.04646
G1 X90.773 Y114.66 E.04835
G1 X90.723 Y113.572 E.03415
G1 X90.404 Y112.666 E.03012
G1 X90.247 Y110.92 E.05497
G1 X90.236 Y109.356 E.04904
G1 X90.339 Y107.803 E.0488
G1 X90.683 Y106.726 E.03545
G1 X90.66 Y105.891 E.02619
G1 X91.145 Y104.038 E.06006
G1 X91.655 Y102.618 E.04731
G1 X92.3 Y101.166 E.04982
G1 X92.943 Y100.339 E.03285
G1 X93.306 Y99.389 E.03189
G1 X94.281 Y98.002 E.05316
G1 X95.291 Y96.784 E.04961
G1 X96.378 Y95.67 E.0488
G1 X96.378 Y95.67 F9000
G1 X96.648 Y95.933
G1 F1200
G1 X96.721 Y95.859 E.00326
G1 X97.536 Y95.384 E.02958
G1 X98.239 Y94.563 E.03389
G1 X99.545 Y93.661 E.04977
G1 X100.868 Y92.886 E.04807
G1 X102.355 Y92.168 E.05177
G1 X103.262 Y92.015 E.02884
G1 X104.168 Y91.487 E.03288
G1 X105.818 Y91.059 E.05345
G1 X107.263 Y90.796 E.04605
G1 X108.832 Y90.626 E.04948
G1 X109.862 Y90.794 E.03272
G1 X110.676 Y90.619 E.02611
G1 X112.577 Y90.774 E.0598
G1 X113.872 Y90.993 E.04118
G1 X115.525 Y91.394 E.05333
G1 X116.444 Y91.91 E.03305
G1 X116.836 Y91.919 E.01229
G1 X117.363 Y92.052 E.01704
G1 X118.998 Y92.815 E.05657
G1 X120.251 Y93.532 E.04526
G1 X121.547 Y94.405 E.04899
G1 X122.225 Y95.185 E.0324
G1 X123.12 Y95.702 E.03241
G1 X124.23 Y96.818 E.04935
G1 X125.172 Y97.913 E.04529
G1 X126.225 Y99.366 E.05626
G1 X126.546 Y100.253 E.02958
G1 X126.82 Y100.503 E.01163
G1 X127.245 Y101.098 E.02293
G1 X127.933 Y102.606 E.05197
G1 X128.437 Y103.97 E.04559
G1 X128.86 Y105.428 E.0476
G1 X128.888 Y106.503 E.03372
G1 X129.223 Y107.389 E.0297
G1 X129.377 Y109.106 E.05405
G1 X129.388 Y110.626 E.04766
G1 X129.286 Y112.154 E.04802
G1 X129.105 Y112.851 E.02258
G1 X128.936 Y113.192 E.01193
G1 X128.968 Y114.041 E.02664
G1 X128.497 Y115.843 E.0584
G1 X127.998 Y117.235 E.04636
G1 X127.363 Y118.663 E.049
G1 X126.713 Y119.467 E.03242
G1 X126.357 Y120.441 E.03252
G1 X125.415 Y121.774 E.05118
G1 X124.434 Y122.958 E.04821
G1 X123.283 Y124.142 E.05177
G1 X122.475 Y124.598 E.02909
G1 X122.273 Y124.916 E.01181
G1 X121.761 Y125.437 E.0229
G1 X120.455 Y126.339 E.04977
G1 X119.132 Y127.114 E.04807
G1 X117.642 Y127.83 E.05183
G1 X116.713 Y127.998 E.0296
G1 X115.772 Y128.528 E.03386
G1 X114.168 Y128.945 E.05196
G1 X112.737 Y129.204 E.0456
G1 X111.168 Y129.374 E.04948
G1 X110.132 Y129.203 E.03292
G1 X109.259 Y129.384 E.02795
G1 X107.571 Y129.245 E.05311
G1 X106.046 Y128.99 E.04848
G1 X104.53 Y128.619 E.04894
G1 X103.874 Y128.32 E.0226
G1 X103.564 Y128.09 E.0121
G1 X103.166 Y128.081 E.01248
G1 X102.638 Y127.948 E.01707
G1 X101.002 Y127.185 E.0566
G1 X99.749 Y126.468 E.04526
G1 X98.453 Y125.595 E.04899
G1 X97.775 Y124.815 E.0324
G1 X96.87 Y124.288 E.03284
G1 X95.756 Y123.167 E.04955
G1 X94.754 Y121.993 E.04839
G1 X93.774 Y120.631 E.05261
G1 X93.454 Y119.747 E.02948
G1 X93.18 Y119.497 E.01163
G1 X92.755 Y118.902 E.02293
G1 X92.067 Y117.394 E.05197
G1 X91.563 Y116.03 E.04559
G1 X91.14 Y114.572 E.0476
G1 X91.112 Y113.497 E.03372
G1 X90.777 Y112.611 E.0297
G1 X90.623 Y110.894 E.05405
G1 X90.612 Y109.374 E.04766
G1 X90.714 Y107.846 E.04802
G1 X90.895 Y107.149 E.02258
G1 X91.064 Y106.808 E.01193
G1 X91.032 Y105.959 E.02664
G1 X91.503 Y104.157 E.0584
G1 X92.002 Y102.765 E.04636
G1 X92.637 Y101.337 E.049
G1 X93.287 Y100.533 E.03242
G1 X93.643 Y99.559 E.03252
G1 X94.585 Y98.226 E.05118
G1 X95.566 Y97.042 E.04821
G1 X96.606 Y95.976 E.0467
G1 X96.606 Y95.976 F9000
G1 X96.876 Y96.24
G1 F1200
G1 X96.975 Y96.138 E.00446
G1 X97.793 Y95.687 E.02929
G1 X98.013 Y95.331 E.01312
G1 X98.469 Y94.863 E.02049
G1 X99.753 Y93.975 E.04895
G1 X101.039 Y93.223 E.04671
G1 X102.493 Y92.52 E.05064
G1 X103.392 Y92.376 E.02855
G1 X104.289 Y91.845 E.03268
G1 X105.892 Y91.428 E.05193
G1 X107.31 Y91.171 E.04518
G1 X108.846 Y91.004 E.04844
G1 X109.873 Y91.178 E.03266
G1 X110.677 Y90.997 E.02584
G1 X111.92 Y91.087 E.03908
G1 X113.802 Y91.363 E.05964
G1 X115.41 Y91.754 E.05189
G1 X116.342 Y92.287 E.03366
G1 X116.769 Y92.291 E.01339
G1 X117.22 Y92.401 E.01456
G1 X118.817 Y93.147 E.05527
G1 X120.046 Y93.849 E.04438
G1 X121.32 Y94.707 E.04816
G1 X121.75 Y95.143 E.0192
G1 X121.973 Y95.491 E.01296
G1 X122.351 Y95.641 E.01275
G1 X122.866 Y95.982 E.01937
G1 X123.958 Y97.079 E.04853
G1 X124.88 Y98.153 E.04438
G1 X125.908 Y99.571 E.05491
G1 X126.113 Y100.026 E.01565
G1 X126.202 Y100.452 E.01365
G1 X126.527 Y100.742 E.01366
G1 X126.91 Y101.272 E.0205
G1 X127.582 Y102.743 E.05071
G1 X128.076 Y104.082 E.04475
G1 X128.492 Y105.515 E.04679
G1 X128.551 Y106.157 E.02021
G1 X128.498 Y106.579 E.01334
G1 X128.849 Y107.444 E.02927
G1 X129.001 Y109.132 E.05314
G1 X129.01 Y110.621 E.04669
G1 X128.911 Y112.11 E.04679
G1 X128.746 Y112.734 E.02024
G1 X128.554 Y113.109 E.01321
G1 X128.595 Y113.975 E.02718
G1 X128.139 Y115.724 E.05667
G1 X127.65 Y117.089 E.04546
G1 X127.026 Y118.492 E.04814
G1 X126.671 Y118.991 E.0192
G1 X126.367 Y119.271 E.01296
G1 X126.285 Y119.671 E.0128
G1 X126.037 Y120.239 E.01943
G1 X125.111 Y121.551 E.05035
G1 X124.159 Y122.701 E.04681
G1 X123.033 Y123.858 E.05062
G1 X122.205 Y124.316 E.02967
G1 X121.987 Y124.669 E.01301
G1 X121.531 Y125.137 E.02049
G1 X120.247 Y126.024 E.04893
G1 X118.961 Y126.777 E.04673
G1 X117.498 Y127.481 E.05091
G1 X116.576 Y127.625 E.02926
G1 X116.247 Y127.884 E.01313
G1 X115.659 Y128.168 E.02047
G1 X114.093 Y128.575 E.05073
G1 X112.689 Y128.829 E.04474
G1 X111.154 Y128.996 E.04841
G1 X110.099 Y128.814 E.03357
G1 X109.697 Y128.956 E.01337
G1 X109.237 Y129.007 E.01451
G1 X107.611 Y128.87 E.05116
G1 X106.115 Y128.62 E.04756
G1 X104.638 Y128.257 E.04769
G1 X104.052 Y127.987 E.02023
G1 X103.693 Y127.712 E.01418
