; generated by PrusaSlicer 2.7.1+win64 on 2025-04-04 at 15:40:17 UTC

; 

; external perimeters extrusion width = 0.42mm
; perimeters extrusion width = 0.44mm
; infill extrusion width = 0.44mm
; solid infill extrusion width = 0.44mm
; top infill extrusion width = 0.40mm
; support material extrusion width = 0.36mm
; first layer extrusion width = 0.42mm

;TYPE:Custom
G90 ; use absolute coordinates
M83 ; extruder relative mode
M140 S60 ; set final bed temp
M104 S150 ; set temporary nozzle temp to prevent oozing during homing and auto bed leveling
G4 S10 ; allow partial nozzle warmup
G28 ; home all axis
G29 ; auto bed levelling
G1 Z50 F240
G1 X2 Y10 F3000
M104 S210 ; set final nozzle temp
M190 S60 ; wait for bed temp to stabilize
M109 S210 ; wait for nozzle temp to stabilize
G1 Z0.28 F240
G92 E0
G1 Y140 E10 F1500 ; prime the nozzle
G1 X2.3 F5000
G92 E0
G1 Y10 E10 F1200 ; prime the nozzle
G92 E0
G21 ; set units to millimeters
G90 ; use absolute coordinates
M83 ; use relative distances for extrusion
; Filament gcode
M107
;LAYER_CHANGE
;Z:0.2
;HEIGHT:0.2
;BEFORE_LAYER_CHANGE
G92 E0
;0.2


G1 E-.8 F1800
G1 Z.2 F9000
;AFTER_LAYER_CHANGE
;0.2
G1 X58.141 Y60.962
G1 Z.2
G1 E.8 F1800
M204 S500
;TYPE:Skirt/Brim
;WIDTH:0.42
G1 F1200
G1 X59.539 Y60.121 E.05115
G1 X60.529 Y59.973 E.03139
G1 X119.471 Y59.973 E1.84809
G1 X121.054 Y60.367 E.05115
G1 X121.859 Y60.962 E.03139
G1 X124.788 Y63.891 E.12988
G1 X125.629 Y65.289 E.05115
G1 X125.777 Y66.279 E.03139
G1 X125.777 Y75.221 E.28037
G1 X125.669 Y76.07 E.02683
G1 X115.669 Y114.57 E1.2472
G1 X114.788 Y116.109 E.0556
G1 X111.859 Y119.038 E.12988
G1 X110.461 Y119.879 E.05115
G1 X109.491 Y120.027 E.03077
G1 X92.581 Y120.127 E.53021
G1 X70.509 Y120.027 E.69206
G1 X68.928 Y119.624 E.05116
G1 X68.141 Y119.038 E.03077
G1 X65.212 Y116.109 E.12988
G1 X64.331 Y114.57 E.0556
G1 X54.331 Y76.07 E1.2472
G1 X54.223 Y75.221 E.02683
G1 X54.223 Y66.279 E.28037
G1 X54.617 Y64.696 E.05115
G1 X55.212 Y63.891 E.03139
G1 X58.099 Y61.004 E.12801
;WIPE_START
G1 F7200
G1 X58.141 Y60.962 E-.01411
G1 X59.539 Y60.121 E-.38747
G1 X60.529 Y59.973 E-.23774
G1 X61.206 Y59.973 E-.16068
;WIPE_END
G1 X60.274 Y64.227 F9000
G1 E.8 F1800
G1 F1200
G1 X60.418 Y64.129 E.00546
G1 X62.079 Y63.636 E.05433
G1 X117.886 Y63.64 E1.74979
G1 X118.959 Y63.864 E.03437
G1 X119.886 Y64.306 E.0322
G1 X120.959 Y65.236 E.04452
G1 X121.702 Y66.342 E.04178
G1 X122.069 Y67.524 E.03881
G1 X122.107 Y73.719 E.19424
G1 X121.718 Y75.12 E.04559
G1 X121.178 Y76.006 E.03253
G1 X120.385 Y76.824 E.03572
G1 X119.471 Y77.421 E.03423
G1 X118.052 Y77.845 E.04644
G1 X112.113 Y77.861 E.18621
G1 X112.113 Y112.185 E1.0762
G1 X111.692 Y113.674 E.04852
G1 X111.028 Y114.688 E.038
G1 X110.362 Y115.344 E.02931
G1 X109.582 Y115.87 E.0295
G1 X107.922 Y116.363 E.0543
G1 X94.564 Y116.364 E.41883
G1 X92.579 Y116.463 E.06232
G1 X87.421 Y116.463 E.16173
G1 X85.436 Y116.364 E.06232
G1 X72.162 Y116.363 E.4162
G1 X71.191 Y116.184 E.03096
G1 X70.261 Y115.787 E.03171
G1 X69.038 Y114.762 E.05003
G1 X68.247 Y113.544 E.04554
G1 X67.887 Y112.161 E.04481
G1 X67.887 Y77.861 E1.07545
G1 X61.835 Y77.829 E.18976
G1 X60.779 Y77.534 E.03438
G1 X59.799 Y76.971 E.03544
G1 X58.699 Y75.848 E.04929
G1 X58.186 Y74.888 E.03413
G1 X57.887 Y73.66 E.03963
G1 X57.887 Y67.814 E.1833
G1 X58.308 Y66.326 E.04849
G1 X58.972 Y65.312 E.038
G1 X59.638 Y64.656 E.02931
G1 X60.225 Y64.26 E.0222
G1 X60.434 Y64.573 F9000
G1 F1200
G1 X60.604 Y64.459 E.00642
G1 X62.106 Y64.014 E.04912
G1 X117.867 Y64.017 E1.74835
G1 X118.82 Y64.215 E.03052
G1 X119.66 Y64.608 E.02908
G1 X120.693 Y65.504 E.04288
G1 X121.351 Y66.483 E.03698
G1 X121.692 Y67.555 E.03527
G1 X121.73 Y73.694 E.19249
G1 X121.363 Y74.991 E.04226
G1 X120.869 Y75.789 E.02943
G1 X120.129 Y76.545 E.03317
G1 X119.335 Y77.069 E.02983
G1 X118.023 Y77.468 E.043
G1 X111.736 Y77.484 E.19713
G1 X111.736 Y112.159 E1.08721
G1 X111.338 Y113.542 E.04512
G1 X110.749 Y114.433 E.03349
G1 X110.11 Y115.062 E.02811
G1 X109.396 Y115.541 E.02696
G1 X107.894 Y115.986 E.04912
G1 X94.559 Y115.987 E.41811
G1 X92.572 Y116.086 E.06238
G1 X87.428 Y116.086 E.16129
G1 X85.441 Y115.987 E.06238
G1 X72.179 Y115.986 E.41582
G1 X71.282 Y115.818 E.02861
G1 X70.437 Y115.453 E.02886
G1 X69.303 Y114.492 E.04661
G1 X68.604 Y113.418 E.04018
G1 X68.264 Y112.137 E.04156
G1 X68.264 Y77.485 E1.08649
G1 X61.913 Y77.459 E.19913
G1 X60.904 Y77.177 E.03285
G1 X60.011 Y76.658 E.03238
G1 X59.018 Y75.645 E.04448
G1 X58.546 Y74.773 E.03109
G1 X58.264 Y73.636 E.03673
G1 X58.264 Y67.841 E.1817
G1 X58.662 Y66.458 E.04512
G1 X59.251 Y65.567 E.03349
G1 X59.89 Y64.938 E.02811
G1 X60.384 Y64.606 E.01866
G1 X60.594 Y64.919 F9000
G1 F1200
G1 X60.79 Y64.788 E.00739
G1 X62.133 Y64.391 E.04391
G1 X117.848 Y64.394 E1.7469
G1 X118.683 Y64.567 E.02674
G1 X119.434 Y64.911 E.0259
G1 X120.427 Y65.773 E.04123
G1 X121.002 Y66.625 E.03223
G1 X121.315 Y67.587 E.03172
G1 X121.352 Y73.669 E.1907
G1 X121.009 Y74.86 E.03886
G1 X120.561 Y75.57 E.02632
G1 X119.874 Y76.267 E.03069
G1 X119.196 Y76.717 E.02551
G1 X117.993 Y77.091 E.0395
G1 X111.359 Y77.108 E.20801
G1 X111.359 Y112.131 E1.09812
G1 X110.984 Y113.407 E.0417
G1 X110.47 Y114.179 E.02908
G1 X109.885 Y114.759 E.02583
G1 X109.21 Y115.212 E.02549
G1 X107.867 Y115.609 E.04391
G1 X94.553 Y115.61 E.41745
G1 X92.566 Y115.709 E.06238
G1 X87.434 Y115.709 E.16091
G1 X85.447 Y115.61 E.06238
G1 X72.198 Y115.609 E.41541
G1 X71.374 Y115.451 E.02631
G1 X70.615 Y115.119 E.02598
G1 X69.57 Y114.224 E.04314
G1 X68.937 Y113.24 E.03669
G1 X68.641 Y112.112 E.03657
G1 X68.641 Y77.109 E1.09749
G1 X61.987 Y77.089 E.20863
G1 X61.072 Y76.838 E.02975
G1 X60.222 Y76.345 E.03081
G1 X59.336 Y75.441 E.03969
G1 X58.905 Y74.656 E.02808
G1 X58.641 Y73.612 E.03376
G1 X58.641 Y67.869 E.18007
G1 X59.016 Y66.593 E.0417
G1 X59.53 Y65.821 E.02908
G1 X60.115 Y65.241 E.02583
G1 X60.544 Y64.953 E.0162
G1 X60.754 Y65.266 F9000
G1 F1200
G1 X60.976 Y65.117 E.00838
G1 X62.16 Y64.768 E.0387
G1 X117.829 Y64.771 E1.74546
G1 X118.548 Y64.92 E.02302
G1 X119.208 Y65.215 E.02267
G1 X120.161 Y66.042 E.03956
G1 X120.653 Y66.77 E.02755
G1 X120.938 Y67.621 E.02814
G1 X120.982 Y73.591 E.18719
G1 X120.654 Y74.728 E.0371
G1 X120.255 Y75.349 E.02314
G1 X119.62 Y75.988 E.02825
G1 X119.056 Y76.366 E.02129
G1 X117.963 Y76.714 E.03597
G1 X110.982 Y76.732 E.21889
G1 X110.982 Y112.103 E1.10903
G1 X110.632 Y113.271 E.03823
G1 X110.191 Y113.925 E.02473
G1 X109.66 Y114.457 E.02357
G1 X109.024 Y114.883 E.024
G1 X107.84 Y115.232 E.0387
G1 X94.548 Y115.233 E.41676
G1 X92.56 Y115.332 E.06241
G1 X87.44 Y115.332 E.16053
G1 X85.452 Y115.233 E.06241
G1 X72.215 Y115.232 E.41504
G1 X71.506 Y115.097 E.02263
G1 X70.792 Y114.785 E.02443
G1 X69.838 Y113.957 E.03961
G1 X69.294 Y113.113 E.03148
G1 X69.018 Y112.087 E.03331
G1 X69.018 Y76.732 E1.10853
G1 X62.063 Y76.719 E.21807
G1 X61.196 Y76.481 E.02819
G1 X60.436 Y76.034 E.02765
G1 X59.624 Y75.197 E.03656
G1 X59.264 Y74.539 E.02352
G1 X59.018 Y73.588 E.0308
G1 X59.018 Y67.897 E.17844
G1 X59.368 Y66.729 E.03823
G1 X59.809 Y66.075 E.02473
G1 X60.341 Y65.543 E.02359
G1 X60.705 Y65.299 E.01374
G1 X60.912 Y65.612 F9000
G1 F1200
G1 X61.161 Y65.447 E.00937
G1 X62.187 Y65.145 E.03353
G1 X117.81 Y65.148 E1.74402
G1 X118.413 Y65.273 E.01931
G1 X119.028 Y65.547 E.02111
G1 X119.893 Y66.308 E.03612
G1 X120.324 Y66.956 E.0244
G1 X120.571 Y67.71 E.02488
G1 X120.605 Y73.566 E.18361
G1 X120.321 Y74.549 E.03208
G1 X119.972 Y75.099 E.02042
G1 X119.391 Y75.688 E.02594
G1 X118.914 Y76.016 E.01815
G1 X117.876 Y76.346 E.03415
G1 X110.605 Y76.355 E.22798
G1 X110.605 Y112.074 E1.11994
G1 X110.28 Y113.132 E.0347
G1 X109.912 Y113.67 E.02044
G1 X109.407 Y114.176 E.02241
G1 X108.839 Y114.553 E.02138
G1 X107.813 Y114.855 E.03353
G1 X94.543 Y114.856 E.41607
G1 X92.553 Y114.955 E.06247
G1 X87.447 Y114.955 E.1601
G1 X85.457 Y114.856 E.06247
G1 X72.234 Y114.855 E.4146
G1 X71.6 Y114.732 E.02025
G1 X70.973 Y114.453 E.02152
G1 X70.108 Y113.693 E.0361
G1 X69.628 Y112.936 E.0281
G1 X69.395 Y112.063 E.02833
G1 X69.395 Y76.355 E1.1196
G1 X62.138 Y76.348 E.22754
G1 X61.321 Y76.125 E.02655
G1 X60.652 Y75.724 E.02446
G1 X59.914 Y74.954 E.03344
G1 X59.623 Y74.42 E.01907
G1 X59.395 Y73.563 E.02781
G1 X59.395 Y67.926 E.17674
G1 X59.72 Y66.868 E.0347
G1 X60.088 Y66.329 E.02046
G1 X60.594 Y65.824 E.02241
G1 X60.862 Y65.645 E.0101
G1 X61.068 Y65.959 F9000
G1 F1200
G1 X61.344 Y65.778 E.01035
G1 X62.214 Y65.522 E.02843
G1 X117.789 Y65.526 E1.74252
G1 X118.314 Y65.637 E.01682
G1 X118.845 Y65.878 E.01828
G1 X119.623 Y66.571 E.03267
G1 X119.994 Y67.14 E.0213
G1 X120.203 Y67.796 E.02159
G1 X120.228 Y73.54 E.1801
G1 X119.988 Y74.372 E.02715
G1 X119.688 Y74.85 E.01769
G1 X119.158 Y75.391 E.02375
G1 X118.77 Y75.666 E.01491
G1 X117.789 Y75.978 E.03228
G1 X110.228 Y75.978 E.23707
G1 X110.228 Y112.045 E1.13086
G1 X109.93 Y112.99 E.03107
G1 X109.634 Y113.415 E.01624
G1 X109.154 Y113.896 E.02131
G1 X108.656 Y114.222 E.01866
G1 X107.786 Y114.478 E.02843
G1 X94.538 Y114.479 E.41538
G1 X92.547 Y114.578 E.0625
G1 X87.453 Y114.578 E.15972
G1 X85.462 Y114.479 E.0625
G1 X72.253 Y114.478 E.41416
G1 X71.696 Y114.366 E.01781
G1 X71.155 Y114.122 E.01861
G1 X70.378 Y113.429 E.03264
G1 X69.984 Y112.809 E.02303
G1 X69.772 Y112.037 E.0251
G1 X69.772 Y75.978 E1.1306
G1 X62.213 Y75.978 E.23701
G1 X61.447 Y75.768 E.0249
G1 X60.871 Y75.416 E.02117
G1 X60.205 Y74.714 E.03034
G1 X59.98 Y74.299 E.0148
G1 X59.772 Y73.537 E.02477
G1 X59.772 Y67.955 E.17502
G1 X60.07 Y67.01 E.03107
G1 X60.366 Y66.585 E.01624
G1 X60.846 Y66.104 E.02131
G1 X61.018 Y65.992 E.00644
G1 X61.221 Y66.306 F9000
G1 F1200
G1 X61.525 Y66.109 E.01136
G1 X62.241 Y65.899 E.0234
G1 X117.768 Y65.903 E1.74101
G1 X118.211 Y66 E.01422
G1 X118.659 Y66.208 E.01549
G1 X119.35 Y66.833 E.02921
G1 X119.661 Y67.32 E.01812
G1 X119.834 Y67.879 E.01835
G1 X119.851 Y73.513 E.17665
G1 X119.635 Y74.237 E.02369
G1 X119.383 Y74.629 E.01461
G1 X118.578 Y75.34 E.03368
G1 X117.76 Y75.601 E.02692
G1 X109.851 Y75.601 E.24798
G1 X109.851 Y112.014 E1.1417
G1 X109.581 Y112.844 E.02737
G1 X109.357 Y113.159 E.01212
G1 X108.902 Y113.614 E.02018
G1 X108.475 Y113.891 E.01596
G1 X107.759 Y114.101 E.0234
G1 X94.533 Y114.102 E.41469
G1 X92.54 Y114.201 E.06257
G1 X87.46 Y114.201 E.15928
G1 X85.467 Y114.102 E.06257
G1 X72.273 Y114.101 E.41369
G1 X71.795 Y114.002 E.01531
G1 X71.341 Y113.792 E.01568
G1 X70.65 Y113.167 E.02921
G1 X70.338 Y112.679 E.01816
G1 X70.149 Y112.01 E.0218
G1 X70.149 Y75.601 E1.14158
G1 X62.24 Y75.601 E.24798
G1 X61.576 Y75.413 E.02164
G1 X61.126 Y75.137 E.01655
G1 X60.522 Y74.508 E.02734
G1 X60.337 Y74.174 E.01197
G1 X60.149 Y73.51 E.02164
G1 X60.149 Y67.986 E.1732
G1 X60.419 Y67.156 E.02737
G1 X60.643 Y66.841 E.01212
G1 X61.098 Y66.385 E.0202
G1 X61.171 Y66.339 E.00271
G1 X61.371 Y66.654 F9000
G1 F1200
G1 X61.704 Y66.442 E.01238
G1 X62.268 Y66.276 E.01843
G1 X117.746 Y66.28 E1.73947
G1 X118.471 Y66.535 E.0241
G1 X119.076 Y67.093 E.02581
G1 X119.309 Y67.456 E.01352
G1 X119.466 Y67.964 E.01667
G1 X119.474 Y73.483 E.17304
G1 X119.283 Y74.097 E.02016
G1 X118.649 Y74.834 E.03048
G1 X118.388 Y75.014 E.00994
G1 X117.731 Y75.224 E.02163
G1 X109.474 Y75.224 E.25889
G1 X109.474 Y111.982 E1.15252
G1 X109.234 Y112.694 E.02356
G1 X108.65 Y113.333 E.02714
G1 X108.296 Y113.558 E.01315
G1 X107.732 Y113.724 E.01843
G1 X94.528 Y113.725 E.414
G1 X92.533 Y113.824 E.06263
G1 X87.467 Y113.824 E.15884
G1 X85.472 Y113.725 E.06263
G1 X72.294 Y113.724 E.41319
G1 X71.529 Y113.464 E.02533
G1 X70.924 Y112.907 E.02578
G1 X70.692 Y112.545 E.01348
G1 X70.526 Y111.982 E.0184
G1 X70.526 Y75.224 E1.15252
G1 X62.268 Y75.224 E.25892
G1 X61.707 Y75.059 E.01833
G1 X61.38 Y74.858 E.01203
G1 X60.837 Y74.299 E.02443
G1 X60.526 Y73.482 E.02741
G1 X60.526 Y68.018 E.17132
G1 X60.766 Y67.306 E.02356
G1 X61.326 Y66.693 E.02603
G1 X61.602 Y66.948 F9000
G1 F1200
G1 X62.298 Y66.653 E.0237
G1 X117.724 Y66.657 E1.73784
G1 X118.282 Y66.863 E.01865
G1 X118.801 Y67.351 E.02234
G1 X119.097 Y68.048 E.02374
G1 X119.097 Y73.452 E.16944
G1 X118.934 Y73.953 E.01652
G1 X118.396 Y74.554 E.02529
G1 X117.701 Y74.847 E.02365
G1 X109.097 Y74.847 E.26977
G1 X109.097 Y111.951 E1.16337
G1 X108.912 Y112.496 E.01805
G1 X108.398 Y113.052 E.02374
G1 X107.702 Y113.347 E.0237
G1 X94.523 Y113.348 E.41322
G1 X92.527 Y113.447 E.06266
G1 X87.473 Y113.447 E.15846
G1 X85.477 Y113.348 E.06266
G1 X72.313 Y113.347 E.41275
G1 X71.718 Y113.137 E.01978
G1 X71.199 Y112.649 E.02234
G1 X70.903 Y111.952 E.02374
G1 X70.903 Y74.847 E1.1634
G1 X62.298 Y74.847 E.2698
G1 X61.632 Y74.576 E.02254
G1 X61.149 Y74.086 E.02157
G1 X60.903 Y73.452 E.02132
G1 X60.903 Y68.049 E.16941
G1 X61.088 Y67.504 E.01805
G1 X61.562 Y66.992 E.02188
G1 X61.827 Y67.257 F9000
G1 F1200
G1 X61.856 Y67.228 E.00129
G1 X62.329 Y67.03 E.01608
G1 X117.702 Y67.034 E1.73618
G1 X118.092 Y67.19 E.01317
G1 X118.523 Y67.607 E.0188
G1 X118.72 Y68.079 E.01604
G1 X118.72 Y73.419 E.16743
G1 X118.588 Y73.802 E.0127
G1 X118.144 Y74.272 E.02027
G1 X117.671 Y74.47 E.01608
G1 X108.72 Y74.47 E.28065
G1 X108.72 Y111.919 E1.17419
G1 X108.525 Y112.392 E.01604
G1 X108.144 Y112.772 E.01687
G1 X107.671 Y112.97 E.01608
G1 X94.518 Y112.971 E.4124
G1 X92.52 Y113.07 E.06272
G1 X87.48 Y113.07 E.15803
G1 X85.482 Y112.971 E.06272
G1 X72.333 Y112.97 E.41228
G1 X71.908 Y112.809 E.01425
G1 X71.477 Y112.393 E.01878
G1 X71.28 Y111.921 E.01604
G1 X71.28 Y74.47 E1.17425
G1 X62.329 Y74.47 E.28065
G1 X61.883 Y74.294 E.01503
G1 X61.456 Y73.867 E.01893
G1 X61.28 Y73.421 E.01503
G1 X61.28 Y68.081 E.16743
G1 X61.475 Y67.608 E.01604
G1 X61.784 Y67.299 E.0137
G1 X62.051 Y67.566 F9000
G1 F1200
G1 X62.11 Y67.507 E.00262
G1 X62.364 Y67.407 E.00856
G1 X117.682 Y67.414 E1.73446
G1 X117.9 Y67.517 E.00756
G1 X118.243 Y67.86 E.01521
G1 X118.343 Y68.114 E.00856
G1 X118.343 Y73.386 E.1653
G1 X118.243 Y73.64 E.00856
G1 X117.89 Y73.993 E.01565
G1 X117.636 Y74.093 E.00856
G1 X108.343 Y74.093 E.29138
G1 X108.343 Y111.886 E1.18497
G1 X108.243 Y112.14 E.00856
G1 X107.89 Y112.493 E.01565
G1 X107.636 Y112.593 E.00856
G1 X94.513 Y112.594 E.41146
G1 X92.514 Y112.693 E.06275
G1 X87.486 Y112.693 E.15765
G1 X85.487 Y112.594 E.06275
G1 X72.35 Y112.593 E.4119
G1 X72.1 Y112.483 E.00856
G1 X71.757 Y112.14 E.01521
G1 X71.657 Y111.886 E.00856
G1 X71.657 Y74.093 E1.18497
G1 X62.364 Y74.093 E.29138
G1 X62.11 Y73.993 E.00856
G1 X61.757 Y73.64 E.01565
G1 X61.657 Y73.386 E.00856
G1 X61.657 Y68.114 E.1653
G1 X61.757 Y67.86 E.00856
G1 X62.008 Y67.608 E.01115
G1 X62.295 Y67.861 F9000
G1 F1200
G1 X62.337 Y67.813 E.002
G1 X117.594 Y67.784 E1.73254
G1 X117.966 Y68.156 E.0165
G1 X117.966 Y73.344 E.16267
G1 X117.663 Y73.687 E.01435
G1 X107.966 Y73.716 E.30404
G1 X107.966 Y111.844 E1.19548
G1 X107.663 Y112.187 E.01435
G1 X94.508 Y112.217 E.41247
G1 X92.507 Y112.316 E.06282
G1 X87.493 Y112.316 E.15721
G1 X85.492 Y112.217 E.06282
G1 X72.406 Y112.216 E.4103
G1 X72.063 Y111.913 E.01435
G1 X72.034 Y73.716 E1.19764
G1 X62.337 Y73.687 E.30404
G1 X62.034 Y73.344 E.01435
G1 X62.034 Y68.156 E.16267
G1 X62.255 Y67.906 E.01046
G1 X62.516 Y68.167 F9000
G1 F1200
G1 X62.522 Y68.161 E.00027
G1 X117.478 Y68.161 E1.72311
G1 X117.589 Y68.272 E.00492
G1 X117.589 Y73.228 E.15539
G1 X117.478 Y73.339 E.00492
G1 X107.589 Y73.339 E.31006
G1 X107.589 Y111.728 E1.20366
G1 X107.478 Y111.839 E.00492
G1 X94.503 Y111.839 E.40682
G1 X92.5 Y111.939 E.06288
G1 X87.5 Y111.939 E.15677
G1 X85.497 Y111.839 E.06288
G1 X72.522 Y111.839 E.40682
G1 X72.411 Y111.728 E.00492
G1 X72.411 Y73.339 E1.20366
G1 X62.522 Y73.339 E.31006
G1 X62.411 Y73.228 E.00492
G1 X62.411 Y68.272 E.15539
G1 X62.474 Y68.209 E.00279
;WIPE_START
G1 F7200
G1 X62.516 Y68.167 E-.01411
G1 X62.522 Y68.161 E-.00202
G1 X65.823 Y68.161 E-.78387
;WIPE_END
G1 X63.564 Y69.314 F9000
G1 E.8 F1800
;TYPE:Perimeter
;WIDTH:0.419999
G1 F1200
G1 X116.436 Y69.314 E1.65776
G1 X116.436 Y70.75 E.04502
G1 X116.436 Y72.186 E.04502
G1 X107.379 Y72.186 E.28398
G1 X107.216 Y72.2 E.00513
G1 X106.813 Y72.374 E.01376
G1 X106.624 Y72.563 E.00838
G1 X106.508 Y72.766 E.00733
G1 X106.436 Y73.129 E.0116
G1 X106.436 Y110.686 E1.17757
G1 X96.501 Y110.687 E.3115
G1 X97.659 Y110.043 E.04155
G1 X99.158 Y108.921 E.05871
G1 X100.583 Y107.51 E.06288
