; generated by PrusaSlicer 2.7.1+win64 on 2025-04-04 at 13:20:55 UTC

; 

; external perimeters extrusion width = 0.42mm
; perimeters extrusion width = 0.44mm
; infill extrusion width = 0.44mm
; solid infill extrusion width = 0.44mm
; top infill extrusion width = 0.40mm
; support material extrusion width = 0.36mm
; first layer extrusion width = 0.42mm

M201 X500 Y500 Z100 E5000 ; sets maximum accelerations, mm/sec^2
M203 X500 Y500 Z10 E60 ; sets maximum feedrates, mm / sec
M204 S500 T1000 ; sets acceleration (S) and retract acceleration (R), mm/sec^2
M205 X8.00 Y8.00 Z0.40 E5.00 ; sets the jerk limits, mm/sec
M205 S0 T0 ; sets the minimum extruding and travel feed rate, mm/sec

; printing object v3_derjatelled.STL id:0 copy 0
; stop printing object v3_derjatelled.STL id:0 copy 0

;TYPE:Custom
G90 ; use absolute coordinates
M83 ; extruder relative mode
M104 S150 ; set temporary nozzle temp to prevent oozing during homing
M140 S60 ; set final bed temp
G4 S30 ; allow partial nozzle warmup
G28 ; home all axis and restore leveling
G1 Z50 F240
G1 X2.0 Y10 F3000
M104 S210 ; set final nozzle temp
M190 S60 ; wait for bed temp to stabilize
M109 S210 ; wait for nozzle temp to stabilize
G1 Z0.28 F240
G92 E0
G1 X2.0 Y140 E10 F1500 ; prime the nozzle
G1 X2.3 Y140 F5000
G92 E0
G1 X2.3 Y10 E10 F1200 ; prime the nozzle
G92 E0
G21 ; set units to millimeters
G90 ; use absolute coordinates
M83 ; use relative distances for extrusion
; Filament gcode
M107
;LAYER_CHANGE
;Z:0.2
;HEIGHT:0.2
;BEFORE_LAYER_CHANGE
G92 E0
;0.2


G1 E-.8 F1800
G1 Z.2 F9000
;AFTER_LAYER_CHANGE
;0.2
G1 X80.641 Y96.212
G1 Z.2
G1 E.8 F1800
M204 S500
;TYPE:Skirt/Brim
;WIDTH:0.42
G1 F1200
G1 X82.039 Y95.371 E.05115
G1 X83.029 Y95.223 E.03139
G1 X136.971 Y95.223 E1.69131
G1 X138.554 Y95.617 E.05115
G1 X139.359 Y96.212 E.03139
G1 X142.288 Y99.141 E.12988
G1 X143.129 Y100.539 E.05115
G1 X143.277 Y101.529 E.03139
G1 X143.277 Y118.471 E.5312
G1 X142.883 Y120.054 E.05115
G1 X142.288 Y120.859 E.03139
G1 X139.359 Y123.788 E.12988
G1 X137.961 Y124.629 E.05115
G1 X136.971 Y124.777 E.03139
G1 X83.029 Y124.777 E1.69131
G1 X81.446 Y124.383 E.05115
G1 X80.641 Y123.788 E.03139
G1 X77.712 Y120.859 E.12988
G1 X76.871 Y119.461 E.05115
G1 X76.723 Y118.471 E.03139
G1 X76.723 Y101.529 E.5312
G1 X77.117 Y99.946 E.05115
G1 X77.712 Y99.141 E.03139
G1 X80.599 Y96.254 E.12801
;WIPE_START
G1 F7200
G1 X80.641 Y96.212 E-.01411
G1 X82.039 Y95.371 E-.38747
G1 X83.029 Y95.223 E-.23774
G1 X83.706 Y95.223 E-.16068
;WIPE_END
G1 X82.455 Y99.665 F9000
G1 E.8 F1800
G1 F1200
G1 X83.627 Y99.086 E.04099
G1 X84.69 Y98.887 E.03391
G1 X135.386 Y98.89 E1.58954
G1 X136.335 Y99.074 E.03031
G1 X137.243 Y99.465 E.031
G1 X138.462 Y100.488 E.0499
G1 X139.253 Y101.706 E.04554
G1 X139.614 Y103.09 E.04485
G1 X139.577 Y117.176 E.44166
G1 X139.204 Y118.403 E.04021
G1 X138.509 Y119.461 E.03969
G1 X137.545 Y120.335 E.0408
G1 X136.373 Y120.914 E.04099
G1 X135.31 Y121.113 E.03391
G1 X84.591 Y121.113 E1.59026
G1 X83.275 Y120.782 E.04255
G1 X82.124 Y120.081 E.04226
G1 X81.198 Y119.094 E.04243
G1 X80.586 Y117.874 E.0428
G1 X80.386 Y116.809 E.03398
G1 X80.423 Y102.824 E.43849
G1 X80.796 Y101.597 E.04021
G1 X81.491 Y100.539 E.03969
G1 X82.41 Y99.705 E.03891
G1 X82.664 Y99.984 F9000
G1 F1200
G1 X82.688 Y99.962 E.00102
G1 X83.768 Y99.436 E.03767
G1 X84.707 Y99.264 E.02993
G1 X135.368 Y99.267 E1.58844
G1 X136.241 Y99.44 E.0279
G1 X137.066 Y99.799 E.02821
G1 X138.197 Y100.758 E.04649
G1 X138.896 Y101.832 E.04018
G1 X139.236 Y103.114 E.04159
G1 X139.208 Y117.095 E.43837
G1 X138.873 Y118.221 E.03683
G1 X138.238 Y119.198 E.03653
G1 X137.312 Y120.038 E.0392
G1 X136.232 Y120.564 E.03767
G1 X135.293 Y120.736 E.02993
G1 X84.614 Y120.736 E1.589
G1 X83.445 Y120.445 E.03777
G1 X82.381 Y119.804 E.03895
G1 X81.493 Y118.857 E.0407
G1 X80.936 Y117.732 E.03936
G1 X80.764 Y116.792 E.02996
G1 X80.792 Y102.905 E.43542
G1 X81.127 Y101.779 E.03683
G1 X81.762 Y100.802 E.03653
G1 X82.619 Y100.024 E.03629
G1 X82.869 Y100.297 F9000
G1 F1200
G1 X82.878 Y100.289 E.00038
G1 X83.909 Y99.787 E.03595
G1 X84.724 Y99.641 E.02596
G1 X135.348 Y99.644 E1.58728
G1 X136.146 Y99.805 E.02552
G1 X136.888 Y100.133 E.02544
G1 X137.93 Y101.026 E.04303
G1 X138.563 Y102.01 E.03669
G1 X138.859 Y103.138 E.03657
G1 X138.838 Y117.016 E.43514
G1 X138.54 Y118.041 E.03347
G1 X137.964 Y118.938 E.03342
G1 X137.122 Y119.711 E.03584
G1 X136.091 Y120.213 E.03595
G1 X135.277 Y120.359 E.02593
G1 X84.638 Y120.359 E1.58775
G1 X83.566 Y120.087 E.03468
G1 X82.601 Y119.496 E.03548
G1 X81.789 Y118.622 E.03741
G1 X81.287 Y117.591 E.03595
G1 X81.141 Y116.776 E.02596
G1 X81.162 Y102.984 E.43244
G1 X81.46 Y101.959 E.03347
G1 X82.036 Y101.062 E.03342
G1 X82.825 Y100.337 E.0336
G1 X83.08 Y100.615 F9000
G1 F1200
G1 X83.112 Y100.586 E.00135
G1 X84.048 Y100.138 E.03254
G1 X84.739 Y100.018 E.02199
G1 X135.329 Y100.021 E1.58621
G1 X136.048 Y100.17 E.02302
G1 X136.708 Y100.465 E.02267
G1 X137.662 Y101.292 E.03959
G1 X138.206 Y102.137 E.03151
G1 X138.482 Y103.163 E.03331
G1 X138.468 Y116.939 E.43194
G1 X138.207 Y117.863 E.0301
G1 X137.69 Y118.677 E.03024
G1 X136.888 Y119.414 E.03415
G1 X135.953 Y119.862 E.03251
G1 X135.261 Y119.982 E.02202
G1 X84.662 Y119.982 E1.5865
G1 X83.69 Y119.729 E.03149
G1 X82.823 Y119.19 E.03201
G1 X82.086 Y118.388 E.03415
G1 X81.638 Y117.453 E.03251
G1 X81.518 Y116.761 E.02202
G1 X81.532 Y103.061 E.42955
G1 X81.793 Y102.137 E.0301
G1 X82.31 Y101.323 E.03024
G1 X83.036 Y100.656 E.03091
G1 X83.288 Y100.926 F9000
G1 F1200
G1 X83.301 Y100.914 E.00055
G1 X84.186 Y100.49 E.03077
G1 X84.754 Y100.395 E.01806
G1 X135.31 Y100.398 E1.58515
G1 X135.913 Y100.523 E.01931
G1 X136.528 Y100.797 E.02111
G1 X137.392 Y101.557 E.03608
G1 X137.872 Y102.314 E.0281
G1 X138.105 Y103.187 E.02833
G1 X138.098 Y116.861 E.42874
G1 X137.851 Y117.734 E.02845
G1 X137.415 Y118.418 E.02543
G1 X136.699 Y119.086 E.0307
G1 X135.814 Y119.51 E.03077
G1 X135.246 Y119.605 E.01806
G1 X84.687 Y119.605 E1.58524
G1 X83.815 Y119.373 E.02829
G1 X83.081 Y118.915 E.02713
G1 X82.414 Y118.199 E.03068
G1 X81.99 Y117.314 E.03077
G1 X81.895 Y116.746 E.01806
G1 X81.902 Y103.139 E.42664
G1 X82.149 Y102.266 E.02845
G1 X82.585 Y101.582 E.02543
G1 X83.244 Y100.967 E.02826
G1 X83.501 Y101.243 F9000
G1 F1200
G1 X83.536 Y101.21 E.00151
G1 X84.32 Y100.844 E.02713
G1 X84.769 Y100.772 E.01426
G1 X135.289 Y100.776 E1.58402
G1 X135.814 Y100.887 E.01682
G1 X136.345 Y101.128 E.01828
G1 X137.122 Y101.821 E.03264
G1 X137.516 Y102.441 E.02303
G1 X137.728 Y103.213 E.0251
G1 X137.728 Y116.787 E.4256
G1 X137.517 Y117.558 E.02506
G1 X137.14 Y118.16 E.02227
G1 X136.464 Y118.79 E.02897
G1 X135.68 Y119.156 E.02713
G1 X135.231 Y119.228 E.01426
G1 X84.713 Y119.228 E1.58396
G1 X83.942 Y119.017 E.02506
G1 X83.34 Y118.64 E.02227
G1 X82.71 Y117.964 E.02897
G1 X82.344 Y117.18 E.02713
G1 X82.272 Y116.731 E.01426
G1 X82.272 Y103.213 E.42385
G1 X82.483 Y102.442 E.02506
G1 X82.86 Y101.84 E.02227
G1 X83.457 Y101.284 E.02558
G1 X83.711 Y101.551 F9000
G1 F1200
G1 X83.724 Y101.538 E.00058
G1 X84.454 Y101.197 E.02526
G1 X135.268 Y101.153 E1.59324
G1 X135.711 Y101.25 E.01422
G1 X136.159 Y101.458 E.01549
G1 X136.85 Y102.083 E.02921
G1 X137.162 Y102.571 E.01816
G1 X137.351 Y103.24 E.0218
G1 X137.351 Y116.76 E.42391
G1 X137.162 Y117.429 E.0218
G1 X136.862 Y117.903 E.01759
G1 X136.276 Y118.462 E.02539
G1 X135.546 Y118.803 E.02526
G1 X84.74 Y118.851 E1.59299
G1 X84.071 Y118.662 E.0218
G1 X83.597 Y118.362 E.01759
G1 X83.038 Y117.776 E.02539
G1 X82.697 Y117.046 E.02526
G1 X82.649 Y103.24 E.43288
G1 X82.838 Y102.571 E.0218
G1 X83.138 Y102.097 E.01759
G1 X83.668 Y101.592 E.02295
G1 X83.917 Y101.864 F9000
G1 F1200
G1 X84.54 Y101.565 E.02167
G1 X84.796 Y101.526 E.00812
G1 X135.246 Y101.53 E1.58182
G1 X135.605 Y101.613 E.01155
G1 X135.971 Y101.785 E.01268
G1 X136.576 Y102.343 E.02581
G1 X136.808 Y102.705 E.01348
G1 X136.974 Y103.268 E.0184
G1 X136.974 Y116.732 E.42215
G1 X136.808 Y117.296 E.01843
G1 X136.583 Y117.649 E.01313
G1 X136.083 Y118.136 E.02188
G1 X135.46 Y118.435 E.02167
G1 X135.204 Y118.474 E.00812
G1 X84.768 Y118.474 E1.58139
G1 X84.204 Y118.308 E.01843
G1 X83.851 Y118.083 E.01313
G1 X83.364 Y117.583 E.02188
G1 X83.065 Y116.96 E.02167
G1 X83.026 Y116.704 E.00812
G1 X83.026 Y103.268 E.42128
G1 X83.192 Y102.704 E.01843
G1 X83.417 Y102.351 E.01313
G1 X83.874 Y101.906 E.02
G1 X84.113 Y102.187 F9000
G1 F1200
G1 X84.63 Y101.933 E.01806
G1 X135.224 Y101.907 E1.58634
G1 X135.782 Y102.113 E.01865
G1 X136.301 Y102.601 E.02234
G1 X136.597 Y103.298 E.02374
G1 X136.597 Y116.702 E.42027
G1 X136.302 Y117.398 E.0237
G1 X135.887 Y117.813 E.0184
G1 X135.37 Y118.067 E.01806
G1 X84.798 Y118.097 E1.58565
G1 X84.102 Y117.802 E.0237
G1 X83.687 Y117.387 E.0184
G1 X83.433 Y116.87 E.01806
G1 X83.403 Y103.298 E.42554
G1 X83.698 Y102.602 E.0237
G1 X84.071 Y102.23 E.01652
G1 X84.337 Y102.496 F9000
G1 F1200
G1 X84.357 Y102.476 E.00089
G1 X84.829 Y102.28 E.01602
G1 X135.319 Y102.311 E1.58308
G1 X135.592 Y102.44 E.00947
G1 X136.023 Y102.857 E.0188
G1 X136.22 Y103.329 E.01604
G1 X136.22 Y116.671 E.41833
G1 X136.022 Y117.144 E.01608
G1 X135.643 Y117.524 E.01683
G1 X135.171 Y117.72 E.01602
G1 X84.829 Y117.72 E1.57844
G1 X84.356 Y117.522 E.01608
G1 X83.976 Y117.143 E.01683
G1 X83.78 Y116.671 E.01602
G1 X83.78 Y103.329 E.41833
G1 X83.978 Y102.856 E.01608
G1 X84.295 Y102.539 E.01406
G1 X84.561 Y102.805 F9000
G1 F1200
G1 X84.6 Y102.767 E.00171
G1 X84.818 Y102.664 E.00756
G1 X135.182 Y102.664 E1.57913
G1 X135.4 Y102.767 E.00756
G1 X135.743 Y103.11 E.01521
G1 X135.843 Y103.364 E.00856
G1 X135.843 Y116.636 E.41613
G1 X135.743 Y116.89 E.00856
G1 X135.4 Y117.233 E.01521
G1 X135.182 Y117.336 E.00756
G1 X84.864 Y117.343 E1.57769
G1 X84.61 Y117.243 E.00856
G1 X84.267 Y116.9 E.01521
G1 X84.164 Y116.682 E.00756
G1 X84.157 Y103.364 E.41758
G1 X84.257 Y103.11 E.00856
G1 X84.519 Y102.848 E.01162
G1 X84.806 Y103.135 F9000
G1 F1200
G1 X84.906 Y103.034 E.00446
G1 X135.094 Y103.034 E1.57361
G1 X135.466 Y103.406 E.0165
G1 X135.466 Y116.594 E.4135
G1 X135.094 Y116.966 E.0165
G1 X84.906 Y116.966 E1.57361
G1 X84.534 Y116.594 E.0165
G1 X84.534 Y103.406 E.4135
G1 X84.764 Y103.177 E.01018
G1 X85.01 Y103.423 F9000
G1 F1200
G1 X85.022 Y103.411 E.00053
G1 X134.978 Y103.411 E1.56634
G1 X135.089 Y103.522 E.00492
G1 X135.089 Y116.478 E.40623
G1 X134.978 Y116.589 E.00492
G1 X85.022 Y116.589 E1.56634
G1 X84.911 Y116.478 E.00492
G1 X84.911 Y103.522 E.40623
G1 X84.967 Y103.466 E.00248
; printing object v3_derjatelled.STL id:0 copy 0
;WIPE_START
G1 F7200
G1 X85.01 Y103.423 E-.01444
G1 X85.022 Y103.411 E-.00403
G1 X88.313 Y103.411 E-.78153
;WIPE_END
G1 X86.064 Y104.564 F9000
G1 E.8 F1800
;TYPE:Perimeter
;WIDTH:0.419999
G1 F1200
G1 X133.936 Y104.564 E1.50099
G1 X133.936 Y110 E.17044
G1 X133.936 Y115.436 E.17044
G1 X86.064 Y115.436 E1.50099
G1 X86.064 Y104.624 E.339
G1 X85.687 Y104.187 F9000
G1 F1200
G1 X134.313 Y104.187 E1.52463
G1 X134.313 Y110 E.18226
G1 X134.313 Y115.813 E.18226
G1 X85.687 Y115.813 E1.52463
G1 X85.687 Y104.247 E.36264
G1 X85.31 Y103.81 F9000
;TYPE:External perimeter
G1 F1200
G1 X134.69 Y103.81 E1.54827
G1 X134.69 Y110 E.19408
G1 X134.69 Y116.19 E.19408
G1 X85.31 Y116.19 E1.54827
G1 X85.31 Y103.87 E.38628
;WIPE_START
G1 F7200
G1 X85.31 Y103.81 E-.01425
G1 X88.618 Y103.81 E-.78575
;WIPE_END
G1 X133.815 Y105.45 F9000
G1 E.8 F1800
;TYPE:Solid infill
;WIDTH:0.421359
G1 F1200
G1 X133.22 Y104.855 E.02648
G1 X132.685 Y104.855 E.01684
G1 X133.645 Y105.815 E.04272
G1 X133.645 Y106.351 E.01687
G1 X132.149 Y104.855 E.06657
G1 X131.614 Y104.855 E.01684
G1 X133.645 Y106.886 E.09038
G1 X133.645 Y107.421 E.01684
G1 X131.079 Y104.855 E.11419
G1 X130.544 Y104.855 E.01684
G1 X133.645 Y107.956 E.138
G1 X133.645 Y108.491 E.01684
G1 X130.009 Y104.855 E.16181
G1 X129.473 Y104.855 E.01687
G1 X133.645 Y109.027 E.18566
G1 X133.645 Y109.562 E.01684
G1 X128.938 Y104.855 E.20947
G1 X128.403 Y104.855 E.01684
G1 X133.645 Y110.097 E.23328
G1 X133.645 Y110.632 E.01684
G1 X127.868 Y104.855 E.25709
G1 X127.333 Y104.855 E.01684
G1 X133.645 Y111.167 E.28089
G1 X133.645 Y111.703 E.01687
G1 X126.797 Y104.855 E.30475
G1 X126.262 Y104.855 E.01684
G1 X133.645 Y112.238 E.32855
G1 X133.645 Y112.773 E.01684
G1 X125.727 Y104.855 E.35236
G1 X125.192 Y104.855 E.01684
G1 X133.645 Y113.308 E.37617
G1 X133.645 Y113.843 E.01684
G1 X124.657 Y104.855 E.39998
G1 X124.121 Y104.855 E.01687
G1 X133.645 Y114.379 E.42383
G1 X133.645 Y114.914 E.01684
G1 X123.586 Y104.855 E.44764
G1 X123.051 Y104.855 E.01684
G1 X133.342 Y115.145 E.45794
G1 X132.807 Y115.145 E.01684
G1 X122.516 Y104.855 E.45794
G1 X121.981 Y104.855 E.01684
G1 X132.272 Y115.145 E.45794
G1 X131.736 Y115.145 E.01687
G1 X121.445 Y104.855 E.45794
G1 X120.91 Y104.855 E.01684
G1 X131.201 Y115.145 E.45794
G1 X130.666 Y115.145 E.01684
G1 X120.375 Y104.855 E.45794
G1 X119.84 Y104.855 E.01684
G1 X130.131 Y115.145 E.45794
G1 X129.596 Y115.145 E.01684
G1 X119.305 Y104.855 E.45794
G1 X118.769 Y104.855 E.01687
G1 X129.06 Y115.145 E.45794
G1 X128.525 Y115.145 E.01684
G1 X118.234 Y104.855 E.45794
G1 X117.699 Y104.855 E.01684
G1 X127.99 Y115.145 E.45794
G1 X127.455 Y115.145 E.01684
G1 X117.164 Y104.855 E.45794
G1 X116.629 Y104.855 E.01684
G1 X126.92 Y115.145 E.45794
G1 X126.385 Y115.145 E.01684
G1 X116.094 Y104.855 E.45794
G1 X115.558 Y104.855 E.01687
G1 X125.849 Y115.145 E.45794
G1 X125.314 Y115.145 E.01684
G1 X115.023 Y104.855 E.45794
G1 X114.488 Y104.855 E.01684
G1 X124.779 Y115.145 E.45794
G1 X124.244 Y115.145 E.01684
G1 X113.953 Y104.855 E.45794
G1 X113.418 Y104.855 E.01684
G1 X123.709 Y115.145 E.45794
G1 X123.173 Y115.145 E.01687
G1 X112.882 Y104.855 E.45794
G1 X112.347 Y104.855 E.01684
G1 X122.638 Y115.145 E.45794
G1 X122.103 Y115.145 E.01684
G1 X111.812 Y104.855 E.45794
G1 X111.277 Y104.855 E.01684
G1 X121.568 Y115.145 E.45794
G1 X121.033 Y115.145 E.01684
G1 X110.742 Y104.855 E.45794
G1 X110.206 Y104.855 E.01687
G1 X120.497 Y115.145 E.45794
G1 X119.962 Y115.145 E.01684
G1 X109.671 Y104.855 E.45794
G1 X109.136 Y104.855 E.01684
G1 X119.427 Y115.145 E.45794
G1 X118.892 Y115.145 E.01684
G1 X108.601 Y104.855 E.45794
G1 X108.066 Y104.855 E.01684
G1 X118.357 Y115.145 E.45794
G1 X117.821 Y115.145 E.01687
G1 X107.53 Y104.855 E.45794
G1 X106.995 Y104.855 E.01684
G1 X117.286 Y115.145 E.45794
G1 X116.751 Y115.145 E.01684
G1 X106.46 Y104.855 E.45794
G1 X105.925 Y104.855 E.01684
G1 X116.216 Y115.145 E.45794
G1 X115.681 Y115.145 E.01684
G1 X105.39 Y104.855 E.45794
G1 X104.854 Y104.855 E.01687
G1 X115.145 Y115.145 E.45794
G1 X114.61 Y115.145 E.01684
G1 X104.319 Y104.855 E.45794
G1 X103.784 Y104.855 E.01684
G1 X114.075 Y115.145 E.45794
G1 X113.54 Y115.145 E.01684
G1 X103.249 Y104.855 E.45794
G1 X102.714 Y104.855 E.01684
G1 X113.005 Y115.145 E.45794
G1 X112.469 Y115.145 E.01687
G1 X102.178 Y104.855 E.45794
G1 X101.643 Y104.855 E.01684
G1 X111.934 Y115.145 E.45794
G1 X111.399 Y115.145 E.01684
G1 X101.108 Y104.855 E.45794
G1 X100.573 Y104.855 E.01684
G1 X110.864 Y115.145 E.45794
G1 X110.329 Y115.145 E.01684
G1 X100.038 Y104.855 E.45794
G1 X99.503 Y104.855 E.01684
G1 X109.794 Y115.145 E.45794
G1 X109.258 Y115.145 E.01687
G1 X98.967 Y104.855 E.45794
G1 X98.432 Y104.855 E.01684
G1 X108.723 Y115.145 E.45794
G1 X108.188 Y115.145 E.01684
G1 X97.897 Y104.855 E.45794
G1 X97.362 Y104.855 E.01684
G1 X107.653 Y115.145 E.45794
G1 X107.118 Y115.145 E.01684
G1 X96.827 Y104.855 E.45794
G1 X96.291 Y104.855 E.01687
G1 X106.582 Y115.145 E.45794
G1 X106.047 Y115.145 E.01684
G1 X95.756 Y104.855 E.45794
G1 X95.221 Y104.855 E.01684
G1 X105.512 Y115.145 E.45794
G1 X104.977 Y115.145 E.01684
G1 X94.686 Y104.855 E.45794
G1 X94.151 Y104.855 E.01684
G1 X104.442 Y115.145 E.45794
G1 X103.906 Y115.145 E.01687
G1 X93.615 Y104.855 E.45794
G1 X93.08 Y104.855 E.01684
G1 X103.371 Y115.145 E.45794
G1 X102.836 Y115.145 E.01684
G1 X92.545 Y104.855 E.45794
G1 X92.01 Y104.855 E.01684
G1 X102.301 Y115.145 E.45794
G1 X101.766 Y115.145 E.01684
G1 X91.475 Y104.855 E.45794
G1 X90.939 Y104.855 E.01687
G1 X101.23 Y115.145 E.45794
G1 X100.695 Y115.145 E.01684
G1 X90.404 Y104.855 E.45794
G1 X89.869 Y104.855 E.01684
G1 X100.16 Y115.145 E.45794
G1 X99.625 Y115.145 E.01684
