; generated by PrusaSlicer 2.7.1+win64 on 2025-04-23 at 12:35:07 UTC

; 

; external perimeters extrusion width = 0.42mm
; perimeters extrusion width = 0.44mm
; infill extrusion width = 0.44mm
; solid infill extrusion width = 0.44mm
; top infill extrusion width = 0.40mm
; first layer extrusion width = 0.42mm

;TYPE:Custom
G90 ; use absolute coordinates
M83 ; extruder relative mode
M140 S60 ; set final bed temp
M104 S150 ; set temporary nozzle temp to prevent oozing during homing and auto bed leveling
G4 S10 ; allow partial nozzle warmup
G28 ; home all axis
G29 ; auto bed levelling
G1 Z50 F240
G1 X2 Y10 F3000
M104 S210 ; set final nozzle temp
M190 S60 ; wait for bed temp to stabilize
M109 S210 ; wait for nozzle temp to stabilize
G1 Z0.28 F240
G92 E0
G1 Y140 E10 F1500 ; prime the nozzle
G1 X2.3 F5000
G92 E0
G1 Y10 E10 F1200 ; prime the nozzle
G92 E0
G21 ; set units to millimeters
G90 ; use absolute coordinates
M83 ; use relative distances for extrusion
; Filament gcode
M107
;LAYER_CHANGE
;Z:0.2
;HEIGHT:0.2
;BEFORE_LAYER_CHANGE
G92 E0
;0.2


G1 E-.8 F1800
G1 Z.2 F9000
;AFTER_LAYER_CHANGE
;0.2
G1 X82.931 Y84.854
G1 Z.2
G1 E.8 F1800
M204 S500
;TYPE:Skirt/Brim
;WIDTH:0.42
G1 F1200
G1 X85.726 Y82.147 E.122
G1 X88.732 Y79.79 E.11977
G1 X92.05 Y77.708 E.12282
G1 X95.461 Y76.035 E.11912
G1 X99.151 Y74.683 E.12322
G1 X102.483 Y73.825 E.10788
G1 X106.72 Y73.2 E.13429
G1 X110.517 Y73.058 E.11914
G1 X114.425 Y73.321 E.12281
G1 X117.846 Y73.896 E.10877
G1 X121.932 Y75.035 E.133
G1 X125.19 Y76.321 E.10982
G1 X128.917 Y78.266 E.13181
G1 X131.874 Y80.226 E.11123
G1 X135.077 Y82.871 E.13024
G1 X137.602 Y85.443 E.11301
G1 X140.354 Y88.939 E.1395
G1 X142.29 Y92.051 E.11492
G1 X144.055 Y95.677 E.12644
G1 X145.326 Y99.19 E.11714
G1 X146.281 Y103.034 E.12419
G1 X146.805 Y106.81 E.11953
G1 X146.936 Y110.694 E.12185
G1 X146.697 Y114.241 E.11147
G1 X146.074 Y117.961 E.11826
G1 X145 Y121.816 E.12547
G1 X143.642 Y125.26 E.11608
G1 X141.758 Y128.868 E.12762
G1 X139.749 Y131.902 E.11409
G1 X137.117 Y135.084 E.12948
G1 X134.557 Y137.597 E.11248
G1 X131.285 Y140.191 E.13092
G1 X128.29 Y142.096 E.11129
G1 X124.524 Y143.964 E.13181
G1 X121.216 Y145.198 E.1107
G1 X116.787 Y146.313 E.1432
G1 X113.289 Y146.793 E.11071
G1 X109.087 Y146.93 E.13182
G1 X105.547 Y146.671 E.11129
G1 X101.437 Y145.936 E.13091
G1 X97.992 Y144.935 E.11248
G1 X94.167 Y143.378 E.12949
G1 X90.961 Y141.657 E.11409
G1 X87.593 Y139.372 E.12761
G1 X84.766 Y136.981 E.11609
G1 X82.229 Y134.363 E.1143
G1 X79.885 Y131.399 E.11848
G1 X77.795 Y128.103 E.12237
G1 X76.071 Y124.619 E.12188
G1 X74.744 Y121.045 E.11954
G1 X73.765 Y117.208 E.12416
G1 X73.221 Y113.511 E.11717
G1 X73.064 Y109.131 E.13742
G1 X73.333 Y105.471 E.11507
G1 X74.058 Y101.441 E.12839
G1 X75.064 Y97.98 E.11301
G1 X76.633 Y94.134 E.13024
G1 X78.309 Y91.007 E.11124
G1 X80.671 Y87.529 E.13182
G1 X82.893 Y84.9 E.10793
;WIPE_START
G1 F7200
G1 X82.931 Y84.854 E-.01417
G1 X85.308 Y82.552 E-.78583
;WIPE_END
G1 X85.61 Y87.399 F9000
G1 E.8 F1800
G1 F1200
G1 X87.997 Y85.047 E.10507
G1 X89.341 Y84.26 E.04883
G1 X89.719 Y84.15 E.01234
G1 X89.893 Y83.846 E.01098
G1 X90.856 Y82.809 E.04437
G1 X93.72 Y80.992 E.10635
G1 X95.159 Y80.525 E.04744
G1 X95.527 Y80.498 E.01157
G1 X95.738 Y80.262 E.00993
G1 X96.85 Y79.462 E.04295
G1 X100.039 Y78.258 E.10688
G1 X101.608 Y78.086 E.04949
G1 X101.971 Y78.135 E.01148
G1 X102.231 Y77.945 E.0101
G1 X103.599 Y77.363 E.04661
G1 X107.044 Y76.877 E.10909
G1 X108.462 Y77.05 E.04479
G1 X108.793 Y77.171 E.01105
G1 X109.363 Y76.927 E.01944
G1 X110.283 Y76.763 E.0293
G1 X111.321 Y76.784 E.03255
G1 X114.098 Y77.01 E.08736
G1 X115.202 Y77.381 E.03652
G1 X115.608 Y77.63 E.01493
G1 X115.99 Y77.548 E.01225
G1 X117.502 Y77.593 E.04743
G1 X120.742 Y78.529 E.10574
G1 X121.949 Y79.246 E.04402
G1 X122.217 Y79.505 E.01169
G1 X122.65 Y79.509 E.01358
G1 X124.138 Y79.886 E.04813
G1 X127.061 Y81.46 E.10409
G1 X128.038 Y82.355 E.04154
G1 X128.285 Y82.725 E.01395
G1 X128.823 Y82.841 E.01726
G1 X130.109 Y83.499 E.04529
G1 X132.61 Y85.62 E.10282
G1 X133.363 Y86.671 E.04054
G1 X133.549 Y87.115 E.01509
G1 X134.044 Y87.345 E.01711
G1 X135.183 Y88.262 E.04585
G1 X137.131 Y90.766 E.09947
G1 X137.67 Y91.947 E.0407
G1 X137.78 Y92.513 E.01808
G1 X138.273 Y92.882 E.01931
G1 X139.031 Y93.788 E.03704
G1 X140.47 Y96.647 E.10036
G1 X140.807 Y98.043 E.04503
G1 X140.799 Y98.664 E.01947
G1 X141.158 Y99.066 E.0169
G1 X141.756 Y100.154 E.03893
G1 X142.573 Y103.234 E.09991
G1 X142.62 Y104.664 E.04486
G1 X142.481 Y105.324 E.02115
G1 X142.811 Y105.939 E.02188
G1 X143.116 Y107.018 E.03516
G1 X143.268 Y110.149 E.09829
G1 X143.005 Y111.577 E.04553
G1 X142.737 Y112.174 E.02052
G1 X142.921 Y112.793 E.02025
G1 X143.01 Y113.963 E.03679
G1 X142.52 Y117.016 E.09695
G1 X142.046 Y118.24 E.04115
G1 X141.564 Y118.939 E.02662
G1 X141.61 Y119.756 E.02566
G1 X141.451 Y120.787 E.03271
G1 X140.357 Y123.611 E.09496
G1 X139.653 Y124.694 E.0405
G1 X139.013 Y125.304 E.02772
G1 X138.907 Y126.019 E.02266
G1 X138.54 Y127.05 E.03431
G1 X136.878 Y129.606 E.09559
G1 X135.939 Y130.543 E.04159
G1 X135.193 Y131.01 E.0276
G1 X134.82 Y131.916 E.03072
G1 X134.262 Y132.744 E.03131
G1 X132.21 Y134.77 E.09041
G1 X131.116 Y135.478 E.04086
G1 X130.268 Y135.79 E.02833
G1 X129.81 Y136.481 E.02599
G1 X129.115 Y137.2 E.03135
G1 X126.593 Y138.836 E.09426
G1 X125.356 Y139.313 E.04157
G1 X124.448 Y139.444 E.02876
G1 X123.731 Y140.129 E.03109
G1 X122.871 Y140.665 E.03177
G1 X120.216 Y141.662 E.08892
G1 X118.957 Y141.864 E.03998
G1 X118.001 Y141.806 E.03003
G1 X117.15 Y142.332 E.03137
G1 X116.014 Y142.719 E.03763
G1 X113.054 Y143.108 E.09361
G1 X112.045 Y143.018 E.03176
G1 X111.212 Y142.775 E.02721
G1 X110.348 Y143.091 E.02885
G1 X109.058 Y143.256 E.04078
G1 X106.211 Y143.04 E.08952
G1 X105.227 Y142.762 E.03206
G1 X104.365 Y142.315 E.03045
G1 X103.445 Y142.441 E.02912
G1 X102.149 Y142.33 E.04078
G1 X99.272 Y141.469 E.09416
G1 X98.311 Y140.914 E.0348
G1 X97.76 Y140.426 E.02308
G1 X96.895 Y140.38 E.02716
G1 X95.622 Y140.003 E.04163
G1 X93.002 Y138.579 E.0935
G1 X92.224 Y137.91 E.03217
G1 X91.698 Y137.217 E.02728
G1 X90.826 Y136.979 E.02834
G1 X89.691 Y136.352 E.04066
G1 X87.331 Y134.315 E.09775
G1 X86.68 Y133.392 E.03541
G1 X86.432 Y132.816 E.01966
G1 X85.795 Y132.508 E.02218
G1 X84.688 Y131.593 E.04503
G1 X82.799 Y129.122 E.09752
G1 X82.358 Y128.156 E.0333
G1 X82.19 Y127.412 E.02391
G1 X81.617 Y126.965 E.02279
G1 X80.757 Y125.866 E.04375
G1 X79.412 Y123.036 E.09824
G1 X79.162 Y121.789 E.03988
G1 X79.176 Y121.25 E.01691
G1 X78.74 Y120.745 E.02092
G1 X78.109 Y119.478 E.04438
G1 X77.367 Y116.378 E.09994
G1 X77.359 Y115.27 E.03474
G1 X77.505 Y114.598 E.02156
G1 X77.187 Y114.025 E.02055
G1 X76.851 Y112.762 E.04098
G1 X76.732 Y109.705 E.09592
G1 X76.999 Y108.294 E.04503
G1 X77.244 Y107.761 E.01839
G1 X77.106 Y107.331 E.01416
G1 X76.99 Y105.993 E.04211
G1 X77.52 Y102.799 E.10152
G1 X78.035 Y101.527 E.04303
G1 X78.422 Y101.002 E.02045
G1 X78.373 Y100.49 E.01613
G1 X78.543 Y99.219 E.04021
G1 X79.742 Y96.169 E.10275
G1 X80.615 Y94.936 E.04737
G1 X80.973 Y94.625 E.01487
G1 X81.022 Y94.19 E.01373
G1 X81.451 Y92.953 E.04105
G1 X83.274 Y90.188 E.10384
G1 X84.305 Y89.21 E.04456
G1 X84.797 Y88.933 E.0177
G1 X84.92 Y88.547 E.0127
G1 X85.579 Y87.45 E.04012
G1 X85.892 Y87.65 F9000
G1 F1200
G1 X88.244 Y85.332 E.10354
G1 X89.507 Y84.6 E.04577
G1 X89.974 Y84.472 E.01518
G1 X90.187 Y84.082 E.01393
G1 X91.079 Y83.114 E.04127
G1 X93.901 Y81.323 E.1048
G1 X95.249 Y80.892 E.04437
G1 X95.71 Y80.866 E.01448
G1 X95.979 Y80.552 E.01296
G1 X97.007 Y79.806 E.03982
G1 X100.149 Y78.619 E.10531
G1 X101.621 Y78.464 E.04641
G1 X102.073 Y78.533 E.01434
G1 X102.404 Y78.282 E.01302
G1 X103.677 Y77.733 E.04347
G1 X107.071 Y77.254 E.10747
G1 X108.39 Y77.421 E.04169
G1 X108.801 Y77.579 E.01381
G1 X109.452 Y77.295 E.02227
G1 X110.33 Y77.138 E.02797
G1 X114.043 Y77.384 E.11667
G1 X115.058 Y77.731 E.03363
G1 X115.541 Y78.034 E.01788
G1 X116.007 Y77.926 E.015
G1 X117.421 Y77.962 E.04435
G1 X120.613 Y78.884 E.10417
G1 X121.733 Y79.556 E.04095
G1 X122.06 Y79.884 E.01452
G1 X122.583 Y79.881 E.0164
G1 X123.98 Y80.229 E.04514
G1 X126.861 Y81.78 E.10259
G1 X127.764 Y82.615 E.03856
G1 X128.054 Y83.064 E.01676
G1 X128.677 Y83.19 E.01993
G1 X129.883 Y83.801 E.04239
G1 X132.348 Y85.892 E.10135
G1 X133.042 Y86.87 E.0376
G1 X133.255 Y87.397 E.01782
G1 X133.829 Y87.655 E.01973
G1 X134.899 Y88.511 E.04296
G1 X136.819 Y90.98 E.09807
G1 X137.317 Y92.08 E.03786
G1 X137.436 Y92.729 E.02069
G1 X138 Y93.144 E.02196
G1 X138.704 Y93.978 E.03422
G1 X140.123 Y96.796 E.09893
G1 X140.434 Y98.105 E.04219
G1 X140.418 Y98.806 E.02199
G1 X140.84 Y99.27 E.01967
G1 X141.398 Y100.274 E.03601
G1 X142.202 Y103.309 E.09844
G1 X142.243 Y104.651 E.0421
G1 X142.082 Y105.381 E.02344
G1 X142.455 Y106.064 E.0244
G1 X142.74 Y107.059 E.03245
G1 X142.891 Y110.145 E.09688
G1 X142.639 Y111.483 E.04269
G1 X142.333 Y112.146 E.0229
G1 X142.547 Y112.845 E.02292
G1 X142.634 Y113.926 E.034
G1 X142.151 Y116.936 E.09558
G1 X141.703 Y118.081 E.03855
G1 X141.179 Y118.83 E.02866
G1 X141.234 Y119.719 E.02793
G1 X141.082 Y120.71 E.03144
G1 X140.013 Y123.455 E.09236
G1 X139.35 Y124.468 E.03796
G1 X138.658 Y125.12 E.02981
G1 X138.545 Y125.913 E.02512
G1 X138.212 Y126.863 E.03156
G1 X136.573 Y129.383 E.09425
G1 X135.689 Y130.26 E.03904
G1 X134.89 Y130.754 E.02945
G1 X134.496 Y131.722 E.03277
G1 X133.96 Y132.518 E.03009
G1 X131.959 Y134.488 E.08804
G1 X130.931 Y135.149 E.03832
G1 X130.022 Y135.478 E.03031
G1 X129.525 Y136.233 E.02834
G1 X128.891 Y136.896 E.02876
G1 X126.405 Y138.509 E.09292
G1 X125.242 Y138.953 E.03903
G1 X124.275 Y139.087 E.03061
G1 X123.515 Y139.82 E.03311
G1 X122.688 Y140.335 E.03055
G1 X120.102 Y141.302 E.08657
G1 X118.92 Y141.489 E.03752
G1 X117.904 Y141.421 E.03193
G1 X117.006 Y141.983 E.03322
G1 X115.945 Y142.348 E.03518
G1 X113.066 Y142.731 E.09106
G1 X112.098 Y142.644 E.03047
G1 X111.199 Y142.377 E.0294
G1 X110.277 Y142.72 E.03084
G1 X109.066 Y142.879 E.0383
G1 X106.295 Y142.672 E.08712
G1 X105.349 Y142.405 E.03082
G1 X104.433 Y141.924 E.03244
G1 X103.454 Y142.064 E.03101
G1 X102.238 Y141.963 E.03826
G1 X99.402 Y141.115 E.09281
G1 X98.519 Y140.599 E.03207
G1 X97.912 Y140.055 E.02556
G1 X96.978 Y140.011 E.02932
G1 X95.784 Y139.662 E.039
G1 X93.232 Y138.28 E.091
G1 X92.486 Y137.638 E.03086
G1 X91.921 Y136.886 E.02949
G1 X90.986 Y136.637 E.03034
G1 X89.922 Y136.053 E.03806
G1 X87.595 Y134.045 E.09637
G1 X87.001 Y133.193 E.03257
G1 X86.723 Y132.536 E.02237
G1 X86.015 Y132.202 E.02455
G1 X84.975 Y131.346 E.04223
G1 X83.112 Y128.91 E.09616
G1 X82.71 Y128.019 E.03065
G1 X82.529 Y127.196 E.02642
G1 X81.897 Y126.712 E.02496
G1 X81.088 Y125.685 E.04099
G1 X79.763 Y122.896 E.09681
G1 X79.536 Y121.739 E.03697
G1 X79.559 Y121.113 E.01964
G1 X79.065 Y120.553 E.02341
G1 X78.47 Y119.369 E.04155
G1 X77.739 Y116.312 E.09855
G1 X77.736 Y115.292 E.03198
G1 X77.905 Y114.539 E.0242
G1 X77.544 Y113.903 E.02293
G1 X77.227 Y112.726 E.03822
G1 X77.109 Y109.712 E.09457
G1 X77.364 Y108.39 E.04221
G1 X77.651 Y107.785 E.021
G1 X77.479 Y107.273 E.01694
G1 X77.366 Y106.031 E.0391
G1 X77.888 Y102.882 E.10008
G1 X78.374 Y101.693 E.04027
G1 X78.813 Y101.11 E.02288
G1 X78.75 Y100.515 E.01876
G1 X78.902 Y99.335 E.0373
G1 X80.084 Y96.328 E.1013
G1 X80.908 Y95.176 E.04441
G1 X81.334 Y94.815 E.01751
G1 X81.386 Y94.29 E.01654
G1 X81.779 Y93.14 E.0381
G1 X83.577 Y90.414 E.10239
G1 X84.545 Y89.502 E.0417
G1 X85.115 Y89.19 E.02037
G1 X85.256 Y88.719 E.01542
G1 X85.861 Y87.702 E.0371
G1 X86.175 Y87.901 F9000
G1 F1200
G1 X88.491 Y85.618 E.10197
G1 X89.671 Y84.94 E.04267
G1 X90.231 Y84.797 E.01812
G1 X90.483 Y84.317 E.017
G1 X91.303 Y83.418 E.03815
G1 X94.082 Y81.655 E.10319
G1 X95.336 Y81.26 E.04122
G1 X95.893 Y81.238 E.01748
G1 X96.222 Y80.841 E.01617
G1 X97.165 Y80.15 E.03666
G1 X100.259 Y78.981 E.1037
G1 X101.632 Y78.842 E.04327
G1 X102.175 Y78.934 E.01727
G1 X102.579 Y78.616 E.01612
G1 X103.756 Y78.102 E.04027
G1 X107.098 Y77.631 E.10582
G1 X108.316 Y77.792 E.03852
G1 X108.808 Y77.99 E.01663
G1 X109.542 Y77.662 E.02521
G1 X110.377 Y77.512 E.0266
G1 X111.29 Y77.538 E.02864
G1 X113.988 Y77.757 E.08487
G1 X114.912 Y78.079 E.03068
G1 X115.474 Y78.44 E.02094
G1 X116.025 Y78.303 E.0178
G1 X117.341 Y78.331 E.04127
G1 X120.484 Y79.239 E.10258
G1 X121.515 Y79.865 E.03782
G1 X121.903 Y80.266 E.0175
G1 X122.519 Y80.253 E.01932
G1 X123.823 Y80.573 E.0421
G1 X126.66 Y82.1 E.10102
G1 X127.487 Y82.873 E.03549
G1 X127.822 Y83.405 E.01971
G1 X128.533 Y83.539 E.02269
G1 X129.656 Y84.103 E.0394
G1 X132.085 Y86.164 E.09988
G1 X132.719 Y87.067 E.03459
G1 X132.961 Y87.681 E.02069
G1 X133.615 Y87.967 E.02238
G1 X134.616 Y88.761 E.04006
G1 X136.507 Y91.193 E.09659
G1 X136.962 Y92.212 E.03499
G1 X137.09 Y92.945 E.02333
G1 X137.729 Y93.406 E.02471
G1 X138.378 Y94.168 E.03138
G1 X139.776 Y96.946 E.09751
G1 X140.061 Y98.166 E.03928
G1 X140.036 Y98.949 E.02456
G1 X140.523 Y99.475 E.02248
G1 X141.04 Y100.394 E.03306
G1 X141.832 Y103.384 E.09698
G1 X141.865 Y104.636 E.03927
G1 X141.682 Y105.438 E.02579
G1 X142.099 Y106.191 E.02699
G1 X142.365 Y107.1 E.0297
G1 X142.513 Y110.141 E.09546
G1 X142.273 Y111.387 E.03979
G1 X141.929 Y112.118 E.02533
G1 X142.173 Y112.899 E.02565
G1 X142.258 Y113.89 E.03119
G1 X141.782 Y116.856 E.09419
G1 X141.361 Y117.921 E.03591
G1 X140.794 Y118.721 E.03074
G1 X140.858 Y119.683 E.03023
G1 X140.712 Y120.632 E.03011
G1 X139.669 Y123.299 E.08979
G1 X139.048 Y124.241 E.03538
G1 X138.302 Y124.935 E.03195
G1 X138.182 Y125.809 E.02766
G1 X137.883 Y126.678 E.02881
G1 X136.268 Y129.16 E.09285
G1 X135.44 Y129.975 E.03643
G1 X134.558 Y130.485 E.03194
G1 X134.172 Y131.528 E.03487
G1 X133.658 Y132.291 E.02885
G1 X131.709 Y134.205 E.08565
G1 X130.746 Y134.82 E.03583
G1 X129.753 Y135.146 E.03277
G1 X129.241 Y135.985 E.03082
G1 X128.634 Y136.619 E.02752
G1 X126.217 Y138.181 E.09023
G1 X125.129 Y138.592 E.03647
G1 X124.087 Y138.701 E.03285
G1 X123.271 Y139.532 E.03652
G1 X122.506 Y140.004 E.02818
G1 X119.989 Y140.942 E.08422
G1 X118.884 Y141.113 E.03506
G1 X117.8 Y141.005 E.03416
G1 X116.864 Y141.633 E.03534
G1 X115.876 Y141.977 E.0328
G1 X113.078 Y142.353 E.08852
G1 X112.182 Y142.276 E.0282
G1 X111.188 Y141.951 E.03279
G1 X110.204 Y142.349 E.03328
G1 X109.073 Y142.502 E.03578
G1 X106.377 Y142.304 E.08476
G1 X105.504 Y142.061 E.02841
G1 X104.506 Y141.5 E.0359
G1 X103.462 Y141.686 E.03325
G1 X102.327 Y141.596 E.0357
G1 X99.533 Y140.76 E.09144
G1 X98.728 Y140.284 E.02932
G1 X98.064 Y139.683 E.02808
G1 X97.06 Y139.643 E.0315
G1 X95.945 Y139.32 E.0364
G1 X93.463 Y137.981 E.08842
G1 X92.748 Y137.366 E.02957
G1 X92.145 Y136.554 E.03171
G1 X91.145 Y136.295 E.03239
G1 X90.153 Y135.754 E.03543
G1 X87.86 Y133.776 E.09495
G1 X87.324 Y132.996 E.02967
G1 X87.015 Y132.255 E.02517
G1 X86.235 Y131.894 E.02695
G1 X85.26 Y131.099 E.03944
G1 X83.447 Y128.735 E.09341
G1 X83.062 Y127.883 E.02931
G1 X82.868 Y126.979 E.02899
G1 X82.177 Y126.458 E.02713
G1 X81.419 Y125.503 E.03823
G1 X80.114 Y122.756 E.09536
G1 X79.911 Y121.691 E.03399
G1 X79.944 Y120.976 E.02244
G1 X79.39 Y120.359 E.026
G1 X78.832 Y119.259 E.03867
G1 X78.111 Y116.246 E.09714
G1 X78.113 Y115.315 E.02919
G1 X78.306 Y114.478 E.02693
G1 X77.901 Y113.779 E.02533
G1 X77.603 Y112.689 E.03543
G1 X77.487 Y109.72 E.09316
G1 X77.729 Y108.488 E.03937
G1 X78.059 Y107.809 E.02367
G1 X77.852 Y107.213 E.01978
G1 X77.742 Y106.068 E.03607
G1 X78.257 Y102.965 E.09862
G1 X78.713 Y101.861 E.03745
G1 X79.206 Y101.219 E.02538
G1 X79.127 Y100.537 E.02153
G1 X79.262 Y99.45 E.03434
G1 X80.427 Y96.489 E.09977
G1 X81.198 Y95.417 E.0414
G1 X81.697 Y95.006 E.02027
G1 X81.751 Y94.387 E.01948
G1 X82.107 Y93.327 E.03506
G1 X83.879 Y90.641 E.10089
G1 X84.783 Y89.795 E.03882
G1 X85.435 Y89.448 E.02316
G1 X85.594 Y88.887 E.01828
G1 X86.144 Y87.953 E.03399
G1 X86.458 Y88.152 F9000
G1 F1200
G1 X88.738 Y85.904 E.10039
G1 X89.833 Y85.282 E.03949
G1 X90.489 Y85.125 E.02115
G1 X90.781 Y84.55 E.02022
G1 X91.527 Y83.723 E.03492
G1 X94.263 Y81.987 E.1016
G1 X95.421 Y81.628 E.03801
G1 X96.077 Y81.612 E.02057
G1 X96.467 Y81.129 E.01946
G1 X97.323 Y80.493 E.03344
G1 X100.368 Y79.343 E.10206
G1 X101.64 Y79.22 E.04007
