; generated by PrusaSlicer 2.8.1+win64 on 2025-04-24 at 11:08:26 UTC

; 

; external perimeters extrusion width = 0.42mm
; perimeters extrusion width = 0.44mm
; infill extrusion width = 0.44mm
; solid infill extrusion width = 0.44mm
; top infill extrusion width = 0.40mm
; first layer extrusion width = 0.42mm

M201 X500 Y500 Z100 E5000 ; sets maximum accelerations, mm/sec^2
M203 X500 Y500 Z10 E60 ; sets maximum feedrates, mm / sec
M204 S500 T1000 ; sets acceleration (S) and retract acceleration (R), mm/sec^2
M205 X8.00 Y8.00 Z0.40 E5.00 ; sets the jerk limits, mm/sec
M205 S0 T0 ; sets the minimum extruding and travel feed rate, mm/sec

; printing object v2_krepejpodshipkoleso.STL id:0 copy 0
; stop printing object v2_krepejpodshipkoleso.STL id:0 copy 0

;TYPE:Custom
G90 ; use absolute coordinates
M83 ; extruder relative mode
M104 S150 ; set temporary nozzle temp to prevent oozing during homing
M140 S60 ; set final bed temp
G4 S30 ; allow partial nozzle warmup
G28 ; home all axis and restore leveling
G1 Z50 F240
G1 X2.0 Y10 F3000
M104 S210 ; set final nozzle temp
M190 S60 ; wait for bed temp to stabilize
M109 S210 ; wait for nozzle temp to stabilize
G1 Z0.28 F240
G92 E0
G1 X2.0 Y140 E10 F1500 ; prime the nozzle
G1 X2.3 Y140 F5000
G92 E0
G1 X2.3 Y10 E10 F1200 ; prime the nozzle
G92 E0
G21 ; set units to millimeters
G90 ; use absolute coordinates
M83 ; use relative distances for extrusion
; Filament gcode
M107
;LAYER_CHANGE
;Z:0.2
;HEIGHT:0.2
G1 E-.8 F1800
G1 Z.2 F9000
G1 X101.687 Y100.916
G1 Z.2
G1 E.8 F1800
M204 S500
;TYPE:Skirt/Brim
;WIDTH:0.42
G1 F1200
G1 X102.498 Y100.236 E.03318
G1 X103.653 Y99.444 E.04391
G1 X105.583 Y98.502 E.06734
G1 X107.343 Y97.977 E.05759
G1 X108.076 Y97.834 E.02342
G1 X109.471 Y97.698 E.04395
G1 X110.529 Y97.698 E.03317
G1 X112.354 Y97.91 E.05761
G1 X113.71 Y98.259 E.0439
G1 X114.705 Y98.621 E.0332
G1 X116.609 Y99.611 E.06729
G1 X117.749 Y100.426 E.04394
G1 X119.084 Y101.687 E.05758
G1 X119.764 Y102.498 E.03318
G1 X120.556 Y103.653 E.04391
G1 X121.498 Y105.583 E.06734
G1 X122.09 Y107.647 E.06732
G1 X122.207 Y108.385 E.02343
G1 X122.315 Y110.218 E.05757
G1 X122.09 Y112.353 E.06731
G1 X121.741 Y113.71 E.04393
G1 X121.379 Y114.705 E.0332
G1 X120.389 Y116.609 E.06729
G1 X119.294 Y118.083 E.05757
G1 X118.313 Y119.084 E.04394
G1 X117.502 Y119.764 E.03318
G1 X116.347 Y120.556 E.04391
G1 X114.417 Y121.498 E.06734
G1 X113.184 Y121.882 E.04049
G1 X111.924 Y122.166 E.0405
G1 X109.782 Y122.315 E.06732
G1 X107.647 Y122.09 E.06731
G1 X106.29 Y121.741 E.04393
G1 X105.295 Y121.379 E.0332
G1 X103.391 Y120.389 E.06729
G1 X101.917 Y119.294 E.05757
G1 X100.916 Y118.313 E.04394
G1 X100.236 Y117.502 E.03318
G1 X99.444 Y116.347 E.04391
G1 X98.502 Y114.417 E.06734
G1 X97.91 Y112.353 E.06732
G1 X97.746 Y111.073 E.04046
G1 X97.685 Y109.782 E.04052
G1 X97.91 Y107.646 E.06734
G1 X98.259 Y106.29 E.0439
G1 X98.621 Y105.295 E.0332
G1 X99.611 Y103.391 E.06729
G1 X100.426 Y102.251 E.04394
G1 X101.646 Y100.96 E.05569
G1 X101.646 Y100.96 F9000
G1 X101.92 Y101.219
G1 F1200
G1 X101.954 Y101.183 E.00155
G1 X102.714 Y100.545 E.03111
G1 X103.842 Y99.77 E.04291
G1 X105.712 Y98.856 E.06526
G1 X107.44 Y98.341 E.05654
G1 X108.142 Y98.205 E.02242
G1 X109.504 Y98.074 E.0429
G1 X110.496 Y98.074 E.0311
G1 X112.288 Y98.281 E.05656
G1 X113.613 Y98.623 E.04291
G1 X114.545 Y98.963 E.03111
G1 X116.393 Y99.92 E.06525
G1 X117.841 Y100.995 E.05655
G1 X118.817 Y101.954 E.0429
G1 X119.455 Y102.714 E.03111
G1 X120.23 Y103.842 E.04291
G1 X121.144 Y105.712 E.06526
G1 X121.719 Y107.712 E.06525
G1 X121.879 Y108.961 E.03948
G1 X121.938 Y110.218 E.03946
G1 X121.719 Y112.288 E.06527
G1 X121.377 Y113.613 E.04291
G1 X121.037 Y114.545 E.03111
G1 X120.08 Y116.393 E.06525
G1 X119.005 Y117.841 E.05655
G1 X118.046 Y118.817 E.0429
G1 X117.286 Y119.455 E.03111
G1 X116.158 Y120.23 E.04291
G1 X114.288 Y121.144 E.06526
G1 X112.288 Y121.719 E.06525
G1 X111.039 Y121.879 E.03948
G1 X109.782 Y121.938 E.03946
G1 X107.712 Y121.719 E.06527
G1 X106.387 Y121.377 E.04291
G1 X105.455 Y121.037 E.03111
G1 X103.607 Y120.08 E.06525
G1 X102.159 Y119.005 E.05655
G1 X101.183 Y118.046 E.0429
G1 X100.545 Y117.286 E.03111
G1 X99.77 Y116.158 E.04291
G1 X98.856 Y114.288 E.06526
G1 X98.281 Y112.288 E.06525
G1 X98.122 Y111.04 E.03945
G1 X98.062 Y109.782 E.03949
G1 X98.281 Y107.712 E.06527
G1 X98.623 Y106.387 E.04291
G1 X98.963 Y105.455 E.03111
G1 X99.92 Y103.607 E.06525
G1 X100.715 Y102.494 E.04289
G1 X101.879 Y101.263 E.05312
;WIPE_START
G1 F7200
G1 X101.92 Y101.219 E-.01428
G1 X101.954 Y101.183 E-.01176
G1 X102.714 Y100.545 E-.23567
G1 X103.842 Y99.77 E-.32504
G1 X104.649 Y99.376 E-.21325
;WIPE_END
G1 X104.369 Y103.68 F9000
G1 E.8 F1800
G1 F1200
G1 X105.788 Y102.66 E.05479
G1 X107.372 Y101.955 E.05436
G1 X108.759 Y101.627 E.04469
G1 X109.757 Y101.54 E.03141
G1 X110.667 Y101.577 E.02856
G1 X111.682 Y101.706 E.03208
G1 X112.676 Y101.97 E.03225
G1 X113.976 Y102.529 E.04437
G1 X115.208 Y103.33 E.04608
G1 X116.291 Y104.339 E.04641
G1 X117.247 Y105.629 E.05034
G1 X117.946 Y107.089 E.05075
G1 X118.355 Y108.655 E.05075
G1 X118.458 Y110.292 E.05143
G1 X118.278 Y111.759 E.04634
G1 X117.859 Y113.14 E.04525
G1 X117.323 Y114.242 E.03842
G1 X116.65 Y115.235 E.03761
G1 X115.658 Y116.294 E.0455
G1 X114.37 Y117.247 E.05024
G1 X112.911 Y117.946 E.05073
G1 X111.346 Y118.355 E.05072
G1 X109.711 Y118.458 E.05137
G1 X108.273 Y118.285 E.04541
G1 X107.095 Y117.948 E.03842
G1 X105.999 Y117.458 E.03764
G1 X104.79 Y116.669 E.04527
G1 X103.709 Y115.661 E.04634
G1 X102.753 Y114.371 E.05034
G1 X102.054 Y112.911 E.05075
G1 X101.645 Y111.345 E.05075
G1 X101.542 Y109.707 E.05146
G1 X101.723 Y108.238 E.04641
G1 X102.153 Y106.83 E.04616
G1 X102.807 Y105.541 E.04532
G1 X103.528 Y104.547 E.0385
G1 X104.328 Y103.723 E.03601
G1 X104.328 Y103.723 F9000
G1 X104.598 Y103.986
G1 F1200
G1 X104.628 Y103.955 E.00135
G1 X105.96 Y102.996 E.05146
G1 X107.477 Y102.317 E.05211
G1 X108.806 Y102.002 E.04282
G1 X109.777 Y101.917 E.03056
G1 X111.622 Y102.078 E.05807
G1 X112.565 Y102.331 E.03061
G1 X113.811 Y102.869 E.04255
G1 X114.988 Y103.636 E.04405
G1 X116.02 Y104.602 E.04432
G1 X116.932 Y105.838 E.04816
G1 X117.598 Y107.235 E.04852
G1 X117.985 Y108.731 E.04845
G1 X118.082 Y110.264 E.04816
G1 X117.912 Y111.666 E.04428
G1 X117.514 Y112.989 E.04332
G1 X117.003 Y114.042 E.0367
G1 X116.346 Y115.011 E.03671
G1 X115.396 Y116.023 E.04352
G1 X114.161 Y116.933 E.0481
G1 X112.765 Y117.598 E.04848
G1 X111.269 Y117.985 E.04845
G1 X109.738 Y118.082 E.0481
G1 X108.361 Y117.918 E.04348
G1 X107.236 Y117.599 E.03666
G1 X106.167 Y117.12 E.03673
G1 X105.01 Y116.362 E.04337
G1 X103.979 Y115.398 E.04426
G1 X103.068 Y114.162 E.04814
G1 X102.402 Y112.765 E.04852
G1 X102.015 Y111.269 E.04845
G1 X101.918 Y109.735 E.04819
G1 X102.089 Y108.331 E.04435
G1 X102.498 Y106.985 E.04411
G1 X103.121 Y105.749 E.0434
G1 X103.808 Y104.8 E.03673
G1 X104.557 Y104.029 E.0337
G1 X104.557 Y104.029 F9000
G1 X104.827 Y104.292
G1 F1200
G1 X104.887 Y104.23 E.00271
G1 X106.164 Y103.314 E.04928
G1 X107.582 Y102.68 E.0487
G1 X108.852 Y102.376 E.04094
G1 X109.798 Y102.294 E.02977
G1 X110.618 Y102.33 E.02574
G1 X111.536 Y102.446 E.02901
G1 X112.454 Y102.691 E.02979
G1 X113.646 Y103.208 E.04074
G1 X114.767 Y103.942 E.04201
G1 X115.749 Y104.865 E.04226
G1 X116.618 Y106.047 E.046
G1 X117.238 Y107.347 E.04516
G1 X117.61 Y108.774 E.04624
G1 X117.705 Y110.237 E.04597
G1 X117.546 Y111.574 E.04222
G1 X117.167 Y112.839 E.04141
G1 X116.683 Y113.842 E.03492
G1 X116.043 Y114.787 E.03579
G1 X115.133 Y115.751 E.04157
G1 X113.952 Y116.618 E.04594
G1 X112.653 Y117.238 E.04513
G1 X111.226 Y117.61 E.04624
G1 X109.765 Y117.705 E.04591
G1 X108.449 Y117.551 E.04154
G1 X107.378 Y117.249 E.03489
G1 X106.335 Y116.782 E.03583
G1 X105.231 Y116.057 E.04141
G1 X104.25 Y115.135 E.04221
G1 X103.382 Y113.953 E.04598
G1 X102.762 Y112.653 E.04516
G1 X102.39 Y111.226 E.04624
G1 X102.295 Y109.762 E.046
G1 X102.454 Y108.424 E.04225
G1 X102.842 Y107.139 E.04209
G1 X103.436 Y105.958 E.04145
G1 X104.105 Y105.032 E.03582
G1 X104.785 Y104.335 E.03053
G1 X104.785 Y104.335 F9000
G1 X105.055 Y104.598
G1 F1200
G1 X105.145 Y104.505 E.00406
G1 X106.336 Y103.65 E.04597
G1 X107.687 Y103.042 E.04645
G1 X108.899 Y102.751 E.03908
G1 X109.818 Y102.67 E.02893
G1 X111.452 Y102.813 E.05143
G1 X112.343 Y103.052 E.02892
G1 X113.481 Y103.547 E.03891
G1 X114.546 Y104.248 E.03998
G1 X115.478 Y105.127 E.04017
G1 X116.302 Y106.255 E.0438
G1 X116.889 Y107.493 E.04296
G1 X117.235 Y108.817 E.04291
G1 X117.329 Y110.211 E.04381
G1 X117.18 Y111.483 E.04016
G1 X116.821 Y112.689 E.03945
G1 X116.35 Y113.665 E.03398
G1 X115.74 Y114.562 E.03401
G1 X114.872 Y115.479 E.03959
G1 X113.744 Y116.303 E.0438
G1 X112.507 Y116.889 E.04292
G1 X111.183 Y117.235 E.04291
G1 X109.79 Y117.329 E.04378
G1 X108.537 Y117.184 E.03955
G1 X107.494 Y116.89 E.03398
G1 X106.504 Y116.445 E.03403
G1 X105.453 Y115.751 E.03949
G1 X104.522 Y114.873 E.04012
G1 X103.698 Y113.745 E.0438
G1 X103.111 Y112.507 E.04296
G1 X102.765 Y111.183 E.04291
G1 X102.671 Y109.789 E.04381
G1 X102.82 Y108.516 E.04019
G1 X103.187 Y107.293 E.04004
G1 X103.75 Y106.166 E.0395
G1 X104.385 Y105.285 E.03405
G1 X105.013 Y104.641 E.0282
G1 X105.013 Y104.641 F9000
G1 X105.282 Y104.904
G1 F1200
G1 X105.403 Y104.781 E.00541
G1 X106.54 Y103.968 E.04383
G1 X107.793 Y103.405 E.04307
G1 X108.947 Y103.125 E.03723
G1 X109.837 Y103.047 E.02801
G1 X110.568 Y103.083 E.02295
G1 X111.367 Y103.181 E.02524
G1 X112.231 Y103.412 E.02804
G1 X113.315 Y103.886 E.0371
G1 X114.324 Y104.553 E.03792
G1 X115.206 Y105.389 E.0381
G1 X115.987 Y106.462 E.04161
G1 X116.54 Y107.637 E.04072
G1 X116.866 Y108.895 E.04075
G1 X116.952 Y110.185 E.04054
G1 X116.814 Y111.392 E.03809
G1 X116.475 Y112.539 E.0375
G1 X116.03 Y113.465 E.03221
G1 X115.437 Y114.337 E.03306
G1 X114.61 Y115.207 E.03764
G1 X113.537 Y115.987 E.04159
G1 X112.363 Y116.54 E.04069
G1 X111.106 Y116.866 E.04072
G1 X109.816 Y116.952 E.04054
G1 X108.624 Y116.817 E.03761
G1 X107.635 Y116.54 E.0322
G1 X106.673 Y116.107 E.03308
G1 X105.675 Y115.446 E.03753
G1 X104.794 Y114.611 E.03806
G1 X104.013 Y113.538 E.04161
G1 X103.46 Y112.363 E.04072
G1 X103.134 Y111.105 E.04075
G1 X103.048 Y109.815 E.04054
G1 X103.187 Y108.607 E.03813
G1 X103.532 Y107.446 E.03798
G1 X104.065 Y106.374 E.03754
G1 X104.683 Y105.518 E.0331
G1 X105.24 Y104.947 E.02501
G1 X105.24 Y104.947 F9000
G1 X105.51 Y105.211
G1 F1200
G1 X105.661 Y105.056 E.00678
G1 X106.713 Y104.304 E.04055
G1 X107.9 Y103.767 E.04085
G1 X108.994 Y103.5 E.03531
G1 X109.857 Y103.424 E.02716
G1 X111.282 Y103.549 E.04485
G1 X112.12 Y103.773 E.0272
G1 X113.148 Y104.225 E.03521
G1 X114.101 Y104.858 E.03587
G1 X114.933 Y105.65 E.03602
G1 X115.654 Y106.64 E.0384
G1 X116.18 Y107.75 E.03851
G1 X116.491 Y108.939 E.03853
G1 X116.575 Y110.161 E.03841
G1 X116.447 Y111.302 E.036
G1 X116.128 Y112.39 E.03555
G1 X115.696 Y113.288 E.03124
G1 X115.134 Y114.112 E.03127
G1 X114.349 Y114.934 E.03564
G1 X113.36 Y115.654 E.03836
G1 X112.25 Y116.18 E.03851
G1 X111.062 Y116.491 E.0385
G1 X109.84 Y116.575 E.03841
G1 X108.71 Y116.45 E.03565
G1 X107.751 Y116.181 E.03123
G1 X106.843 Y115.77 E.03125
G1 X105.898 Y115.141 E.03559
G1 X105.067 Y114.35 E.03597
G1 X104.346 Y113.36 E.0384
G1 X103.82 Y112.25 E.03851
G1 X103.509 Y111.061 E.03853
G1 X103.425 Y109.839 E.03841
G1 X103.553 Y108.698 E.036
G1 X103.877 Y107.598 E.03595
G1 X104.381 Y106.581 E.03559
G1 X104.963 Y105.771 E.03127
G1 X105.468 Y105.253 E.02268
G1 X105.468 Y105.253 F9000
G1 X105.737 Y105.517
G1 F1200
G1 X105.919 Y105.332 E.00814
G1 X106.916 Y104.622 E.03838
G1 X108.007 Y104.129 E.03754
G1 X109.042 Y103.874 E.03342
G1 X109.876 Y103.801 E.02625
G1 X110.516 Y103.835 E.0201
G1 X111.198 Y103.916 E.02153
G1 X112.008 Y104.133 E.02629
G1 X112.98 Y104.563 E.03333
G1 X113.878 Y105.162 E.03385
G1 X114.66 Y105.91 E.03393
G1 X115.338 Y106.846 E.03624
G1 X115.832 Y107.895 E.03636
G1 X116.116 Y108.983 E.03526
G1 X116.199 Y110.137 E.03628
G1 X116.08 Y111.212 E.03391
G1 X115.781 Y112.242 E.03363
G1 X115.377 Y113.088 E.0294
G1 X114.832 Y113.886 E.0303
G1 X114.089 Y114.661 E.03366
G1 X113.153 Y115.338 E.03622
G1 X112.137 Y115.82 E.03526
G1 X111.017 Y116.116 E.03632
G1 X109.864 Y116.199 E.03625
G1 X108.797 Y116.083 E.03365
G1 X107.867 Y115.822 E.03029
G1 X107.013 Y115.433 E.02942
G1 X106.122 Y114.837 E.03361
G1 X105.34 Y114.09 E.03391
G1 X104.662 Y113.154 E.03624
G1 X104.168 Y112.105 E.03636
G1 X103.884 Y111.017 E.03526
G1 X103.801 Y109.863 E.03628
G1 X103.92 Y108.787 E.03394
G1 X104.223 Y107.75 E.03387
G1 X104.696 Y106.788 E.03361
G1 X105.26 Y106.003 E.03031
G1 X105.695 Y105.56 E.01947
G1 X105.695 Y105.56 F9000
G1 X105.964 Y105.824
G1 F1200
G1 X106.176 Y105.608 E.00949
G1 X107.089 Y104.957 E.03516
G1 X108.115 Y104.49 E.03535
G1 X109.089 Y104.248 E.03147
G1 X109.896 Y104.178 E.0254
G1 X111.114 Y104.284 E.03833
G1 X111.896 Y104.494 E.02539
G1 X112.812 Y104.901 E.03143
G1 X113.654 Y105.466 E.03179
G1 X114.386 Y106.17 E.03184
G1 X115.022 Y107.052 E.03409
G1 X115.471 Y108.008 E.03312
G1 X115.741 Y109.029 E.03311
G1 X115.822 Y110.114 E.03411
G1 X115.713 Y111.124 E.03185
G1 X115.434 Y112.093 E.03162
G1 X115.043 Y112.912 E.02846
G1 X114.53 Y113.659 E.02841
G1 X113.83 Y114.387 E.03167
G1 X112.947 Y115.022 E.0341
G1 X111.992 Y115.472 E.0331
G1 X110.971 Y115.741 E.03311
G1 X109.886 Y115.822 E.03411
G1 X108.883 Y115.715 E.03163
G1 X108.009 Y115.472 E.02844
G1 X107.183 Y115.097 E.02844
G1 X106.346 Y114.534 E.03163
G1 X105.614 Y113.83 E.03184
G1 X104.978 Y112.948 E.03409
G1 X104.529 Y111.992 E.03312
G1 X104.259 Y110.971 E.03311
G1 X104.178 Y109.886 E.03411
G1 X104.287 Y108.875 E.03188
G1 X104.569 Y107.901 E.03179
G1 X105.012 Y106.994 E.03165
G1 X105.54 Y106.256 E.02845
G1 X105.922 Y105.867 E.01709
G1 X106.19 Y106.131 F9000
G1 F1200
G1 X106.433 Y105.885 E.01084
G1 X107.292 Y105.275 E.03303
G1 X108.224 Y104.852 E.03209
G1 X109.137 Y104.623 E.02951
G1 X110.461 Y104.587 E.04153
G1 X111.783 Y104.854 E.04229
G1 X112.642 Y105.238 E.0295
G1 X113.429 Y105.769 E.02977
G1 X114.111 Y106.429 E.02976
G1 X114.705 Y107.257 E.03195
G1 X115.122 Y108.151 E.03093
G1 X115.372 Y109.107 E.03098
G1 X115.445 Y110.092 E.03097
G1 X115.346 Y111.037 E.02979
G1 X115.087 Y111.945 E.02961
G1 X114.709 Y112.736 E.02749
G1 X114.229 Y113.432 E.02651
G1 X113.571 Y114.112 E.02967
G1 X112.742 Y114.705 E.03196
G1 X111.848 Y115.123 E.03094
G1 X110.893 Y115.372 E.03094
G1 X109.908 Y115.445 E.03097
G1 X108.967 Y115.347 E.02966
G1 X108.152 Y115.123 E.0265
G1 X107.354 Y114.76 E.02749
G1 X106.571 Y114.231 E.02963
G1 X105.889 Y113.571 E.02976
G1 X105.295 Y112.743 E.03195
G1 X104.878 Y111.849 E.03093
G1 X104.628 Y110.893 E.03098
G1 X104.555 Y109.908 E.03097
G1 X104.654 Y108.963 E.02979
G1 X104.915 Y108.05 E.02977
G1 X105.329 Y107.201 E.02962
G1 X105.838 Y106.488 E.02747
G1 X106.148 Y106.174 E.01383
G1 X106.148 Y106.174 F9000
G1 X106.416 Y106.439
G1 F1200
G1 X106.689 Y106.161 E.01222
G1 X107.466 Y105.61 E.02987
G1 X108.333 Y105.213 E.0299
G1 X109.186 Y104.997 E.02759
G1 X109.933 Y104.931 E.02351
G1 X110.947 Y105.02 E.03192
G1 X111.671 Y105.214 E.0235
G1 X112.472 Y105.575 E.02755
G1 X113.203 Y106.071 E.0277
G1 X113.836 Y106.687 E.02769
G1 X114.371 Y107.434 E.02881
G1 X114.762 Y108.265 E.0288
G1 X114.998 Y109.154 E.02884
G1 X115.068 Y110.071 E.02884
G1 X114.979 Y110.951 E.02773
G1 X114.739 Y111.798 E.0276
G1 X114.39 Y112.534 E.02554
G1 X113.927 Y113.205 E.02556
G1 X113.313 Y113.837 E.02763
G1 X112.566 Y114.371 E.02879
G1 X111.735 Y114.763 E.02881
G1 X110.846 Y114.998 E.02883
G1 X109.929 Y115.068 E.02884
G1 X109.052 Y114.979 E.02764
G1 X108.267 Y114.763 E.02553
G1 X107.526 Y114.424 E.02555
G1 X106.797 Y113.929 E.02763
G1 X106.164 Y113.313 E.02769
G1 X105.629 Y112.566 E.02881
G1 X105.238 Y111.735 E.0288
G1 X105.002 Y110.846 E.02884
G1 X104.932 Y109.929 E.02884
G1 X105.021 Y109.049 E.02773
G1 X105.262 Y108.199 E.0277
G1 X105.645 Y107.406 E.02761
G1 X106.117 Y106.742 E.02554
G1 X106.374 Y106.481 E.01148
G1 X106.374 Y106.481 F9000
G1 X106.642 Y106.746
G1 F1200
G1 X106.946 Y106.438 E.01357
G1 X107.668 Y105.929 E.0277
G1 X108.444 Y105.574 E.02676
G1 X109.234 Y105.371 E.02557
