; generated by PrusaSlicer 2.7.1+win64 on 2025-04-04 at 09:07:39 UTC

; 

; external perimeters extrusion width = 0.42mm
; perimeters extrusion width = 0.44mm
; infill extrusion width = 0.44mm
; solid infill extrusion width = 0.44mm
; top infill extrusion width = 0.40mm
; first layer extrusion width = 0.42mm

M201 X500 Y500 Z100 E5000 ; sets maximum accelerations, mm/sec^2
M203 X500 Y500 Z10 E60 ; sets maximum feedrates, mm / sec
M204 S500 T1000 ; sets acceleration (S) and retract acceleration (R), mm/sec^2
M205 X8.00 Y8.00 Z0.40 E5.00 ; sets the jerk limits, mm/sec
M205 S0 T0 ; sets the minimum extruding and travel feed rate, mm/sec

; printing object zadneekoleso.STL id:0 copy 0
; stop printing object zadneekoleso.STL id:0 copy 0

;TYPE:Custom
G90 ; use absolute coordinates
M83 ; extruder relative mode
M104 S150 ; set temporary nozzle temp to prevent oozing during homing
M140 S60 ; set final bed temp
G4 S30 ; allow partial nozzle warmup
G28 ; home all axis and restore leveling
G1 Z50 F240
G1 X2.0 Y10 F3000
M104 S210 ; set final nozzle temp
M190 S60 ; wait for bed temp to stabilize
M109 S210 ; wait for nozzle temp to stabilize
G1 Z0.28 F240
G92 E0
G1 X2.0 Y140 E10 F1500 ; prime the nozzle
G1 X2.3 Y140 F5000
G92 E0
G1 X2.3 Y10 E10 F1200 ; prime the nozzle
G92 E0
G21 ; set units to millimeters
G90 ; use absolute coordinates
M83 ; use relative distances for extrusion
; Filament gcode
M107
;LAYER_CHANGE
;Z:0.2
;HEIGHT:0.2
;BEFORE_LAYER_CHANGE
G92 E0
;0.2


G1 E-.8 F1800
G1 Z.2 F9000
;AFTER_LAYER_CHANGE
;0.2
G1 X95.903 Y96.282
G1 Z.2
G1 E.8 F1800
M204 S500
;TYPE:Skirt/Brim
;WIDTH:0.42
G1 F1200
G1 X97.106 Y95.147 E.05186
G1 X97.822 Y94.561 E.02901
G1 X99.953 Y93.09 E.08119
G1 X101.559 Y92.233 E.05708
G1 X103.188 Y91.554 E.05534
G1 X105.343 Y90.89 E.0707
G1 X107.16 Y90.537 E.05804
G1 X108.971 Y90.357 E.05706
G1 X111.224 Y90.375 E.07064
G1 X113.148 Y90.584 E.06068
G1 X115.09 Y91 E.06227
G1 X117.465 Y91.802 E.0786
G1 X118.692 Y92.355 E.0422
G1 X120.713 Y93.504 E.07289
G1 X122.526 Y94.842 E.07065
G1 X123.719 Y95.905 E.0501
G1 X124.854 Y97.106 E.05181
G1 X125.44 Y97.823 E.02903
G1 X126.91 Y99.954 E.08117
G1 X127.766 Y101.558 E.05701
G1 X128.447 Y103.189 E.05542
G1 X129.11 Y105.343 E.07066
G1 X129.483 Y107.296 E.06234
G1 X129.643 Y108.972 E.05279
G1 X129.614 Y111.476 E.07852
G1 X129.389 Y113.313 E.05803
G1 X128.999 Y115.092 E.0571
G1 X128.198 Y117.465 E.07853
G1 X127.569 Y118.844 E.04752
G1 X126.496 Y120.714 E.0676
G1 X125.158 Y122.526 E.07062
G1 X124.094 Y123.72 E.05014
G1 X122.869 Y124.875 E.05279
G1 X122.177 Y125.44 E.02801
G1 X120.046 Y126.91 E.08117
G1 X118.441 Y127.767 E.05705
G1 X116.811 Y128.447 E.05538
G1 X114.657 Y129.11 E.07066
G1 X112.704 Y129.483 E.06234
G1 X111.028 Y129.643 E.05279
G1 X108.524 Y129.614 E.07852
G1 X106.717 Y129.394 E.05708
G1 X104.908 Y128.999 E.05806
G1 X102.535 Y128.198 E.07853
G1 X101.156 Y127.569 E.04752
G1 X99.286 Y126.496 E.0676
G1 X97.474 Y125.158 E.07062
G1 X96.282 Y124.097 E.05004
G1 X95.127 Y122.872 E.05279
G1 X94.56 Y122.177 E.02812
G1 X93.09 Y120.047 E.08115
G1 X92.233 Y118.441 E.05708
G1 X91.553 Y116.811 E.05538
G1 X90.89 Y114.657 E.07066
G1 X90.517 Y112.704 E.06234
G1 X90.357 Y111.028 E.05279
G1 X90.386 Y108.524 E.07852
G1 X90.606 Y106.717 E.05708
G1 X91.001 Y104.909 E.05803
G1 X91.802 Y102.535 E.07856
G1 X92.429 Y101.159 E.04741
G1 X93.504 Y99.287 E.06768
G1 X94.842 Y97.474 E.07065
G1 X95.863 Y96.327 E.04815
G1 X96.145 Y96.578 F9000
G1 F1200
G1 X96.173 Y96.546 E.00133
G1 X97.354 Y95.43 E.05095
G1 X98.041 Y94.868 E.02783
G1 X100.144 Y93.415 E.08015
G1 X101.722 Y92.574 E.05607
G1 X103.3 Y91.914 E.05363
G1 X105.431 Y91.256 E.06993
G1 X107.213 Y90.91 E.05692
G1 X108.992 Y90.734 E.05605
G1 X111.22 Y90.752 E.06986
G1 X113.087 Y90.956 E.05889
G1 X114.993 Y91.365 E.06112
G1 X117.321 Y92.15 E.07703
G1 X118.524 Y92.693 E.04138
G1 X120.508 Y93.821 E.07156
G1 X122.301 Y95.145 E.06988
G1 X123.455 Y96.174 E.04848
G1 X124.57 Y97.354 E.0509
G1 X125.132 Y98.041 E.02783
G1 X126.586 Y100.145 E.08019
G1 X127.426 Y101.721 E.056
G1 X128.087 Y103.302 E.05373
G1 X128.744 Y105.431 E.06986
G1 X129.11 Y107.349 E.06122
G1 X129.266 Y108.993 E.05178
G1 X129.238 Y111.447 E.07695
G1 X129.022 Y113.22 E.056
G1 X128.634 Y114.996 E.057
G1 X127.85 Y117.321 E.07693
G1 X127.233 Y118.673 E.0466
G1 X126.179 Y120.51 E.06641
G1 X124.855 Y122.301 E.06983
G1 X123.825 Y123.456 E.04852
G1 X122.624 Y124.589 E.05177
G1 X121.959 Y125.132 E.02692
G1 X119.855 Y126.586 E.08019
G1 X118.278 Y127.427 E.05604
G1 X116.698 Y128.087 E.05369
G1 X114.569 Y128.744 E.06986
G1 X112.651 Y129.11 E.06122
G1 X111.007 Y129.266 E.05178
G1 X108.553 Y129.238 E.07695
G1 X106.779 Y129.022 E.05603
G1 X105.004 Y128.634 E.05697
G1 X102.679 Y127.85 E.07693
G1 X101.327 Y127.233 E.0466
G1 X99.49 Y126.179 E.06641
G1 X97.699 Y124.855 E.06983
G1 X96.546 Y123.827 E.04843
G1 X95.413 Y122.626 E.05177
G1 X94.868 Y121.959 E.02701
G1 X93.415 Y119.856 E.08015
G1 X92.573 Y118.278 E.05608
G1 X91.913 Y116.698 E.05369
G1 X91.256 Y114.569 E.06986
G1 X90.89 Y112.651 E.06122
G1 X90.734 Y111.007 E.05178
G1 X90.762 Y108.553 E.07695
G1 X90.978 Y106.779 E.05603
G1 X91.365 Y105.005 E.05693
G1 X92.15 Y102.679 E.07697
G1 X92.766 Y101.33 E.0465
G1 X93.821 Y99.491 E.06648
G1 X95.145 Y97.699 E.06986
G1 X96.105 Y96.622 E.04524
; printing object zadneekoleso.STL id:0 copy 0
;WIPE_START
G1 F7200
G1 X96.145 Y96.578 E-.01412
G1 X96.173 Y96.546 E-.0101
G1 X97.354 Y95.43 E-.38591
G1 X98.041 Y94.868 E-.2108
G1 X98.661 Y94.439 E-.17907
;WIPE_END
G1 X99.346 Y99.67 F9000
G1 E.8 F1800
;TYPE:Perimeter
;WIDTH:0.419999
G1 F1200
G1 X99.943 Y99.085 E.02621
G1 X100.584 Y99.506 E.02405
G1 X101.077 Y99.704 E.01666
G1 X101.594 Y99.786 E.01641
G1 X102.156 Y99.711 E.01778
G1 X102.637 Y99.465 E.01694
G1 X102.98 Y99.112 E.01543
G1 X103.208 Y98.652 E.0161
G1 X103.3 Y98.071 E.01844
G1 X103.255 Y97.555 E.01624
G1 X103.059 Y96.875 E.02219
G1 X103.808 Y96.512 E.0261
G1 X104.258 Y97.081 E.02275
G1 X104.649 Y97.42 E.01623
G1 X105.157 Y97.687 E.01799
G1 X105.593 Y97.784 E.014
G1 X106.141 Y97.739 E.01724
G1 X106.519 Y97.583 E.01282
G1 X106.907 Y97.271 E.01561
G1 X107.209 Y96.832 E.01671
G1 X107.383 Y96.351 E.01604
G1 X107.451 Y95.919 E.01371
G1 X107.44 Y95.374 E.01709
G1 X108.278 Y95.254 E.02654
G1 X108.45 Y95.753 E.01655
G1 X108.667 Y96.16 E.01446
G1 X108.988 Y96.607 E.01725
G1 X109.484 Y96.958 E.01905
G1 X109.743 Y97.078 E.00895
G1 X110.278 Y97.148 E.01692
G1 X110.819 Y97.026 E.01739
G1 X111.24 Y96.771 E.01543
G1 X111.634 Y96.354 E.01799
G1 X111.901 Y95.885 E.01692
G1 X112.101 Y95.302 E.01933
G1 X112.917 Y95.44 E.02595
G1 X112.949 Y96.173 E.023
G1 X113.062 Y96.671 E.01601
G1 X113.301 Y97.166 E.01723
G1 X113.624 Y97.534 E.01535
G1 X113.977 Y97.764 E.01321
G1 X114.492 Y97.91 E.01678
G1 X114.99 Y97.882 E.01564
G1 X115.485 Y97.705 E.01648
G1 X115.906 Y97.42 E.01594
G1 X116.257 Y97.065 E.01565
G1 X116.525 Y96.663 E.01515
G1 X117.273 Y97.055 E.02648
G1 X117.104 Y97.601 E.01792
G1 X117.034 Y98.125 E.01658
G1 X117.07 Y98.642 E.01625
G1 X117.234 Y99.14 E.01644
G1 X117.544 Y99.573 E.0167
G1 X117.957 Y99.868 E.01591
G1 X118.432 Y100.015 E.01559
G1 X118.939 Y100.016 E.0159
G1 X119.486 Y99.852 E.01791
G1 X119.831 Y99.696 E.01187
G1 X120.33 Y99.346 E.01911
G1 X120.915 Y99.943 E.02621
G1 X120.494 Y100.584 E.02405
G1 X120.296 Y101.077 E.01666
G1 X120.214 Y101.594 E.01641
G1 X120.277 Y102.111 E.01633
G1 X120.499 Y102.587 E.01647
G1 X120.879 Y102.973 E.01698
G1 X121.348 Y103.208 E.01645
G1 X121.929 Y103.3 E.01844
G1 X122.445 Y103.255 E.01624
G1 X123.092 Y103.073 E.02107
G1 X123.143 Y103.094 E.00173
G1 X123.488 Y103.808 E.02486
G1 X122.919 Y104.258 E.02275
G1 X122.58 Y104.649 E.01623
G1 X122.313 Y105.157 E.01799
G1 X122.216 Y105.598 E.01416
G1 X122.248 Y106.088 E.0154
G1 X122.424 Y106.532 E.01498
G1 X122.729 Y106.907 E.01516
G1 X123.168 Y107.209 E.01671
G1 X123.649 Y107.383 E.01604
G1 X124.142 Y107.459 E.01564
G1 X124.626 Y107.44 E.01519
G1 X124.748 Y108.276 E.02649
G1 X124.135 Y108.494 E.0204
G1 X123.845 Y108.659 E.01046
G1 X123.393 Y108.988 E.01753
G1 X123.042 Y109.484 E.01905
G1 X122.912 Y109.782 E.01019
G1 X122.854 Y110.317 E.01687
G1 X122.971 Y110.811 E.01592
G1 X123.229 Y111.24 E.0157
G1 X123.638 Y111.628 E.01768
G1 X124.115 Y111.901 E.01723
G1 X124.698 Y112.101 E.01933
G1 X124.56 Y112.917 E.02595
G1 X123.827 Y112.949 E.023
G1 X123.324 Y113.064 E.01618
G1 X122.834 Y113.301 E.01707
G1 X122.46 Y113.63 E.01562
G1 X122.232 Y113.986 E.01326
G1 X122.09 Y114.495 E.01657
G1 X122.118 Y114.99 E.01555
G1 X122.295 Y115.485 E.01648
G1 X122.58 Y115.906 E.01594
G1 X122.935 Y116.257 E.01565
G1 X123.337 Y116.525 E.01515
G1 X122.945 Y117.273 E.02648
G1 X122.47 Y117.119 E.01566
G1 X121.962 Y117.037 E.01613
G1 X121.445 Y117.052 E.01622
G1 X120.92 Y117.202 E.01712
G1 X120.471 Y117.499 E.01688
G1 X120.132 Y117.956 E.01784
G1 X119.985 Y118.432 E.01562
G1 X119.984 Y118.939 E.0159
G1 X120.148 Y119.486 E.01791
G1 X120.304 Y119.831 E.01187
G1 X120.654 Y120.33 E.01911
G1 X120.057 Y120.915 E.02621
G1 X119.416 Y120.494 E.02405
G1 X118.923 Y120.296 E.01666
G1 X118.406 Y120.214 E.01641
G1 X117.844 Y120.289 E.01778
G1 X117.379 Y120.523 E.01632
G1 X117.024 Y120.884 E.01587
G1 X116.792 Y121.35 E.01632
G1 X116.7 Y121.929 E.01838
G1 X116.745 Y122.445 E.01624
G1 X116.927 Y123.092 E.02107
G1 X116.906 Y123.143 E.00173
G1 X116.192 Y123.488 E.02486
G1 X115.742 Y122.919 E.02275
G1 X115.364 Y122.59 E.01571
G1 X114.845 Y122.313 E.01845
G1 X114.405 Y122.216 E.01413
G1 X113.939 Y122.243 E.01464
G1 X113.468 Y122.424 E.01582
G1 X113.086 Y122.737 E.01548
G1 X112.789 Y123.171 E.01649
G1 X112.617 Y123.649 E.01593
G1 X112.541 Y124.142 E.01564
G1 X112.56 Y124.626 E.01519
G1 X111.724 Y124.748 E.02649
G1 X111.454 Y124.02 E.02435
G1 X111.173 Y123.601 E.01582
G1 X110.932 Y123.321 E.01158
G1 X110.516 Y123.042 E.01571
G1 X110.173 Y122.902 E.01162
G1 X109.674 Y122.855 E.01572
G1 X109.186 Y122.972 E.01573
G1 X108.76 Y123.229 E.0156
G1 X108.378 Y123.631 E.01739
G1 X108.099 Y124.115 E.01752
G1 X107.899 Y124.698 E.01933
G1 X107.083 Y124.56 E.02595
G1 X107.051 Y123.827 E.023
G1 X106.933 Y123.318 E.01638
G1 X106.699 Y122.834 E.01686
G1 X106.379 Y122.469 E.01522
G1 X106.016 Y122.233 E.01358
G1 X105.504 Y122.09 E.01667
G1 X105.01 Y122.118 E.01551
G1 X104.515 Y122.295 E.01648
G1 X104.094 Y122.58 E.01594
G1 X103.743 Y122.935 E.01565
G1 X103.475 Y123.337 E.01515
G1 X102.727 Y122.945 E.02648
G1 X102.931 Y122.181 E.02479
G1 X102.96 Y121.575 E.01902
G1 X102.862 Y121.094 E.01539
G1 X102.748 Y120.829 E.00905
G1 X102.452 Y120.423 E.01575
G1 X102.044 Y120.132 E.01571
G1 X101.568 Y119.985 E.01562
G1 X101.061 Y119.984 E.0159
G1 X100.514 Y120.148 E.01791
G1 X100.169 Y120.304 E.01187
G1 X99.67 Y120.654 E.01911
G1 X99.085 Y120.057 E.02621
G1 X99.506 Y119.416 E.02405
G1 X99.704 Y118.923 E.01666
G1 X99.786 Y118.406 E.01641
G1 X99.711 Y117.844 E.01778
G1 X99.482 Y117.385 E.01608
G1 X99.112 Y117.02 E.0163
G1 X98.652 Y116.792 E.0161
G1 X98.071 Y116.7 E.01844
G1 X97.555 Y116.745 E.01624
G1 X96.908 Y116.927 E.02107
G1 X96.857 Y116.906 E.00173
G1 X96.512 Y116.192 E.02486
G1 X97.081 Y115.742 E.02275
G1 X97.42 Y115.351 E.01623
G1 X97.687 Y114.843 E.01799
G1 X97.784 Y114.407 E.014
G1 X97.757 Y113.94 E.01467
G1 X97.576 Y113.468 E.01585
G1 X97.271 Y113.093 E.01516
G1 X96.832 Y112.791 E.01671
G1 X96.351 Y112.617 E.01604
G1 X95.858 Y112.541 E.01564
G1 X95.374 Y112.56 E.01519
G1 X95.252 Y111.724 E.02649
G1 X95.865 Y111.506 E.0204
G1 X96.155 Y111.341 E.01046
G1 X96.607 Y111.012 E.01753
G1 X96.959 Y110.516 E.01907
G1 X97.089 Y110.218 E.01019
G1 X97.148 Y109.713 E.01594
G1 X97.025 Y109.177 E.01724
G1 X96.771 Y108.76 E.01531
G1 X96.369 Y108.378 E.01739
G1 X95.885 Y108.099 E.01752
G1 X95.302 Y107.899 E.01933
G1 X95.44 Y107.083 E.02595
G1 X96.173 Y107.051 E.023
G1 X96.682 Y106.933 E.01638
G1 X97.166 Y106.699 E.01686
G1 X97.526 Y106.386 E.01496
G1 X97.788 Y105.973 E.01534
G1 X97.918 Y105.438 E.01726
G1 X97.87 Y104.937 E.01578
G1 X97.706 Y104.518 E.01411
G1 X97.42 Y104.094 E.01604
G1 X97.065 Y103.743 E.01565
G1 X96.663 Y103.475 E.01515
G1 X97.055 Y102.727 E.02648
G1 X97.601 Y102.896 E.01792
G1 X98.125 Y102.966 E.01658
G1 X98.642 Y102.93 E.01625
G1 X99.144 Y102.764 E.01658
G1 X99.575 Y102.454 E.01665
G1 X99.868 Y102.043 E.01583
G1 X100.015 Y101.568 E.01559
G1 X100.016 Y101.061 E.0159
G1 X99.852 Y100.514 E.01791
G1 X99.696 Y100.169 E.01187
G1 X99.38 Y99.72 E.01722
;WIPE_START
G1 F7200
G1 X99.346 Y99.67 E-.01436
G1 X99.943 Y99.085 E-.19851
G1 X100.584 Y99.506 E-.18214
G1 X101.077 Y99.704 E-.12618
G1 X101.594 Y99.786 E-.12432
G1 X102.156 Y99.711 E-.13466
G1 X102.23 Y99.673 E-.01983
;WIPE_END
G1 X99.626 Y101.537 F9000
G1 E.8 F1800
G1 F1200
G1 X99.651 Y101.228 E.00972
G1 X99.587 Y100.923 E.00977
G1 X99.388 Y100.386 E.01796
G1 X99.007 Y99.844 E.02077
G1 X98.829 Y99.663 E.00796
G1 X99.449 Y99.019 E.02803
G1 X99.949 Y98.576 E.02095
G1 X100.196 Y98.808 E.01063
G1 X100.788 Y99.188 E.02206
G1 X101.201 Y99.348 E.01389
G1 X101.575 Y99.406 E.01187
G1 X101.964 Y99.369 E.01225
G1 X102.327 Y99.216 E.01235
G1 X102.631 Y98.942 E.01283
G1 X102.826 Y98.592 E.01256
G1 X102.915 Y98.205 E.01245
G1 X102.892 Y97.657 E.0172
G1 X102.71 Y97.01 E.02107
G1 X102.563 Y96.714 E.01036
G1 X103.355 Y96.298 E.02805
G1 X103.971 Y96.029 E.02108
G1 X104.131 Y96.323 E.01049
G1 X104.527 Y96.813 E.01975
G1 X104.858 Y97.104 E.01382
G1 X105.192 Y97.293 E.01203
G1 X105.567 Y97.398 E.01221
G1 X105.948 Y97.392 E.01195
G1 X106.325 Y97.257 E.01256
G1 X106.649 Y96.996 E.01304
G1 X106.884 Y96.642 E.01332
G1 X107.023 Y96.24 E.01334
G1 X107.087 Y95.699 E.01708
G1 X107.037 Y95.065 E.01994
G1 X107.788 Y94.933 E.02391
G1 X108.563 Y94.84 E.02447
G1 X108.625 Y95.104 E.0085
G1 X108.827 Y95.688 E.01938
G1 X109.146 Y96.195 E.01878
G1 X109.346 Y96.415 E.00932
G1 X109.806 Y96.702 E.017
G1 X110.257 Y96.771 E.01431
G1 X110.636 Y96.689 E.01216
G1 X111.026 Y96.461 E.01416
G1 X111.33 Y96.131 E.01407
G1 X111.541 Y95.759 E.01341
G1 X111.723 Y95.269 E.01639
G1 X111.786 Y94.882 E.01229
G1 X112.583 Y94.999 E.02526
G1 X113.335 Y95.149 E.02404
G1 X113.292 Y95.485 E.01062
G1 X113.322 Y96.098 E.01924
G1 X113.419 Y96.548 E.01443
G1 X113.577 Y96.892 E.01187
G1 X113.815 Y97.194 E.01206
G1 X114.124 Y97.414 E.01189
G1 X114.514 Y97.53 E.01276
G1 X114.942 Y97.508 E.01344
G1 X115.333 Y97.36 E.01311
G1 X115.679 Y97.118 E.01324
G1 X116.049 Y96.718 E.01708
G1 X116.382 Y96.176 E.01995
G1 X116.487 Y96.223 E.00361
G1 X117.108 Y96.534 E.02178
G1 X117.767 Y96.905 E.02371
G1 X117.601 Y97.245 E.01186
G1 X117.441 Y97.879 E.0205
G1 X117.417 Y98.417 E.01689
G1 X117.503 Y98.812 E.01268
G1 X117.702 Y99.179 E.01309
G1 X118.021 Y99.467 E.01348
G1 X118.389 Y99.619 E.01248
G1 X118.772 Y99.651 E.01205
G1 X119.077 Y99.587 E.00977
G1 X119.614 Y99.388 E.01796
G1 X120.156 Y99.007 E.02077
G1 X120.337 Y98.829 E.00796
G1 X120.98 Y99.449 E.02801
G1 X121.424 Y99.949 E.02097
G1 X121.192 Y100.196 E.01063
G1 X120.812 Y100.788 E.02206
G1 X120.652 Y101.2 E.01386
G1 X120.594 Y101.575 E.0119
G1 X120.631 Y101.964 E.01225
G1 X120.784 Y102.327 E.01235
G1 X121.044 Y102.62 E.01228
G1 X121.403 Y102.824 E.01295
G1 X121.795 Y102.915 E.01262
G1 X122.343 Y102.892 E.0172
G1 X122.99 Y102.71 E.02107
G1 X123.286 Y102.563 E.01036
G1 X123.702 Y103.355 E.02805
G1 X123.971 Y103.971 E.02108
G1 X123.677 Y104.131 E.01049
G1 X123.187 Y104.527 E.01975
G1 X122.896 Y104.858 E.01382
G1 X122.707 Y105.193 E.01206
G1 X122.601 Y105.571 E.01231
G1 X122.608 Y105.949 E.01185
G1 X122.743 Y106.325 E.01253
G1 X123.004 Y106.649 E.01304
G1 X123.358 Y106.884 E.01332
G1 X123.793 Y107.032 E.01441
G1 X124.301 Y107.087 E.01602
G1 X124.935 Y107.037 E.01994
G1 X125.073 Y107.841 E.02558
G1 X125.148 Y108.44 E.01893
G1 X125.16 Y108.584 E.00453
G1 X124.911 Y108.622 E.0079
G1 X124.389 Y108.802 E.01731
G1 X124.059 Y108.969 E.0116
G1 X123.613 Y109.307 E.01755
G1 X123.322 Y109.751 E.01664
G1 X123.228 Y110.218 E.01494
G1 X123.309 Y110.63 E.01317
G1 X123.539 Y111.026 E.01436
G1 X123.869 Y111.33 E.01407
G1 X124.241 Y111.541 E.01341
G1 X124.731 Y111.723 E.01639
G1 X125.118 Y111.786 E.01229
G1 X125.001 Y112.583 E.02526
G1 X124.851 Y113.335 E.02404
G1 X124.515 Y113.292 E.01062
